; generated by PrusaSlicer 2.8.1+linux-x64-GTK3 on 2024-12-14 at 10:10:01 UTC

; 

; external perimeters extrusion width = 0.45mm
; perimeters extrusion width = 0.45mm
; infill extrusion width = 0.45mm
; solid infill extrusion width = 0.45mm
; top infill extrusion width = 0.40mm
; support material extrusion width = 0.35mm
; first layer extrusion width = 0.40mm

M190 S85 ; set bed temperature and wait for it to be reached
M104 S230 ; set temperature
;TYPE:Custom
G28 ; home all axes
G1 Z5 F5000 ; lift nozzle
M109 S230 ; set temperature and wait for it to be reached
G21 ; set units to millimeters
G90 ; use absolute coordinates
M82 ; use absolute distances for extrusion
G92 E0
; Filament gcode
M107
;LAYER_CHANGE
;Z:0.2
;HEIGHT:0.2
G1 E-5 F1800
G92 E0
G1 Z.2 F6000
G1 X98.296 Y88.477
G1 E5 F1800
;TYPE:Skirt/Brim
;WIDTH:0.4
G1 X98.669 Y88.062 E5.01657
G1 X100.019 Y87.038 E5.06688
G1 X101.669 Y86.218 E5.12159
G1 X103.3 Y85.763 E5.17187
G1 X104.35 Y85.63 E5.20329
G1 X105.257 Y85.611 E5.23023
G1 X107.086 Y85.842 E5.28497
G1 X108.695 Y86.365 E5.3352
G1 X110.31 Y87.253 E5.38992
G1 X111.033 Y87.802 E5.41687
G1 X111.805 Y88.527 E5.44831
G1 X112.398 Y89.214 E5.47526
G1 X113.002 Y90.082 E5.50666
G1 X113.755 Y91.599 E5.55695
G1 X114.25 Y93.374 E5.61166
G1 X114.364 Y94.274 E5.6386
G1 X114.386 Y95.333 E5.67005
G1 X114.174 Y97.012 E5.7203
G1 X113.89 Y98.032 E5.75174
G1 X113.555 Y98.875 E5.77867
G1 X112.634 Y100.472 E5.83341
G1 X112.073 Y101.179 E5.86021
G1 X111.331 Y101.938 E5.89173
G1 X109.981 Y102.962 E5.94204
G1 X108.331 Y103.782 E5.99675
G1 X107.467 Y104.062 E6.02372
G1 X106.432 Y104.282 E6.05514
G1 X104.743 Y104.389 E6.10539
G1 X102.914 Y104.158 E6.16013
G1 X101.305 Y103.635 E6.21036
G1 X100.356 Y103.164 E6.24182
G1 X99.59 Y102.678 E6.26875
G1 X98.195 Y101.473 E6.32348
G1 X97.602 Y100.786 E6.35043
G1 X97 Y99.92 E6.38174
G1 X96.245 Y98.401 E6.4321
G1 X95.75 Y96.627 E6.48678
G1 X95.636 Y95.726 E6.51375
G1 X95.614 Y94.671 E6.54508
G1 X95.825 Y92.99 E6.59538
G1 X96.109 Y91.972 E6.62676
G1 X96.445 Y91.125 E6.65382
G1 X96.934 Y90.189 E6.68518
G1 X97.436 Y89.432 E6.71215
G1 X98.256 Y88.522 E6.74852
G1 X98.256 Y88.522 F6000
G1 X98.52 Y88.76
G1 F1800
G1 X98.914 Y88.322 E6.76601
G1 X100.204 Y87.343 E6.81409
G1 X101.801 Y86.55 E6.86703
G1 X103.359 Y86.115 E6.91506
G1 X105.242 Y85.968 E6.97114
G1 X107.115 Y86.216 E7.02724
G1 X108.799 Y86.802 E7.08018
G1 X110.42 Y87.771 E7.13625
G1 X111.623 Y88.854 E7.18431
G1 X112.756 Y90.365 E7.24038
G1 X113.515 Y91.978 E7.29331
G1 X113.917 Y93.546 E7.34137
G1 X114.029 Y95.325 E7.3943
G1 X113.827 Y96.93 E7.44233
G1 X113.232 Y98.723 E7.49842
G1 X112.341 Y100.268 E7.55137
G1 X111.086 Y101.678 E7.60742
G1 X109.796 Y102.657 E7.6555
G1 X108.199 Y103.45 E7.70844
G1 X106.641 Y103.885 E7.75647
G1 X104.758 Y104.032 E7.81255
G1 X102.989 Y103.808 E7.86549
G1 X101.45 Y103.309 E7.91353
G1 X99.8 Y102.389 E7.96962
G1 X98.45 Y101.224 E8.02256
G1 X97.301 Y99.729 E8.07854
G1 X96.58 Y98.277 E8.12667
G1 X96.101 Y96.56 E8.1796
G1 X95.971 Y94.678 E8.23561
G1 X96.173 Y93.071 E8.2837
G1 X96.768 Y91.277 E8.33982
G1 X97.721 Y89.648 E8.39586
G1 X98.48 Y88.804 E8.42956
G1 X98.48 Y88.804 F6000
G1 X98.744 Y89.042
G1 F1800
G1 X99.159 Y88.582 E8.44795
G1 X100.389 Y87.648 E8.49381
G1 X101.932 Y86.882 E8.54496
G1 X103.419 Y86.467 E8.5908
G1 X105.227 Y86.325 E8.64465
G1 X106.937 Y86.541 E8.69583
G1 X108.654 Y87.128 E8.74971
G1 X110.21 Y88.06 E8.80356
G1 X111.357 Y89.093 E8.84939
G1 X112.447 Y90.544 E8.90327
G1 X113.18 Y92.103 E8.95442
G1 X113.564 Y93.598 E9.00025
G1 X113.672 Y95.318 E9.05142
G1 X113.479 Y96.849 E9.09724
G1 X112.909 Y98.571 E9.1511
G1 X112.048 Y100.064 E9.20227
G1 X110.841 Y101.418 E9.25613
G1 X109.611 Y102.352 E9.30199
G1 X108.068 Y103.118 E9.35314
G1 X106.581 Y103.533 E9.39898
G1 X104.773 Y103.675 E9.45283
G1 X103.063 Y103.459 E9.50401
G1 X101.595 Y102.982 E9.54984
G1 X100.085 Y102.152 E9.601
G1 X98.705 Y100.974 E9.65487
G1 X97.603 Y99.538 E9.70861
G1 X96.915 Y98.152 E9.75455
G1 X96.451 Y96.493 E9.8057
G1 X96.328 Y94.685 E9.85951
G1 X96.521 Y93.153 E9.90536
G1 X97.091 Y91.429 E9.95927
G1 X98.005 Y89.863 E10.01311
G1 X98.704 Y89.087 E10.04412
G1 E5.04412
G92 E0
G1 X98.704 Y89.087 F6000
G92 E0
G1 X102.497 Y97.996
G1 E5 F1800
;TYPE:Perimeter
;WIDTH:0.399999
G1 X102.317 Y97.847 E5.00694
G1 X101.795 Y97.241 E5.03069
G1 X101.491 Y96.702 E5.04906
G1 X101.336 Y96.37 E5.05994
G1 X101.19 Y95.886 E5.07495
G1 X101.115 Y95.327 E5.0917
G1 X101.094 Y94.872 E5.10522
G1 X101.157 Y94.278 E5.12296
G1 X101.329 Y93.685 E5.14129
G1 X101.467 Y93.325 E5.15274
G1 X101.783 Y92.777 E5.17152
G1 X102.21 Y92.258 E5.19147
G1 X102.679 Y91.854 E5.20985
G1 X103.193 Y91.546 E5.22764
G1 X103.588 Y91.355 E5.24067
G1 X104.176 Y91.177 E5.25891
G1 X104.79 Y91.097 E5.27729
G1 X105.641 Y91.143 E5.30259
G1 X106.429 Y91.36 E5.32686
G1 X106.948 Y91.623 E5.34414
G1 X107.349 Y91.877 E5.35823
G1 X107.738 Y92.203 E5.3733
G1 X108.205 Y92.759 E5.39486
G1 X108.508 Y93.277 E5.41268
G1 X108.799 Y94.079 E5.43801
G1 X108.885 Y94.673 E5.45583
G1 X108.907 Y95.111 E5.46885
G1 X108.843 Y95.722 E5.48709
G1 X108.682 Y96.281 E5.50436
G1 X108.516 Y96.706 E5.51791
G1 X108.217 Y97.223 E5.53564
G1 X107.814 Y97.714 E5.5545
G1 X107.335 Y98.134 E5.57341
G1 X106.806 Y98.455 E5.59178
G1 X106.394 Y98.65 E5.60531
G1 X105.824 Y98.823 E5.623
G1 X105.192 Y98.905 E5.64192
G1 X104.592 Y98.877 E5.65975
G1 X104.141 Y98.812 E5.67328
G1 X103.571 Y98.64 E5.69096
G1 X103.019 Y98.359 E5.70935
G1 X102.706 Y98.169 E5.72022
G1 X102.543 Y98.034 E5.7265
G1 X102.543 Y98.034 F6000
G1 X102.731 Y97.724
G1 F1800
G1 X102.45 Y97.472 E5.73771
G1 X102.07 Y97.013 E5.7554
G1 X101.808 Y96.536 E5.77156
G1 X101.61 Y96.043 E5.78733
G1 X101.508 Y95.648 E5.79944
G1 X101.446 Y95.056 E5.81711
G1 X101.535 Y94.206 E5.84249
G1 X101.73 Y93.606 E5.86122
G1 X102.092 Y92.956 E5.88331
G1 X102.48 Y92.491 E5.90129
G1 X102.907 Y92.129 E5.91791
G1 X103.365 Y91.858 E5.93371
G1 X103.691 Y91.697 E5.94451
G1 X104.279 Y91.519 E5.96275
G1 X104.827 Y91.452 E5.97914
G1 X105.611 Y91.498 E6.00246
G1 X106.326 Y91.702 E6.02454
G1 X106.776 Y91.936 E6.0396
G1 X107.122 Y92.152 E6.05171
G1 X107.526 Y92.499 E6.06752
G1 X107.93 Y92.987 E6.08633
G1 X108.195 Y93.45 E6.10217
G1 X108.459 Y94.189 E6.12547
G1 X108.53 Y94.71 E6.14108
G1 X108.552 Y95.074 E6.15191
G1 X108.488 Y95.684 E6.17012
G1 X108.342 Y96.171 E6.18522
G1 X108.206 Y96.527 E6.19654
G1 X107.908 Y97.044 E6.21426
G1 X107.543 Y97.481 E6.23117
G1 X107.108 Y97.859 E6.24828
G1 X106.634 Y98.142 E6.26467
G1 X106.291 Y98.309 E6.276
G1 X105.721 Y98.481 E6.29368
G1 X105.155 Y98.55 E6.31061
G1 X104.622 Y98.521 E6.32646
G1 X104.244 Y98.47 E6.33778
G1 X103.674 Y98.298 E6.35546
G1 X103.191 Y98.046 E6.37164
G1 X102.778 Y97.761 E6.38654
G1 X102.778 Y97.761 F6000
G1 X102.965 Y97.454
;TYPE:External perimeter
G1 F1800
G1 X102.772 Y97.297 E6.39393
G1 X102.346 Y96.786 E6.41368
G1 X102.032 Y96.195 E6.43355
G1 X101.874 Y95.68 E6.44954
G1 X101.801 Y95.018 E6.46931
G1 X101.867 Y94.353 E6.48915
G1 X102.07 Y93.716 E6.509
G1 X102.401 Y93.135 E6.52885
G1 X102.751 Y92.725 E6.54486
G1 X103.162 Y92.381 E6.56077
G1 X103.743 Y92.058 E6.58051
G1 X104.382 Y91.861 E6.60036
G1 X104.918 Y91.802 E6.61637
G1 X105.581 Y91.854 E6.63612
G1 X106.223 Y92.044 E6.656
G1 X106.811 Y92.363 E6.67586
G1 X107.228 Y92.703 E6.69184
G1 X107.654 Y93.214 E6.71159
G1 X107.917 Y93.685 E6.72761
G1 X108.12 Y94.3 E6.74684
G1 X108.199 Y94.981 E6.7672
G1 X108.133 Y95.647 E6.78707
G1 X107.93 Y96.284 E6.80692
G1 X107.599 Y96.865 E6.82677
G1 X107.273 Y97.248 E6.8417
G1 X106.88 Y97.584 E6.85705
G1 X106.257 Y97.942 E6.87838
G1 X105.618 Y98.139 E6.89823
G1 X105.118 Y98.195 E6.91317
G1 X104.419 Y98.146 E6.93398
G1 X103.777 Y97.956 E6.95386
G1 X103.189 Y97.637 E6.97372
G1 X103.011 Y97.492 E6.98054
G1 X102.718 Y97.22 F6000
G1 E1.98054 F1800
G92 E0
G1 X105.098 Y89.417 F6000
G1 E5 F1800
;TYPE:Perimeter
G1 X105.108 Y89.416 E5.0003
G1 X105.781 Y89.473 E5.02035
G1 X106.266 Y89.561 E5.03499
G1 X106.914 Y89.756 E5.05508
G1 X107.378 Y89.947 E5.06998
G1 X107.821 Y90.183 E5.08488
G1 X108.418 Y90.585 E5.10625
G1 X109.064 Y91.17 E5.13213
G1 X109.496 Y91.691 E5.15223
G1 X109.794 Y92.138 E5.16818
G1 X110.169 Y92.915 E5.1938
G1 X110.399 Y93.577 E5.21461
G1 X110.507 Y94.069 E5.22957
G1 X110.565 Y94.567 E5.24446
G1 X110.579 Y95.234 E5.26427
G1 X110.509 Y95.897 E5.28406
G1 X110.41 Y96.389 E5.29896
G1 X110.26 Y96.868 E5.31386
G1 X109.977 Y97.529 E5.33521
G1 X109.524 Y98.275 E5.36112
G1 X109.093 Y98.795 E5.38117
G1 X108.71 Y99.173 E5.39715
G1 X108.036 Y99.685 E5.42228
G1 X107.595 Y99.945 E5.43748
G1 X106.978 Y100.22 E5.45754
G1 X106.468 Y100.387 E5.47347
G1 X105.851 Y100.51 E5.49215
G1 X104.936 Y100.583 E5.5194
G1 X104.425 Y100.555 E5.53459
G1 X103.759 Y100.442 E5.55465
G1 X103.241 Y100.299 E5.57061
G1 X102.627 Y100.044 E5.59035
G1 X101.903 Y99.643 E5.61492
G1 X101.448 Y99.309 E5.63168
G1 X100.954 Y98.846 E5.65178
G1 X100.602 Y98.441 E5.66771
G1 X100.232 Y97.888 E5.68747
G1 X99.851 Y97.154 E5.71202
G1 X99.656 Y96.623 E5.72882
G1 X99.51 Y96 E5.74782
G1 X99.436 Y95.477 E5.7635
G1 X99.422 Y94.801 E5.78358
G1 X99.465 Y94.265 E5.79955
G1 X99.601 Y93.614 E5.8193
G1 X99.858 Y92.828 E5.84385
G1 X100.102 Y92.318 E5.86064
G1 X100.464 Y91.747 E5.88071
G1 X100.796 Y91.325 E5.89665
G1 X101.242 Y90.882 E5.91531
G1 X101.964 Y90.315 E5.94257
G1 X102.404 Y90.055 E5.95774
G1 X103.054 Y89.766 E5.97886
G1 X103.692 Y89.573 E5.99865
G1 X104.219 Y89.471 E6.01459
G1 X105.038 Y89.421 E6.03895
G1 X105.038 Y89.421 F6000
G1 X105.113 Y89.059
G1 F1800
G1 X105.12 Y89.059 E6.03916
G1 X105.811 Y89.117 E6.05975
G1 X106.351 Y89.213 E6.07603
G1 X107.017 Y89.414 E6.09669
G1 X107.484 Y89.604 E6.11166
G1 X107.966 Y89.851 E6.12774
G1 X108.545 Y90.236 E6.14838
G1 X108.938 Y90.552 E6.16335
G1 X109.328 Y90.928 E6.17943
G1 X109.771 Y91.464 E6.20008
G1 X110.055 Y91.88 E6.21504
G1 X110.32 Y92.353 E6.23114
G1 X110.589 Y92.992 E6.25173
G1 X110.756 Y93.522 E6.26823
G1 X110.866 Y94.059 E6.28451
G1 X110.922 Y94.56 E6.29948
G1 X110.937 Y95.249 E6.31994
G1 X110.865 Y95.934 E6.34039
G1 X110.766 Y96.429 E6.35538
G1 X110.614 Y96.949 E6.37147
G1 X110.345 Y97.589 E6.39208
G1 X110.107 Y98.034 E6.40706
G1 X109.811 Y98.488 E6.42315
G1 X109.328 Y99.071 E6.44563
G1 X108.938 Y99.448 E6.46174
G1 X108.225 Y99.989 E6.48831
G1 X107.757 Y100.264 E6.50443
G1 X107.123 Y100.546 E6.52503
G1 X106.646 Y100.708 E6.53999
G1 X106.118 Y100.836 E6.55612
G1 X105.429 Y100.923 E6.57674
G1 X104.926 Y100.94 E6.59168
G1 X104.384 Y100.91 E6.6078
G1 X103.699 Y100.794 E6.62843
G1 X103.212 Y100.665 E6.64339
G1 X102.702 Y100.48 E6.6595
G1 X102.08 Y100.171 E6.68012
G1 X101.651 Y99.906 E6.69509
G1 X101.217 Y99.582 E6.71117
G1 X100.71 Y99.106 E6.73182
G1 X100.376 Y98.729 E6.74677
G1 X100.054 Y98.293 E6.76286
G1 X99.706 Y97.691 E6.78351
G1 X99.495 Y97.233 E6.79848
G1 X99.313 Y96.723 E6.81456
G1 X99.154 Y96.046 E6.83521
G1 X99.079 Y95.503 E6.85149
G1 X99.065 Y94.809 E6.8721
G1 X99.1 Y94.305 E6.8871
G1 X99.186 Y93.77 E6.90319
G1 X99.373 Y93.102 E6.92379
G1 X99.553 Y92.63 E6.93879
G1 X99.79 Y92.142 E6.9549
G1 X100.162 Y91.556 E6.97551
G1 X100.47 Y91.157 E6.99048
G1 X100.839 Y90.758 E7.00662
G1 X101.365 Y90.304 E7.02725
G1 X101.775 Y90.011 E7.04221
G1 X102.242 Y89.737 E7.05829
G1 X102.929 Y89.431 E7.08062
G1 X103.589 Y89.232 E7.10109
G1 X104.03 Y89.141 E7.11446
G1 X104.577 Y89.075 E7.13082
G1 X105.054 Y89.061 E7.14499
G1 X105.054 Y89.061 F6000
G1 X105.128 Y88.709
;TYPE:External perimeter
G1 F1800
G1 X105.212 Y88.708 E7.14748
G1 X106.002 Y88.783 E7.17104
G1 X106.515 Y88.89 E7.1866
G1 X107.273 Y89.128 E7.21019
G1 X107.74 Y89.33 E7.2253
G1 X108.412 Y89.719 E7.24835
G1 X108.873 Y90.035 E7.26494
G1 X109.262 Y90.364 E7.28007
G1 X109.643 Y90.749 E7.29615
G1 X110.143 Y91.367 E7.31975
G1 X110.42 Y91.794 E7.33486
G1 X110.771 Y92.505 E7.3584
G1 X110.973 Y93.007 E7.37447
G1 X111.119 Y93.514 E7.39014
G1 X111.22 Y94.014 E7.40529
G1 X111.279 Y94.552 E7.42136
G1 X111.284 Y95.361 E7.44538
G1 X111.194 Y96.132 E7.46843
G1 X111.083 Y96.629 E7.48355
G1 X110.827 Y97.362 E7.5066
G1 X110.603 Y97.873 E7.52317
G1 X110.352 Y98.318 E7.53834
G1 X109.942 Y98.889 E7.55921
G1 X109.534 Y99.37 E7.57794
G1 X109.165 Y99.723 E7.5931
G1 X108.755 Y100.055 E7.60876
G1 X108.319 Y100.352 E7.62442
G1 X107.631 Y100.711 E7.64746
G1 X107.117 Y100.93 E7.66405
G1 X106.631 Y101.083 E7.67918
G1 X105.94 Y101.218 E7.70008
G1 X105.312 Y101.289 E7.71884
G1 X104.803 Y101.294 E7.73395
G1 X104.031 Y101.213 E7.757
G1 X103.481 Y101.111 E7.77361
G1 X102.789 Y100.893 E7.79515
G1 X102.309 Y100.684 E7.81069
G1 X101.779 Y100.411 E7.82839
G1 X101.237 Y100.046 E7.84779
G1 X100.729 Y99.614 E7.86759
G1 X100.353 Y99.249 E7.88315
G1 X99.897 Y98.685 E7.90468
G1 X99.614 Y98.245 E7.92021
G1 X99.323 Y97.725 E7.9379
G1 X99.073 Y97.121 E7.95731
G1 X98.889 Y96.48 E7.97711
G1 X98.778 Y95.968 E7.99267
G1 X98.716 Y95.213 E8.01516
G1 X98.713 Y94.654 E8.03176
G1 X98.797 Y93.932 E8.05334
G1 X98.913 Y93.422 E8.06887
G1 X99.081 Y92.851 E8.08654
G1 X99.274 Y92.379 E8.10168
G1 X99.522 Y91.898 E8.11775
G1 X99.954 Y91.233 E8.1413
G1 X100.276 Y90.836 E8.15648
G1 X100.776 Y90.341 E8.17737
G1 X101.26 Y89.934 E8.19615
G1 X101.681 Y89.648 E8.21126
G1 X102.369 Y89.289 E8.2343
G1 X102.898 Y89.067 E8.25133
G1 X103.643 Y88.851 E8.27436
G1 X104.144 Y88.761 E8.28947
G1 X104.67 Y88.711 E8.30516
G1 X105.068 Y88.709 E8.31698
G1 X105.468 Y88.735 F6000
G1 X104.967 Y89.529
;TYPE:Solid infill
;WIDTH:0.409089
G1 F1800
G1 X106.565 Y91.128 E8.38581
G1 X105.823 Y90.904 E8.40941
G1 X104.618 Y89.699 E8.4613
G1 X104.155 Y89.753 E8.47549
G1 X105.244 Y90.842 E8.52238
G1 X105.03 Y90.822 E8.52892
G1 X104.72 Y90.836 E8.53837
G1 X103.727 Y89.843 E8.58113
G1 X103.329 Y89.963 E8.59379
G1 X104.254 Y90.888 E8.63362
G1 X103.851 Y91.003 E8.64638
G1 X102.953 Y90.104 E8.68507
G1 X102.594 Y90.264 E8.69704
G1 X103.455 Y91.124 E8.73409
G1 X103.358 Y91.153 E8.73717
G1 X103.106 Y91.293 E8.74595
G1 X102.26 Y90.448 E8.78236
G1 X101.947 Y90.652 E8.79374
G1 X102.772 Y91.477 E8.82926
G1 X102.613 Y91.565 E8.83479
G1 X102.466 Y91.689 E8.84065
G1 X101.656 Y90.878 E8.87555
G1 X101.378 Y91.118 E8.88673
G1 X102.184 Y91.925 E8.92146
G1 X102.042 Y92.044 E8.9271
G1 X101.925 Y92.184 E8.93266
G1 X101.117 Y91.375 E8.96747
G1 X100.875 Y91.652 E8.97867
G1 X101.689 Y92.465 E9.0137
G1 X101.577 Y92.599 E9.01902
G1 X101.479 Y92.774 E9.02513
G1 X100.654 Y91.948 E9.06067
G1 X100.453 Y92.265 E9.0721
G1 X101.293 Y93.105 E9.10827
G1 X101.161 Y93.341 E9.1165
G1 X101.125 Y93.455 E9.12014
G1 X100.264 Y92.594 E9.15721
G1 X100.143 Y92.837 E9.16548
G1 X100.099 Y92.947 E9.16909
G1 X101 Y93.848 E9.20789
G1 X100.907 Y94.142 E9.21728
G1 X100.895 Y94.26 E9.22089
G1 X99.96 Y93.325 E9.26115
G1 X99.846 Y93.73 E9.27396
G1 X100.847 Y94.731 E9.31706
G1 X100.818 Y95.023 E9.32599
G1 X100.842 Y95.243 E9.33273
G1 X99.755 Y94.156 E9.37953
G1 X99.701 Y94.62 E9.39375
G1 X100.907 Y95.826 E9.44568
G1 X101.122 Y96.559 E9.46894
G1 X99.696 Y95.133 E9.53034
G1 X99.703 Y95.457 E9.54021
G1 X99.732 Y95.687 E9.54727
G1 X104.309 Y100.264 E9.74435
G1 X104.878 Y100.315 E9.76174
G1 X103.437 Y98.874 E9.82379
G1 X104.174 Y99.093 E9.8472
G1 X105.38 Y100.299 E9.89913
G1 X105.84 Y100.241 E9.91325
G1 X104.753 Y99.154 E9.96005
G1 X105.087 Y99.182 E9.97025
G1 X105.278 Y99.161 E9.9761
G1 X106.274 Y100.158 E10.01901
G1 X106.676 Y100.041 E10.03176
G1 X105.746 Y99.111 E10.0718
G1 X106.15 Y98.997 E10.08458
G1 X107.048 Y99.896 E10.12327
G1 X107.406 Y99.736 E10.13521
G1 X106.546 Y98.876 E10.17224
G1 X106.642 Y98.847 E10.17529
G1 X106.895 Y98.707 E10.18409
G1 X107.74 Y99.552 E10.22047
G1 X108.053 Y99.347 E10.23186
G1 X107.228 Y98.522 E10.26738
G1 X107.386 Y98.435 E10.27287
G1 X107.535 Y98.312 E10.27875
G1 X108.348 Y99.125 E10.31376
G1 X108.626 Y98.884 E10.32496
G1 X107.819 Y98.077 E10.35971
G1 X107.926 Y97.988 E10.36395
G1 X108.075 Y97.816 E10.37088
G1 X108.886 Y98.626 E10.40578
G1 X109.12 Y98.343 E10.41696
G1 X108.314 Y97.537 E10.45167
G1 X108.391 Y97.448 E10.45525
G1 X108.519 Y97.224 E10.46311
G1 X109.349 Y98.054 E10.49885
G1 X109.555 Y97.742 E10.51023
G1 X108.707 Y96.895 E10.54672
G1 X108.83 Y96.68 E10.55426
G1 X108.874 Y96.543 E10.55864
G1 X109.738 Y97.408 E10.59586
