; generated by PrusaSlicer 2.8.1+linux-x64-GTK3 on 2024-12-14 at 12:25:50 UTC

; 

; external perimeters extrusion width = 0.45mm
; perimeters extrusion width = 0.45mm
; infill extrusion width = 0.45mm
; solid infill extrusion width = 0.45mm
; top infill extrusion width = 0.40mm
; support material extrusion width = 0.35mm
; first layer extrusion width = 0.40mm

M190 S81 ; set bed temperature and wait for it to be reached
M104 S230 ; set temperature
;TYPE:Custom
G28 ; home all axes
G1 Z5 F5000 ; lift nozzle
M109 S230 ; set temperature and wait for it to be reached
G21 ; set units to millimeters
G90 ; use absolute coordinates
M82 ; use absolute distances for extrusion
G92 E0
; Filament gcode
M107
;LAYER_CHANGE
;Z:0.2
;HEIGHT:0.2
G1 E-5 F1800
G92 E0
G1 Z.2 F6000
G1 X98.296 Y88.477
G1 E5 F1800
;TYPE:Skirt/Brim
;WIDTH:0.4
G1 X98.669 Y88.062 E5.01657
G1 X100.019 Y87.038 E5.06688
G1 X101.669 Y86.218 E5.12159
G1 X102.533 Y85.938 E5.14856
G1 X103.568 Y85.718 E5.17998
G1 X105.257 Y85.611 E5.23023
G1 X107.086 Y85.842 E5.28497
G1 X108.695 Y86.365 E5.3352
G1 X109.644 Y86.836 E5.36666
G1 X110.41 Y87.322 E5.39359
G1 X111.805 Y88.527 E5.44832
G1 X112.398 Y89.214 E5.47527
G1 X113.002 Y90.082 E5.50667
G1 X113.755 Y91.599 E5.55696
G1 X114.25 Y93.374 E5.61167
G1 X114.364 Y94.274 E5.63861
G1 X114.386 Y95.333 E5.67006
G1 X114.174 Y97.012 E5.72031
G1 X113.89 Y98.032 E5.75175
G1 X113.555 Y98.875 E5.77868
G1 X112.634 Y100.472 E5.83342
G1 X112.073 Y101.179 E5.86022
G1 X111.331 Y101.938 E5.89174
G1 X109.981 Y102.962 E5.94205
G1 X108.331 Y103.782 E5.99676
G1 X107.467 Y104.062 E6.02373
G1 X106.432 Y104.282 E6.05515
G1 X104.743 Y104.389 E6.1054
G1 X102.914 Y104.158 E6.16014
G1 X101.305 Y103.635 E6.21037
G1 X100.356 Y103.164 E6.24183
G1 X99.59 Y102.678 E6.26876
G1 X98.195 Y101.473 E6.32349
G1 X97.602 Y100.786 E6.35044
G1 X97 Y99.92 E6.38175
G1 X96.245 Y98.401 E6.43211
G1 X95.75 Y96.627 E6.48679
G1 X95.636 Y95.726 E6.51376
G1 X95.614 Y94.671 E6.54509
G1 X95.689 Y93.767 E6.57202
G1 X95.888 Y92.724 E6.60355
G1 X96.445 Y91.125 E6.65382
G1 X96.934 Y90.189 E6.68518
G1 X97.436 Y89.432 E6.71215
G1 X98.256 Y88.522 E6.74852
G1 X98.256 Y88.522 F6000
G1 X98.52 Y88.76
G1 F1800
G1 X98.914 Y88.322 E6.76601
G1 X100.204 Y87.343 E6.81409
G1 X101.801 Y86.55 E6.86703
G1 X103.359 Y86.115 E6.91506
G1 X105.242 Y85.968 E6.97114
G1 X107.115 Y86.216 E7.02724
G1 X108.799 Y86.802 E7.08018
G1 X110.42 Y87.771 E7.13625
G1 X111.623 Y88.854 E7.18431
G1 X112.756 Y90.365 E7.24038
G1 X113.515 Y91.978 E7.29331
G1 X113.917 Y93.546 E7.34137
G1 X114.029 Y95.325 E7.3943
G1 X113.827 Y96.93 E7.44233
G1 X113.232 Y98.723 E7.49842
G1 X112.341 Y100.268 E7.55137
G1 X111.086 Y101.678 E7.60742
G1 X109.796 Y102.657 E7.6555
G1 X108.199 Y103.45 E7.70844
G1 X106.641 Y103.885 E7.75647
G1 X104.758 Y104.032 E7.81255
G1 X102.989 Y103.808 E7.86549
G1 X101.45 Y103.309 E7.91353
G1 X99.8 Y102.389 E7.96962
G1 X98.45 Y101.224 E8.02256
G1 X97.301 Y99.729 E8.07854
G1 X96.58 Y98.277 E8.12667
G1 X96.101 Y96.56 E8.1796
G1 X95.971 Y94.678 E8.23561
G1 X96.235 Y92.806 E8.29174
G1 X96.768 Y91.277 E8.33982
G1 X97.721 Y89.648 E8.39586
G1 X98.48 Y88.804 E8.42956
G1 X98.48 Y88.804 F6000
G1 X98.744 Y89.042
G1 F1800
G1 X99.159 Y88.582 E8.44795
G1 X100.389 Y87.648 E8.49381
G1 X101.932 Y86.882 E8.54496
G1 X103.419 Y86.467 E8.5908
G1 X105.227 Y86.325 E8.64465
G1 X106.937 Y86.541 E8.69583
G1 X108.654 Y87.128 E8.74971
G1 X110.21 Y88.06 E8.80356
G1 X111.357 Y89.093 E8.84939
G1 X112.447 Y90.544 E8.90327
G1 X113.18 Y92.103 E8.95442
G1 X113.564 Y93.598 E9.00025
G1 X113.672 Y95.318 E9.05142
G1 X113.479 Y96.849 E9.09724
G1 X112.909 Y98.571 E9.1511
G1 X112.048 Y100.064 E9.20227
G1 X110.841 Y101.418 E9.25613
G1 X109.611 Y102.352 E9.30199
G1 X108.068 Y103.118 E9.35314
G1 X106.581 Y103.533 E9.39898
G1 X104.773 Y103.675 E9.45283
G1 X103.063 Y103.459 E9.50401
G1 X101.595 Y102.982 E9.54984
G1 X100.085 Y102.152 E9.601
G1 X98.705 Y100.974 E9.65487
G1 X97.603 Y99.538 E9.70861
G1 X96.915 Y98.152 E9.75455
G1 X96.451 Y96.493 E9.8057
G1 X96.328 Y94.685 E9.85951
G1 X96.583 Y92.887 E9.91343
G1 X97.091 Y91.429 E9.95927
G1 X98.005 Y89.863 E10.01311
G1 X98.704 Y89.087 E10.04412
G1 E5.04412
G92 E0
G1 X98.704 Y89.087 F6000
G92 E0
G1 X106.386 Y96.264
G1 E5 F1800
;TYPE:Perimeter
;WIDTH:0.399999
G1 X106.114 Y95.82 E5.01546
G1 X105.98 Y95.384 E5.029
G1 X105.954 Y94.886 E5.04381
G1 X105.979 Y94.619 E5.05177
G1 X106.147 Y94.125 E5.06726
G1 X106.35 Y93.784 E5.07904
G1 X106.658 Y93.452 E5.09249
G1 X106.885 Y93.275 E5.10104
G1 X107.313 Y93.066 E5.11518
G1 X107.586 Y92.987 E5.12362
G1 X108.013 Y92.945 E5.13636
G1 X108.44 Y92.993 E5.14912
G1 X108.899 Y93.156 E5.16358
G1 X109.21 Y93.338 E5.17428
G1 X109.549 Y93.658 E5.18812
G1 X109.743 Y93.911 E5.19759
G1 X109.927 Y94.285 E5.20997
G1 X110.021 Y94.628 E5.22053
G1 X110.054 Y95.056 E5.23328
G1 X109.998 Y95.482 E5.24604
G1 X109.859 Y95.877 E5.25847
G1 X109.68 Y96.184 E5.26902
G1 X109.406 Y96.5 E5.28144
G1 X109.126 Y96.719 E5.29199
G1 X108.712 Y96.925 E5.30572
G1 X108.302 Y97.031 E5.31829
G1 X107.81 Y97.04 E5.3329
G1 X107.463 Y96.978 E5.34337
G1 X107.05 Y96.816 E5.35654
G1 X106.757 Y96.632 E5.36681
G1 X106.426 Y96.308 E5.38056
G1 X106.426 Y96.308 F6000
G1 X106.671 Y96.048
;TYPE:External perimeter
G1 F1800
G1 X106.644 Y96.022 E5.38167
G1 X106.44 Y95.674 E5.39365
G1 X106.335 Y95.339 E5.40407
G1 X106.311 Y94.908 E5.41689
G1 X106.326 Y94.704 E5.42296
G1 X106.47 Y94.277 E5.43634
G1 X106.749 Y93.85 E5.45148
G1 X107.057 Y93.588 E5.46349
G1 X107.423 Y93.405 E5.47564
G1 X107.939 Y93.303 E5.49126
G1 X108.337 Y93.334 E5.50311
G1 X108.727 Y93.469 E5.51536
G1 X108.982 Y93.613 E5.52406
G1 X109.273 Y93.885 E5.53589
G1 X109.426 Y94.076 E5.54316
G1 X109.586 Y94.388 E5.55357
G1 X109.666 Y94.665 E5.56213
G1 X109.686 Y95.146 E5.57642
G1 X109.658 Y95.372 E5.58318
G1 X109.547 Y95.705 E5.5936
G1 X109.274 Y96.114 E5.6082
G1 X108.954 Y96.406 E5.62106
G1 X108.609 Y96.583 E5.63257
G1 X108.264 Y96.676 E5.64318
G1 X107.84 Y96.684 E5.65577
G1 X107.336 Y96.565 E5.67115
G1 X107.007 Y96.377 E5.6824
G1 X106.714 Y96.09 E5.69458
G1 X106.493 Y95.757 F6000
G1 E.69458 F1800
G92 E0
G1 X99.583 Y94.146 F6000
G1 E5 F1800
;TYPE:Perimeter
;WIDTH:0.442788
G1 X99.665 Y93.91 E5.00831
G1 X100.024 Y93.394 E5.02921
;WIDTH:0.399999
G1 X100.268 Y93.124 E5.04002
G1 X100.668 Y92.819 E5.05496
G1 X101.062 Y92.624 E5.06801
G1 X101.565 Y92.482 E5.08353
G1 X102.06 Y92.45 E5.09826
G1 X102.534 Y92.501 E5.11241
G1 X103.041 Y92.667 E5.12825
G1 X103.42 Y92.875 E5.14109
G1 X103.827 Y93.214 E5.15682
G1 X104.153 Y93.623 E5.17235
G1 X104.356 Y94.012 E5.18538
G1 X104.509 Y94.516 E5.20102
G1 X104.554 Y95.056 E5.21711
G1 X104.49 Y95.575 E5.23264
G1 X104.354 Y95.993 E5.24569
G1 X104.11 Y96.443 E5.26089
G1 X103.809 Y96.803 E5.27482
G1 X103.5 Y97.069 E5.28693
G1 X103.058 Y97.327 E5.30213
G1 X102.533 Y97.499 E5.31853
G1 X102.016 Y97.556 E5.33397
G1 X101.516 Y97.511 E5.34888
G1 X100.959 Y97.333 E5.36624
G1 X100.505 Y97.073 E5.38177
G1 X100.167 Y96.778 E5.39509
G1 X99.842 Y96.367 E5.41065
;WIDTH:0.42936
G1 X99.709 Y96.131 E5.41935
;WIDTH:0.458721
G1 X99.576 Y95.896 E5.42869
G1 X99.463 Y95.383 E5.44685
;WIDTH:0.422118
G1 X99.453 Y94.772 E5.46612
;WIDTH:0.442264
G1 X99.514 Y94.345 E5.48044
;WIDTH:0.442788
G1 X99.563 Y94.202 E5.48547
G1 X99.563 Y94.202 F6000
G1 X99.935 Y94.277
;TYPE:External perimeter
;WIDTH:0.399999
G1 F1800
G1 X99.997 Y94.092 E5.49126
G1 X100.299 Y93.622 E5.50785
G1 X100.49 Y93.403 E5.51648
G1 X100.834 Y93.135 E5.52943
G1 X101.165 Y92.965 E5.54048
G1 X101.673 Y92.829 E5.55609
G1 X102.03 Y92.806 E5.56671
G1 X102.43 Y92.843 E5.57864
G1 X102.869 Y92.98 E5.59229
G1 X103.242 Y93.185 E5.60493
G1 X103.651 Y93.561 E5.62143
G1 X103.903 Y93.909 E5.63419
G1 X104.067 Y94.276 E5.64613
G1 X104.155 Y94.561 E5.65499
G1 X104.19 Y95.108 E5.67126
G1 X104.148 Y95.472 E5.68214
G1 X104.038 Y95.827 E5.69317
G1 X103.824 Y96.229 E5.70669
G1 X103.425 Y96.668 E5.7243
G1 X102.953 Y96.982 E5.74113
G1 X102.484 Y97.145 E5.75587
G1 X102.027 Y97.199 E5.76953
G1 X101.57 Y97.157 E5.78316
G1 X101.131 Y97.02 E5.79681
G1 X100.679 Y96.753 E5.8124
G1 X100.442 Y96.551 E5.82165
G1 X100.158 Y96.201 E5.83503
G1 X99.946 Y95.783 E5.84895
G1 X99.829 Y95.352 E5.86221
G1 X99.819 Y94.811 E5.87828
G1 X99.873 Y94.461 E5.88879
G1 X99.916 Y94.334 E5.89277
G1 X100.084 Y93.971 F6000
G1 E.89277 F1800
G92 E0
G1 X105.098 Y89.424 F6000
G1 E5 F1800
;TYPE:Perimeter
G1 X105.556 Y89.454 E5.01363
G1 X106.159 Y89.54 E5.03171
G1 X106.65 Y89.677 E5.04685
G1 X107.32 Y89.922 E5.06803
G1 X107.784 Y90.159 E5.0835
G1 X108.384 Y90.557 E5.10488
G1 X108.808 Y90.919 E5.12143
G1 X109.321 Y91.48 E5.144
G1 X109.733 Y92.04 E5.16464
G1 X109.998 Y92.508 E5.18061
G1 X110.228 Y93.056 E5.19826
G1 X110.411 Y93.619 E5.21584
;WIDTH:0.441944
G1 X110.408 Y93.707 E5.21876
;WIDTH:0.483888
G1 X110.404 Y93.794 E5.22195
;WIDTH:0.525832
G1 X110.4 Y93.882 E5.22549
;WIDTH:0.567776
G1 X110.397 Y93.97 E5.22933
;WIDTH:0.60972
G1 X110.393 Y94.058 E5.23348
;WIDTH:0.651664
G1 X110.39 Y94.145 E5.23789
G1 X110.347 Y94.096 E5.24119
;WIDTH:0.61083
G1 X110.305 Y94.046 E5.24427
;WIDTH:0.569995
G1 X110.263 Y93.996 E5.24713
;WIDTH:0.52916
G1 X110.117 Y93.807 E5.25679
;WIDTH:0.486107
G1 X109.97 Y93.619 E5.26558
;WIDTH:0.443053
G1 X109.824 Y93.43 E5.27353
;WIDTH:0.399999
G1 X109.437 Y93.063 E5.28937
G1 X109.02 Y92.815 E5.30378
G1 X108.543 Y92.651 E5.31876
G1 X108.043 Y92.589 E5.33372
G1 X107.541 Y92.633 E5.34868
G1 X107.134 Y92.748 E5.36124
G1 X106.636 Y93.008 E5.37792
G1 X106.231 Y93.357 E5.39379
G1 X105.927 Y93.763 E5.40885
G1 X105.699 Y94.277 E5.42555
;WIDTH:0.442129
G1 X105.652 Y94.423 E5.43064
;WIDTH:0.484258
G1 X105.606 Y94.568 E5.43622
;WIDTH:0.526388
G1 X105.56 Y94.713 E5.44234
;WIDTH:0.568517
G1 X105.514 Y94.858 E5.44899
G1 X105.527 Y95.184 E5.46325
;WIDTH:0.534825
G1 X105.605 Y95.421 E5.47346
;WIDTH:0.489883
G1 X105.683 Y95.658 E5.48273
;WIDTH:0.444941
G1 X105.761 Y95.895 E5.49107
;WIDTH:0.399999
G1 X105.996 Y96.341 E5.50604
G1 X106.173 Y96.56 E5.5144
G1 X106.547 Y96.924 E5.5299
G1 X106.98 Y97.185 E5.54491
G1 X107.457 Y97.349 E5.55989
G1 X107.957 Y97.411 E5.57485
G1 X108.339 Y97.387 E5.58621
G1 X108.848 Y97.257 E5.60181
G1 X109.298 Y97.032 E5.61675
G1 X109.634 Y96.775 E5.62931
G1 X110.049 Y96.272 E5.64867
;WIDTH:0.446695
G1 X110.099 Y96.228 E5.65091
;WIDTH:0.49339
G1 X110.149 Y96.183 E5.65343
;WIDTH:0.540086
G1 X110.199 Y96.138 E5.65621
;WIDTH:0.586781
G1 X110.249 Y96.094 E5.65922
;WIDTH:0.633477
G1 X110.298 Y96.049 E5.66249
;WIDTH:0.680172
G1 X110.348 Y96.005 E5.66602
G1 X110.359 Y96.067 E5.66936
;WIDTH:0.633477
G1 X110.369 Y96.13 E5.67249
;WIDTH:0.586781
G1 X110.38 Y96.193 E5.67538
;WIDTH:0.540086
G1 X110.39 Y96.256 E5.67802
;WIDTH:0.49339
G1 X110.401 Y96.318 E5.68038
;WIDTH:0.446695
G1 X110.411 Y96.381 E5.68252
;WIDTH:0.399999
G1 X110.141 Y97.151 E5.70675
G1 X109.913 Y97.646 E5.72293
G1 X109.524 Y98.275 E5.74489
G1 X109.119 Y98.764 E5.76374
G1 X108.767 Y99.121 E5.77863
G1 X108.377 Y99.449 E5.79376
G1 X107.946 Y99.742 E5.80923
G1 X107.329 Y100.064 E5.82989
G1 X106.684 Y100.32 E5.85049
G1 X106.151 Y100.462 E5.86687
G1 X105.635 Y100.537 E5.88235
G1 X104.96 Y100.582 E5.90244
G1 X104.425 Y100.555 E5.91835
G1 X103.87 Y100.461 E5.93506
G1 X103.331 Y100.328 E5.95154
G1 X102.844 Y100.152 E5.96691
G1 X102.249 Y99.856 E5.98664
G1 X101.781 Y99.563 E6.00303
G1 X101.375 Y99.241 E6.01842
G1 X100.812 Y98.689 E6.04183
G1 X100.372 Y98.106 E6.06352
G1 X99.995 Y97.478 E6.08527
G1 X99.716 Y96.793 E6.10723
G1 X100.016 Y97.132 E6.12067
G1 X100.416 Y97.442 E6.1357
G1 X100.959 Y97.718 E6.15379
G1 X101.446 Y97.861 E6.16886
G1 X101.998 Y97.913 E6.18532
G1 X102.58 Y97.853 E6.20269
G1 X103.19 Y97.659 E6.2217
G1 X103.699 Y97.365 E6.23915
G1 X104.106 Y97.014 E6.25511
G1 X104.435 Y96.601 E6.27079
G1 X104.671 Y96.158 E6.28569
G1 X104.832 Y95.678 E6.30072
;WIDTH:0.444941
G1 X104.877 Y95.515 E6.30637
;WIDTH:0.489883
G1 X104.922 Y95.352 E6.31265
;WIDTH:0.534825
G1 X104.967 Y95.19 E6.31953
;WIDTH:0.568517
G1 X104.99 Y94.869 E6.33359
G1 X104.949 Y94.728 E6.34001
;WIDTH:0.526388
G1 X104.908 Y94.586 E6.34595
;WIDTH:0.484258
G1 X104.867 Y94.445 E6.35134
;WIDTH:0.442129
G1 X104.826 Y94.304 E6.35621
;WIDTH:0.399999
G1 X104.663 Y93.817 E6.37146
G1 X104.42 Y93.376 E6.38641
G1 X104.102 Y92.987 E6.40133
G1 X103.69 Y92.627 E6.41757
G1 X103.213 Y92.354 E6.43389
G1 X102.617 Y92.154 E6.45256
G1 X102.033 Y92.089 E6.47001
G1 X101.528 Y92.126 E6.48504
G1 X100.959 Y92.282 E6.50256
G1 X100.503 Y92.502 E6.51759
G1 X100.047 Y92.844 E6.53451
G1 X99.714 Y93.209 E6.54918
G1 X99.9 Y92.725 E6.56458
G1 X100.196 Y92.169 E6.58328
G1 X100.532 Y91.654 E6.60154
G1 X101.087 Y91.016 E6.62665
G1 X101.553 Y90.613 E6.64494
G1 X101.968 Y90.312 E6.66016
G1 X102.404 Y90.055 E6.67519
G1 X103.054 Y89.766 E6.69631
G1 X103.734 Y89.561 E6.7174
G1 X104.253 Y89.468 E6.73306
G1 X105.01 Y89.418 E6.75559
G1 X105.038 Y89.42 E6.75642
G1 E1.75642
G92 E0
G1 X105.038 Y89.42 F6000
G1 X110.39 Y94.145
G1 E5 F1800
;WIDTH:0.651664
G1 X110.43 Y94.363 E5.01122
;WIDTH:0.620728
G1 X110.471 Y94.581 E5.02188
;WIDTH:0.589792
G1 X110.493 Y95.102 E5.04559
;WIDTH:0.605256
G1 X110.435 Y95.624 E5.07015
;WIDTH:0.642714
G1 X110.391 Y95.814 E5.07988
;WIDTH:0.680172
G1 X110.348 Y96.005 E5.09025
G1 E.09025
G92 E0
G1 X110.348 Y96.005 F6000
G1 X105.113 Y89.059
G1 E5 F1800
;WIDTH:0.399999
G1 X105.12 Y89.059 E5.00021
G1 X105.754 Y89.112 E5.0191
G1 X106.351 Y89.213 E5.03708
G1 X106.978 Y89.403 E5.05653
G1 X107.459 Y89.593 E5.07189
G1 X107.966 Y89.851 E5.08878
G1 X108.532 Y90.227 E5.10896
G1 X108.933 Y90.548 E5.12421
G1 X109.328 Y90.928 E5.14048
G1 X109.777 Y91.471 E5.1614
G1 X110.062 Y91.891 E5.17647
G1 X110.32 Y92.353 E5.19218
G1 X110.601 Y93.02 E5.21367
G1 X110.749 Y93.5 E5.22858
G1 X110.859 Y94.009 E5.24404
G1 X110.921 Y94.521 E5.25935
G1 X110.933 Y95.093 E5.27634
G1 X110.892 Y95.672 E5.29357
G1 X110.76 Y96.455 E5.31715
G1 X110.614 Y96.949 E5.33244
G1 X110.32 Y97.646 E5.3549
G1 X110.062 Y98.109 E5.37064
G1 X109.777 Y98.529 E5.38571
G1 X109.283 Y99.116 E5.40849
G1 X108.778 Y99.58 E5.42885
G1 X108.241 Y99.978 E5.4487
G1 X107.757 Y100.264 E5.46539
G1 X107.161 Y100.529 E5.48476
G1 X106.683 Y100.696 E5.49979
G1 X106.118 Y100.836 E5.51707
G1 X105.487 Y100.916 E5.53596
G1 X104.968 Y100.939 E5.55138
G1 X104.384 Y100.91 E5.56874
G1 X103.735 Y100.8 E5.58828
G1 X103.235 Y100.672 E5.6036
G1 X102.702 Y100.48 E5.62042
G1 X102.09 Y100.176 E5.64071
G1 X101.654 Y99.909 E5.65589
G1 X101.217 Y99.582 E5.6721
G1 X100.7 Y99.097 E5.69315
G1 X100.347 Y98.696 E5.70901
G1 X99.933 Y98.101 E5.73053
G1 X99.677 Y97.642 E5.74613
G1 X99.469 Y97.171 E5.76142
G1 X99.279 Y96.576 E5.77997
;WIDTH:0.429265
G1 X99.223 Y96.273 E5.78987
;WIDTH:0.458531
G1 X99.087 Y95.403 E5.8203
;WIDTH:0.422118
G1 X99.075 Y94.757 E5.84067
;WIDTH:0.442264
G1 X99.125 Y94.258 E5.85732
;WIDTH:0.448981
G1 X99.214 Y93.764 E5.87427
G1 X99.334 Y93.242 E5.89235
;WIDTH:0.399999
G1 X99.564 Y92.601 E5.91257
G1 X99.79 Y92.142 E5.92776
G1 X100.076 Y91.691 E5.94362
G1 X100.479 Y91.146 E5.96375
G1 X100.839 Y90.758 E5.97947
G1 X101.32 Y90.343 E5.99833
G1 X101.769 Y90.015 E6.01484
G1 X102.242 Y89.737 E6.03113
G1 X102.831 Y89.474 E6.05028
G1 X103.396 Y89.29 E6.06792
G1 X104.001 Y89.146 E6.08639
G1 X104.538 Y89.079 E6.10246
G1 X105.054 Y89.061 E6.11779
G1 X105.054 Y89.061 F6000
G1 X105.128 Y88.718
;TYPE:External perimeter
G1 F1800
G1 X105.443 Y88.728 E6.12715
G1 X106.059 Y88.794 E6.14554
G1 X106.565 Y88.905 E6.16092
G1 X107.311 Y89.143 E6.18417
G1 X107.927 Y89.428 E6.20432
G1 X108.471 Y89.758 E6.22321
G1 X108.885 Y90.045 E6.23817
G1 X109.267 Y90.369 E6.25304
G1 X109.646 Y90.753 E6.26906
G1 X110.137 Y91.358 E6.29219
G1 X110.414 Y91.782 E6.30723
G1 X110.7 Y92.337 E6.32577
G1 X110.964 Y92.978 E6.34635
G1 X111.11 Y93.47 E6.36159
G1 X111.216 Y93.985 E6.3772
G1 X111.278 Y94.513 E6.39298
G1 X111.294 Y95.264 E6.41528
G1 X111.211 Y96.053 E6.43884
G1 X111.102 Y96.567 E6.45444
G1 X110.95 Y97.07 E6.47004
G1 X110.642 Y97.802 E6.49362
G1 X110.389 Y98.263 E6.50923
G1 X110.098 Y98.701 E6.52484
G1 X109.592 Y99.313 E6.54842
G1 X109.215 Y99.682 E6.56408
G1 X108.809 Y100.018 E6.57973
G1 X108.376 Y100.319 E6.59539
G1 X107.92 Y100.582 E6.61102
