; generated by PrusaSlicer 2.8.1+linux-x64-GTK3 on 2024-12-14 at 11:30:09 UTC

; 

; external perimeters extrusion width = 0.45mm
; perimeters extrusion width = 0.45mm
; infill extrusion width = 0.45mm
; solid infill extrusion width = 0.45mm
; top infill extrusion width = 0.40mm
; support material extrusion width = 0.35mm
; first layer extrusion width = 0.40mm

M190 S81 ; set bed temperature and wait for it to be reached
M104 S230 ; set temperature
;TYPE:Custom
G28 ; home all axes
G1 Z5 F5000 ; lift nozzle
M109 S230 ; set temperature and wait for it to be reached
G21 ; set units to millimeters
G90 ; use absolute coordinates
M82 ; use absolute distances for extrusion
G92 E0
; Filament gcode
M107
;LAYER_CHANGE
;Z:0.2
;HEIGHT:0.2
G1 E-5 F1800
G92 E0
G1 Z.2 F6000
G1 X98.296 Y88.477
G1 E5 F1800
;TYPE:Skirt/Brim
;WIDTH:0.4
G1 X98.669 Y88.062 E5.01657
G1 X100.019 Y87.038 E5.06688
G1 X101.669 Y86.218 E5.12159
G1 X102.533 Y85.938 E5.14856
G1 X103.568 Y85.718 E5.17998
G1 X105.257 Y85.611 E5.23023
G1 X107.086 Y85.842 E5.28497
G1 X108.695 Y86.365 E5.3352
G1 X109.644 Y86.836 E5.36666
G1 X110.41 Y87.322 E5.39359
G1 X111.805 Y88.527 E5.44832
G1 X112.398 Y89.214 E5.47527
G1 X113.002 Y90.082 E5.50667
G1 X113.755 Y91.599 E5.55696
G1 X114.25 Y93.374 E5.61167
G1 X114.364 Y94.274 E5.63861
G1 X114.386 Y95.333 E5.67006
G1 X114.174 Y97.012 E5.72031
G1 X113.89 Y98.032 E5.75175
G1 X113.555 Y98.875 E5.77868
G1 X112.634 Y100.472 E5.83342
G1 X112.073 Y101.179 E5.86022
G1 X111.331 Y101.938 E5.89174
G1 X109.981 Y102.962 E5.94205
G1 X108.331 Y103.782 E5.99676
G1 X107.467 Y104.062 E6.02373
G1 X106.432 Y104.282 E6.05515
G1 X104.743 Y104.389 E6.1054
G1 X102.914 Y104.158 E6.16014
G1 X101.305 Y103.635 E6.21037
G1 X100.356 Y103.164 E6.24183
G1 X99.59 Y102.678 E6.26876
G1 X98.195 Y101.473 E6.32349
G1 X97.602 Y100.786 E6.35044
G1 X97 Y99.92 E6.38175
G1 X96.245 Y98.401 E6.43211
G1 X95.918 Y97.395 E6.46352
G1 X95.73 Y96.508 E6.49044
G1 X95.614 Y94.671 E6.54509
G1 X95.825 Y92.99 E6.59539
G1 X96.109 Y91.972 E6.62677
G1 X96.445 Y91.125 E6.65383
G1 X96.934 Y90.189 E6.68519
G1 X97.436 Y89.432 E6.71216
G1 X98.256 Y88.522 E6.74853
G1 X98.256 Y88.522 F6000
G1 X98.52 Y88.76
G1 F1800
G1 X98.914 Y88.322 E6.76602
G1 X100.204 Y87.343 E6.8141
G1 X101.801 Y86.55 E6.86704
G1 X103.359 Y86.115 E6.91507
G1 X105.242 Y85.968 E6.97115
G1 X107.115 Y86.216 E7.02725
G1 X108.799 Y86.802 E7.08019
G1 X110.42 Y87.771 E7.13626
G1 X111.623 Y88.854 E7.18432
G1 X112.756 Y90.365 E7.24039
G1 X113.515 Y91.978 E7.29332
G1 X113.917 Y93.546 E7.34138
G1 X114.029 Y95.325 E7.39431
G1 X113.827 Y96.93 E7.44234
G1 X113.232 Y98.723 E7.49843
G1 X112.341 Y100.268 E7.55138
G1 X111.086 Y101.678 E7.60743
G1 X109.796 Y102.657 E7.65551
G1 X108.199 Y103.45 E7.70845
G1 X106.641 Y103.885 E7.75648
G1 X104.758 Y104.032 E7.81256
G1 X102.989 Y103.808 E7.8655
G1 X101.45 Y103.309 E7.91354
G1 X99.8 Y102.389 E7.96963
G1 X98.45 Y101.224 E8.02257
G1 X97.301 Y99.729 E8.07855
G1 X96.58 Y98.277 E8.12668
G1 X96.101 Y96.561 E8.17958
G1 X95.971 Y94.678 E8.23562
G1 X96.173 Y93.071 E8.28371
G1 X96.768 Y91.277 E8.33983
G1 X97.721 Y89.648 E8.39587
G1 X98.48 Y88.804 E8.42957
G1 X98.48 Y88.804 F6000
G1 X98.744 Y89.042
G1 F1800
G1 X99.159 Y88.582 E8.44796
G1 X100.389 Y87.648 E8.49382
G1 X101.932 Y86.882 E8.54497
G1 X103.419 Y86.467 E8.59081
G1 X105.227 Y86.325 E8.64466
G1 X106.937 Y86.541 E8.69584
G1 X108.654 Y87.128 E8.74972
G1 X110.21 Y88.06 E8.80357
G1 X111.357 Y89.093 E8.8494
G1 X112.447 Y90.544 E8.90328
G1 X113.18 Y92.103 E8.95443
G1 X113.564 Y93.598 E9.00026
G1 X113.672 Y95.318 E9.05143
G1 X113.479 Y96.849 E9.09725
G1 X112.909 Y98.571 E9.15111
G1 X112.048 Y100.064 E9.20228
G1 X110.841 Y101.418 E9.25614
G1 X109.611 Y102.352 E9.302
G1 X108.068 Y103.118 E9.35315
G1 X106.581 Y103.533 E9.39899
G1 X104.773 Y103.675 E9.45284
G1 X103.063 Y103.459 E9.50402
G1 X101.595 Y102.982 E9.54985
G1 X100.085 Y102.152 E9.60101
G1 X98.705 Y100.974 E9.65488
G1 X97.603 Y99.538 E9.70862
G1 X96.915 Y98.152 E9.75456
G1 X96.451 Y96.494 E9.80568
G1 X96.328 Y94.685 E9.85952
G1 X96.521 Y93.153 E9.90537
G1 X97.091 Y91.429 E9.95928
G1 X98.005 Y89.863 E10.01312
G1 X98.704 Y89.087 E10.04413
G1 E5.04413
G92 E0
G1 X98.704 Y89.087 F6000
G92 E0
G1 X107.398 Y92.578
G1 E5 F1800
;TYPE:Perimeter
;WIDTH:0.399999
G1 X107.44 Y92.616 E5.00168
G1 X107.788 Y93.036 E5.01787
G1 X108.047 Y93.489 E5.03336
G1 X108.211 Y93.855 E5.04527
G1 X108.353 Y94.374 E5.06125
G1 X108.409 Y94.907 E5.07716
G1 X108.354 Y95.618 E5.09833
G1 X108.212 Y96.144 E5.11451
G1 X107.992 Y96.644 E5.13073
G1 X107.561 Y97.251 E5.15283
G1 X107.176 Y97.631 E5.16889
G1 X106.552 Y98.035 E5.19096
G1 X105.87 Y98.298 E5.21266
G1 X105.165 Y98.407 E5.23384
G1 X104.642 Y98.382 E5.24939
G1 X104.245 Y98.325 E5.2613
G1 X103.74 Y98.171 E5.27698
G1 X103.252 Y97.929 E5.29315
G1 X102.831 Y97.619 E5.30867
G1 X102.547 Y97.369 E5.3199
G1 X102.212 Y96.964 E5.33551
G1 X101.943 Y96.492 E5.35164
G1 X101.746 Y96.004 E5.36727
G1 X101.604 Y95.342 E5.38737
G1 X101.603 Y94.815 E5.40302
G1 X101.66 Y94.358 E5.41669
G1 X101.791 Y93.85 E5.43227
G1 X101.991 Y93.389 E5.44719
G1 X102.273 Y92.965 E5.46231
G1 X102.574 Y92.617 E5.47597
G1 X102.963 Y92.266 E5.49153
G1 X103.385 Y91.992 E5.50647
G1 X103.993 Y91.741 E5.526
G1 X104.504 Y91.642 E5.54145
G1 X105.004 Y91.588 E5.55638
G1 X105.547 Y91.634 E5.57256
G1 X106.235 Y91.821 E5.59373
G1 X106.702 Y92.055 E5.60924
G1 X107.042 Y92.269 E5.62117
G1 X107.352 Y92.539 E5.63338
G1 X107.352 Y92.539 F6000
G1 X107.142 Y92.829
G1 F1800
G1 X107.513 Y93.263 E5.65033
G1 X107.819 Y93.824 E5.6693
G1 X107.979 Y94.321 E5.6848
G1 X108.054 Y94.944 E5.70343
G1 X107.999 Y95.58 E5.72238
G1 X107.857 Y96.083 E5.7379
G1 X107.643 Y96.529 E5.75259
G1 X107.272 Y97.041 E5.77136
G1 X106.908 Y97.386 E5.78625
G1 X106.361 Y97.734 E5.8055
G1 X105.752 Y97.961 E5.8248
G1 X105.12 Y98.052 E5.84376
G1 X104.482 Y98.011 E5.86274
G1 X103.977 Y97.879 E5.87824
G1 X103.411 Y97.609 E5.89686
G1 X102.903 Y97.221 E5.91584
G1 X102.487 Y96.737 E5.93479
G1 X102.181 Y96.176 E5.95376
G1 X102.021 Y95.679 E5.96926
G1 X101.952 Y95.2 E5.98363
G1 X101.963 Y94.673 E5.99928
G1 X102.137 Y93.939 E6.02168
G1 X102.35 Y93.48 E6.0367
G1 X102.651 Y93.047 E6.05236
G1 X103.202 Y92.532 E6.07475
G1 X103.634 Y92.268 E6.08978
G1 X104.124 Y92.073 E6.10544
G1 X104.868 Y91.949 E6.12783
G1 X105.517 Y91.989 E6.14714
G1 X106.132 Y92.163 E6.16612
G1 X106.697 Y92.46 E6.18507
G1 X107.103 Y92.784 E6.20049
G1 X107.103 Y92.784 F6000
G1 X106.89 Y93.075
;TYPE:External perimeter
G1 F1800
G1 X106.902 Y93.084 E6.20094
G1 X107.238 Y93.491 E6.21661
G1 X107.503 Y93.989 E6.23336
G1 X107.644 Y94.457 E6.24787
G1 X107.699 Y94.981 E6.26351
G1 X107.644 Y95.543 E6.28028
G1 X107.506 Y96.004 E6.29457
G1 X107.354 Y96.319 E6.30495
G1 X106.983 Y96.831 E6.32372
G1 X106.703 Y97.093 E6.33511
G1 X106.17 Y97.432 E6.35387
G1 X105.635 Y97.623 E6.37074
G1 X105.075 Y97.698 E6.38752
G1 X104.512 Y97.655 E6.40428
G1 X104.042 Y97.523 E6.41877
G1 X103.57 Y97.289 E6.43441
G1 X103.125 Y96.941 E6.45118
G1 X102.762 Y96.509 E6.46793
G1 X102.497 Y96.011 E6.48468
G1 X102.345 Y95.466 E6.50148
G1 X102.309 Y95.207 E6.50924
G1 X102.32 Y94.68 E6.52489
G1 X102.483 Y94.028 E6.54484
G1 X102.644 Y93.684 E6.55612
G1 X102.944 Y93.251 E6.57176
G1 X103.441 Y92.797 E6.59175
G1 X103.766 Y92.6 E6.60303
G1 X104.256 Y92.405 E6.61869
G1 X104.921 Y92.302 E6.63867
G1 X105.487 Y92.345 E6.65552
G1 X106.028 Y92.505 E6.67227
G1 X106.525 Y92.773 E6.68904
G1 X106.844 Y93.037 E6.70133
G1 X107.108 Y93.337 F6000
G1 E1.70133 F1800
G92 E0
G1 X105.098 Y89.417 F6000
G1 E5 F1800
;TYPE:Perimeter
G1 X105.108 Y89.416 E5.0003
G1 X105.769 Y89.472 E5.02
G1 X106.266 Y89.561 E5.03499
G1 X106.863 Y89.741 E5.0535
G1 X107.336 Y89.929 E5.06861
G1 X107.784 Y90.159 E5.08356
G1 X108.3 Y90.502 E5.10196
G1 X108.702 Y90.82 E5.11718
G1 X109.064 Y91.17 E5.13213
G1 X109.462 Y91.651 E5.15067
G1 X109.752 Y92.069 E5.16578
G1 X109.998 Y92.508 E5.18072
G1 X110.238 Y93.08 E5.19914
G1 X110.396 Y93.567 E5.21434
G1 X110.507 Y94.069 E5.22961
G1 X110.565 Y94.58 E5.24488
G1 X110.579 Y95.234 E5.2643
G1 X110.505 Y95.941 E5.28541
G1 X110.396 Y96.433 E5.30037
G1 X110.126 Y97.187 E5.32415
G1 X109.799 Y97.853 E5.34618
G1 X109.524 Y98.275 E5.36114
G1 X109.065 Y98.829 E5.3825
G1 X108.702 Y99.18 E5.39749
G1 X108.29 Y99.509 E5.41314
G1 X107.644 Y99.917 E5.43583
G1 X107.165 Y100.137 E5.45148
G1 X106.545 Y100.365 E5.47109
G1 X106.055 Y100.484 E5.48606
G1 X105.437 Y100.562 E5.50455
G1 X104.929 Y100.583 E5.51965
G1 X104.425 Y100.555 E5.53464
G1 X103.814 Y100.452 E5.55304
G1 X103.318 Y100.324 E5.56825
G1 X102.844 Y100.152 E5.58322
G1 X102.199 Y99.832 E5.6046
G1 X101.761 Y99.547 E5.62012
G1 X101.267 Y99.14 E5.63912
G1 X100.885 Y98.773 E5.65485
G1 X100.394 Y98.137 E5.67871
G1 X100.019 Y97.523 E5.70007
G1 X99.807 Y97.056 E5.7153
G1 X99.643 Y96.568 E5.73059
G1 X99.485 Y95.865 E5.75198
G1 X99.43 Y95.193 E5.772
G1 X99.455 Y94.345 E5.79719
G1 X99.535 Y93.848 E5.81214
G1 X99.729 Y93.155 E5.83351
G1 X99.918 Y92.687 E5.8485
G1 X100.254 Y92.078 E5.86915
G1 X100.744 Y91.386 E5.89433
G1 X101.087 Y91.016 E5.90931
G1 X101.631 Y90.546 E5.93066
G1 X102.047 Y90.262 E5.94562
G1 X102.664 Y89.94 E5.96628
G1 X103.281 Y89.697 E5.98597
G1 X103.828 Y89.543 E6.00284
G1 X104.604 Y89.431 E6.02612
G1 X105.038 Y89.418 E6.03901
G1 X105.038 Y89.418 F6000
G1 X105.113 Y89.059
G1 F1800
G1 X105.12 Y89.059 E6.03922
G1 X105.798 Y89.116 E6.05942
G1 X106.351 Y89.213 E6.07609
G1 X107.004 Y89.411 E6.09635
G1 X107.474 Y89.6 E6.11139
G1 X107.966 Y89.851 E6.12779
G1 X108.534 Y90.229 E6.14805
G1 X108.93 Y90.545 E6.16309
G1 X109.328 Y90.928 E6.17949
G1 X109.763 Y91.454 E6.19976
G1 X110.049 Y91.871 E6.21477
G1 X110.32 Y92.353 E6.23119
G1 X110.584 Y92.981 E6.25142
G1 X110.756 Y93.522 E6.26828
G1 X110.867 Y94.069 E6.28485
G1 X110.922 Y94.573 E6.2999
G1 X110.937 Y95.249 E6.31998
G1 X110.858 Y95.997 E6.34231
G1 X110.738 Y96.536 E6.35871
G1 X110.487 Y97.249 E6.38115
G1 X110.284 Y97.713 E6.39619
G1 X110.016 Y98.179 E6.41215
G1 X109.548 Y98.806 E6.43538
G1 X109.2 Y99.197 E6.45092
G1 X108.785 Y99.575 E6.46759
G1 X108.234 Y99.983 E6.48795
G1 X107.757 Y100.264 E6.50439
G1 X107.135 Y100.541 E6.52461
G1 X106.656 Y100.705 E6.53964
G1 X106.118 Y100.836 E6.55608
G1 X105.442 Y100.921 E6.57631
G1 X104.936 Y100.94 E6.59134
G1 X104.384 Y100.91 E6.60775
G1 X103.712 Y100.796 E6.62799
G1 X103.222 Y100.668 E6.64303
G1 X102.702 Y100.48 E6.65945
G1 X102.024 Y100.143 E6.68193
G1 X101.545 Y99.832 E6.69889
G1 X101.023 Y99.4 E6.71901
G1 X100.615 Y99.006 E6.73585
G1 X100.195 Y98.477 E6.75591
G1 X99.878 Y98.008 E6.77272
G1 X99.499 Y97.243 E6.79807
G1 X99.313 Y96.723 E6.81447
G1 X99.157 Y96.059 E6.83472
G1 X99.079 Y95.503 E6.85139
G1 X99.065 Y94.822 E6.87161
G1 X99.099 Y94.315 E6.8867
G1 X99.186 Y93.77 E6.90309
G1 X99.37 Y93.114 E6.92332
G1 X99.549 Y92.639 E6.93839
G1 X99.79 Y92.142 E6.95479
G1 X100.155 Y91.567 E6.97501
G1 X100.464 Y91.165 E6.99006
G1 X100.839 Y90.758 E7.00649
G1 X101.412 Y90.263 E7.02897
G1 X101.868 Y89.952 E7.04536
G1 X102.519 Y89.613 E7.06715
G1 X103.178 Y89.356 E7.08815
G1 X103.761 Y89.192 E7.10613
G1 X104.567 Y89.076 E7.13031
G1 X105.054 Y89.061 E7.14478
G1 X105.054 Y89.061 F6000
G1 X105.128 Y88.712
;TYPE:External perimeter
G1 F1800
G1 X105.263 Y88.713 E7.14879
G1 X106.015 Y88.786 E7.17122
G1 X106.564 Y88.905 E7.1879
G1 X107.285 Y89.133 E7.21035
G1 X107.766 Y89.343 E7.22593
G1 X108.386 Y89.701 E7.24719
G1 X108.883 Y90.044 E7.26512
G1 X109.285 Y90.387 E7.28081
G1 X109.676 Y90.789 E7.29746
G1 X110.15 Y91.377 E7.31988
G1 X110.434 Y91.819 E7.33548
G1 X110.752 Y92.46 E7.35673
G1 X110.977 Y93.02 E7.37465
G1 X111.122 Y93.529 E7.39036
G1 X111.223 Y94.043 E7.40591
G1 X111.279 Y94.565 E7.4215
G1 X111.294 Y95.264 E7.44226
G1 X111.211 Y96.053 E7.46582
G1 X111.102 Y96.567 E7.48142
G1 X110.95 Y97.07 E7.49702
G1 X110.642 Y97.802 E7.5206
G1 X110.389 Y98.263 E7.53621
G1 X110.098 Y98.701 E7.55182
G1 X109.592 Y99.313 E7.5754
G1 X109.215 Y99.682 E7.59106
G1 X108.809 Y100.018 E7.60671
G1 X108.376 Y100.319 E7.62237
G1 X107.92 Y100.582 E7.638
G1 X107.194 Y100.905 E7.66159
G1 X106.694 Y101.068 E7.6772
G1 X106.181 Y101.188 E7.69284
G1 X105.393 Y101.287 E7.71642
G1 X104.868 Y101.298 E7.73201
G1 X104.343 Y101.265 E7.74763
G1 X103.559 Y101.133 E7.77124
G1 X103.053 Y100.991 E7.78684
G1 X102.56 Y100.808 E7.80245
G1 X101.848 Y100.455 E7.82605
G1 X101.405 Y100.173 E7.84164
G1 X100.986 Y99.855 E7.85726
G1 X100.406 Y99.311 E7.88087
G1 X100.064 Y98.915 E7.89641
G1 X99.611 Y98.263 E7.91998
G1 X99.357 Y97.801 E7.93563
G1 X99.143 Y97.319 E7.95129
G1 X98.97 Y96.823 E7.96689
G1 X98.829 Y96.223 E7.98519
G1 X98.747 Y95.725 E8.00018
G1 X98.716 Y95.208 E8.01556
G1 X98.714 Y94.641 E8.0324
G1 X98.762 Y94.136 E8.04746
G1 X98.863 Y93.601 E8.06363
G1 X99.147 Y92.684 E8.09213
G1 X99.391 Y92.144 E8.10972
G1 X99.651 Y91.695 E8.12513
G1 X99.963 Y91.222 E8.14195
G1 X100.283 Y90.828 E8.15702
G1 X100.663 Y90.438 E8.17319
G1 X101.408 Y89.832 E8.2017
G1 X101.908 Y89.517 E8.21925
G1 X102.373 Y89.287 E8.23465
G1 X103.075 Y89.014 E8.25701
G1 X103.656 Y88.849 E8.27494
G1 X104.155 Y88.76 E8.28999
G1 X104.68 Y88.711 E8.30565
G1 X105.068 Y88.712 E8.31717
G1 X105.468 Y88.735 F6000
G1 E3.31717 F1800
G92 E0
G1 X109.703 Y92.194 F6000
G1 E5 F1800
;TYPE:Solid infill
;WIDTH:0.409089
G1 X108.558 Y91.049 E5.0493
G1 X108.224 Y90.773 E5.06249
G1 X107.647 Y90.39 E5.08358
G1 X107.12 Y90.128 E5.1015
G1 X109.858 Y92.867 E5.21942
G1 X110.024 Y93.262 E5.23247
G1 X110.149 Y93.676 E5.24564
G1 X106.335 Y89.861 E5.40989
G1 X106.202 Y89.821 E5.41412
G1 X105.69 Y89.734 E5.42993
G1 X110.268 Y94.312 E5.62705
G1 X110.297 Y94.543 E5.63414
G1 X110.304 Y94.866 E5.64398
G1 X105.126 Y89.689 E5.86692
G1 X104.618 Y89.699 E5.88239
G1 X106.643 Y91.723 E5.96956
G1 X106.427 Y91.605 E5.97705
G1 X105.826 Y91.424 E5.99616
G1 X104.155 Y89.753 E6.06811
G1 X103.798 Y89.821 E6.07918
G1 X103.727 Y89.843 E6.08144
G1 X105.224 Y91.34 E6.1459
G1 X105.019 Y91.321 E6.15217
G1 X104.709 Y91.343 E6.16163
G1 X103.329 Y89.963 E6.22105
G1 X103.147 Y90.018 E6.22684
G1 X102.953 Y90.104 E6.2333
G1 X104.263 Y91.415 E6.28973
G1 X103.988 Y91.459 E6.29821
G1 X103.846 Y91.515 E6.30286
G1 X102.594 Y90.264 E6.35675
G1 X102.26 Y90.448 E6.36836
G1 X103.474 Y91.661 E6.42061
G1 X103.356 Y91.707 E6.42447
G1 X103.136 Y91.841 E6.43231
G1 X101.947 Y90.652 E6.48351
G1 X101.656 Y90.878 E6.49473
G1 X102.816 Y92.039 E6.5447
G1 X102.546 Y92.287 E6.55586
G1 X101.378 Y91.118 E6.60617
G1 X101.117 Y91.375 E6.61732
G1 X102.276 Y92.535 E6.66725
G1 X102.213 Y92.593 E6.66986
G1 X102.049 Y92.825 E6.67851
G1 X100.875 Y91.652 E6.72904
G1 X100.654 Y91.948 E6.74029
G1 X101.835 Y93.129 E6.79114
G1 X101.664 Y93.476 E6.80292
G1 X100.453 Y92.265 E6.85506
G1 X100.264 Y92.594 E6.86661
G1 X101.517 Y93.847 E6.92056
G1 X101.415 Y94.262 E6.93357
G1 X100.099 Y92.947 E6.99021
G1 X99.983 Y93.241 E6.99983
G1 X99.96 Y93.325 E7.00248
G1 X101.342 Y94.707 E7.06199
G1 X101.328 Y95.211 E7.07734
G1 X99.846 Y93.73 E7.14113
G1 X99.755 Y94.156 E7.15439
G1 X101.411 Y95.812 E7.2257
G1 X101.594 Y96.398 E7.24439
G1 X101.726 Y96.645 E7.25292
G1 X99.701 Y94.62 E7.34011
G1 X99.696 Y95.133 E7.35573
G1 X104.889 Y100.316 E7.57912
G1 X105.38 Y100.299 E7.59408
G1 X103.351 Y98.27 E7.68145
G1 X103.716 Y98.451 E7.69385
G1 X104.177 Y98.578 E7.70841
G1 X105.84 Y100.241 E7.78002
G1 X106.007 Y100.22 E7.78514
G1 X106.274 Y100.158 E7.79349
G1 X104.774 Y98.657 E7.8581
G1 X105.078 Y98.682 E7.86739
G1 X105.289 Y98.655 E7.87387
G1 X106.676 Y100.041 E7.93357
G1 X107.048 Y99.896 E7.94573
G1 X105.749 Y98.597 E8.00166
G1 X105.841 Y98.585 E8.00448
G1 X106.149 Y98.479 E8.0144
G1 X107.406 Y99.736 E8.06852
G1 X107.74 Y99.552 E8.08013
G1 X106.534 Y98.346 E8.13206
G1 X106.857 Y98.151 E8.14355
G1 X108.053 Y99.347 E8.19505
G1 X108.348 Y99.125 E8.20629
G1 X107.177 Y97.954 E8.25671
G1 X107.262 Y97.901 E8.25976
G1 X107.463 Y97.721 E8.26798
G1 X108.626 Y98.884 E8.31806
G1 X108.886 Y98.626 E8.32921
G1 X107.724 Y97.465 E8.37922
G1 X107.945 Y97.168 E8.39049
G1 X109.12 Y98.343 E8.44108
G1 X109.349 Y98.054 E8.45231
G1 X108.166 Y96.871 E8.50325
G1 X108.34 Y96.527 E8.51499
G1 X109.555 Y97.742 E8.56731
G1 X109.738 Y97.408 E8.57891
G1 X108.484 Y96.153 E8.63293
