; generated by PrusaSlicer 2.8.1+linux-x64-GTK3 on 2024-12-14 at 11:29:44 UTC

; 

; external perimeters extrusion width = 0.45mm
; perimeters extrusion width = 0.45mm
; infill extrusion width = 0.45mm
; solid infill extrusion width = 0.45mm
; top infill extrusion width = 0.40mm
; support material extrusion width = 0.35mm
; first layer extrusion width = 0.40mm

M190 S81 ; set bed temperature and wait for it to be reached
M104 S230 ; set temperature
;TYPE:Custom
G28 ; home all axes
G1 Z5 F5000 ; lift nozzle
M109 S230 ; set temperature and wait for it to be reached
G21 ; set units to millimeters
G90 ; use absolute coordinates
M82 ; use absolute distances for extrusion
G92 E0
; Filament gcode
M107
;LAYER_CHANGE
;Z:0.2
;HEIGHT:0.2
G1 E-5 F1800
G92 E0
G1 Z.2 F6000
G1 X98.296 Y88.477
G1 E5 F1800
;TYPE:Skirt/Brim
;WIDTH:0.4
G1 X98.669 Y88.062 E5.01657
G1 X100.019 Y87.038 E5.06688
G1 X101.669 Y86.218 E5.12159
G1 X102.533 Y85.938 E5.14856
G1 X103.568 Y85.718 E5.17998
G1 X105.257 Y85.611 E5.23023
G1 X107.086 Y85.842 E5.28497
G1 X108.695 Y86.365 E5.3352
G1 X109.644 Y86.836 E5.36666
G1 X110.41 Y87.322 E5.39359
G1 X111.805 Y88.527 E5.44832
G1 X112.398 Y89.214 E5.47527
G1 X113.002 Y90.082 E5.50667
G1 X113.755 Y91.599 E5.55696
G1 X114.25 Y93.374 E5.61167
G1 X114.364 Y94.274 E5.63861
G1 X114.386 Y95.333 E5.67006
G1 X114.174 Y97.012 E5.72031
G1 X113.89 Y98.032 E5.75175
G1 X113.555 Y98.875 E5.77868
G1 X112.634 Y100.472 E5.83342
G1 X112.073 Y101.179 E5.86022
G1 X111.331 Y101.938 E5.89174
G1 X109.981 Y102.962 E5.94205
G1 X108.331 Y103.782 E5.99676
G1 X107.467 Y104.062 E6.02373
G1 X106.432 Y104.282 E6.05515
G1 X104.743 Y104.389 E6.1054
G1 X102.914 Y104.158 E6.16014
G1 X101.305 Y103.635 E6.21037
G1 X100.356 Y103.164 E6.24183
G1 X99.59 Y102.678 E6.26876
G1 X98.195 Y101.473 E6.32349
G1 X97.602 Y100.786 E6.35044
G1 X97 Y99.92 E6.38175
G1 X96.245 Y98.401 E6.43211
G1 X95.918 Y97.395 E6.46352
G1 X95.73 Y96.508 E6.49044
G1 X95.614 Y94.671 E6.54509
G1 X95.689 Y93.767 E6.57202
G1 X95.888 Y92.724 E6.60355
G1 X96.445 Y91.125 E6.65382
G1 X96.934 Y90.189 E6.68518
G1 X97.436 Y89.432 E6.71215
G1 X98.256 Y88.522 E6.74852
G1 X98.256 Y88.522 F6000
G1 X98.52 Y88.76
G1 F1800
G1 X98.914 Y88.322 E6.76601
G1 X100.204 Y87.343 E6.81409
G1 X101.801 Y86.55 E6.86703
G1 X103.359 Y86.115 E6.91506
G1 X105.242 Y85.968 E6.97114
G1 X107.115 Y86.216 E7.02724
G1 X108.799 Y86.802 E7.08018
G1 X110.42 Y87.771 E7.13625
G1 X111.623 Y88.854 E7.18431
G1 X112.756 Y90.365 E7.24038
G1 X113.515 Y91.978 E7.29331
G1 X113.917 Y93.546 E7.34137
G1 X114.029 Y95.325 E7.3943
G1 X113.827 Y96.93 E7.44233
G1 X113.232 Y98.723 E7.49842
G1 X112.341 Y100.268 E7.55137
G1 X111.086 Y101.678 E7.60742
G1 X109.796 Y102.657 E7.6555
G1 X108.199 Y103.45 E7.70844
G1 X106.641 Y103.885 E7.75647
G1 X104.758 Y104.032 E7.81255
G1 X102.989 Y103.808 E7.86549
G1 X101.45 Y103.309 E7.91353
G1 X99.8 Y102.389 E7.96962
G1 X98.45 Y101.224 E8.02256
G1 X97.301 Y99.729 E8.07854
G1 X96.58 Y98.277 E8.12667
G1 X96.101 Y96.561 E8.17957
G1 X95.971 Y94.678 E8.23561
G1 X96.235 Y92.806 E8.29174
G1 X96.768 Y91.277 E8.33982
G1 X97.721 Y89.648 E8.39586
G1 X98.48 Y88.804 E8.42956
G1 X98.48 Y88.804 F6000
G1 X98.744 Y89.042
G1 F1800
G1 X99.159 Y88.582 E8.44795
G1 X100.389 Y87.648 E8.49381
G1 X101.932 Y86.882 E8.54496
G1 X103.419 Y86.467 E8.5908
G1 X105.227 Y86.325 E8.64465
G1 X106.937 Y86.541 E8.69583
G1 X108.654 Y87.128 E8.74971
G1 X110.21 Y88.06 E8.80356
G1 X111.357 Y89.093 E8.84939
G1 X112.447 Y90.544 E8.90327
G1 X113.18 Y92.103 E8.95442
G1 X113.564 Y93.598 E9.00025
G1 X113.672 Y95.318 E9.05142
G1 X113.479 Y96.849 E9.09724
G1 X112.909 Y98.571 E9.1511
G1 X112.048 Y100.064 E9.20227
G1 X110.841 Y101.418 E9.25613
G1 X109.611 Y102.352 E9.30199
G1 X108.068 Y103.118 E9.35314
G1 X106.581 Y103.533 E9.39898
G1 X104.773 Y103.675 E9.45283
G1 X103.063 Y103.459 E9.50401
G1 X101.595 Y102.982 E9.54984
G1 X100.085 Y102.152 E9.601
G1 X98.705 Y100.974 E9.65487
G1 X97.603 Y99.538 E9.70861
G1 X96.915 Y98.152 E9.75455
G1 X96.451 Y96.494 E9.80567
G1 X96.328 Y94.685 E9.85951
G1 X96.583 Y92.887 E9.91343
G1 X97.091 Y91.429 E9.95927
G1 X98.005 Y89.863 E10.01311
G1 X98.704 Y89.087 E10.04412
G1 E5.04412
G92 E0
G1 X98.704 Y89.087 F6000
G92 E0
G1 X108.304 Y93.115
G1 E5 F1800
;TYPE:Perimeter
;WIDTH:0.399999
G1 X108.348 Y93.128 E5.00136
G1 X108.71 Y93.338 E5.01379
G1 X108.977 Y93.572 E5.02433
G1 X109.242 Y93.91 E5.03708
G1 X109.444 Y94.341 E5.05121
G1 X109.521 Y94.628 E5.06003
G1 X109.545 Y95.147 E5.07546
G1 X109.44 Y95.672 E5.09136
G1 X109.191 Y96.169 E5.10786
G1 X108.882 Y96.519 E5.12172
G1 X108.626 Y96.719 E5.13137
G1 X108.244 Y96.915 E5.14412
G1 X107.841 Y97.027 E5.15654
G1 X107.456 Y97.052 E5.168
G1 X106.933 Y96.969 E5.18372
G1 X106.652 Y96.872 E5.19255
G1 X106.257 Y96.632 E5.20627
G1 X105.894 Y96.277 E5.22135
G1 X105.618 Y95.831 E5.23692
G1 X105.48 Y95.384 E5.25081
G1 X105.457 Y94.841 E5.26695
G1 X105.514 Y94.486 E5.27763
G1 X105.714 Y93.984 E5.29367
G1 X106.016 Y93.576 E5.30874
G1 X106.374 Y93.281 E5.32251
G1 X106.756 Y93.085 E5.33526
G1 X107.288 Y92.959 E5.35149
G1 X107.83 Y92.972 E5.36759
G1 X108.247 Y93.098 E5.38052
G1 X108.247 Y93.098 F6000
G1 X108.159 Y93.443
;TYPE:External perimeter
G1 F1800
G1 X108.211 Y93.461 E5.38215
G1 X108.654 Y93.755 E5.39794
G1 X108.926 Y94.075 E5.41041
G1 X109.102 Y94.444 E5.42255
G1 X109.199 Y94.981 E5.43875
G1 X109.159 Y95.368 E5.4503
G1 X109.01 Y95.764 E5.46286
G1 X108.905 Y95.956 E5.46936
G1 X108.655 Y96.244 E5.48068
G1 X108.211 Y96.539 E5.49651
G1 X107.804 Y96.672 E5.50922
G1 X107.485 Y96.697 E5.51872
G1 X107.036 Y96.627 E5.53221
G1 X106.824 Y96.559 E5.53882
G1 X106.507 Y96.377 E5.54967
G1 X106.144 Y96.022 E5.56475
G1 X105.94 Y95.674 E5.57673
G1 X105.819 Y95.213 E5.59088
G1 X105.824 Y94.713 E5.60573
G1 X105.859 Y94.575 E5.60996
G1 X106.052 Y94.11 E5.62491
G1 X106.274 Y93.823 E5.63568
G1 X106.546 Y93.594 E5.64624
G1 X106.859 Y93.426 E5.65679
G1 X107.325 Y93.314 E5.67102
G1 X107.837 Y93.334 E5.68623
G1 X108.102 Y93.424 E5.69454
G1 X108.449 Y93.623 F6000
G1 E.69454 F1800
G92 E0
G1 X104.997 Y95.173 F6000
G1 E5 F1800
;TYPE:Perimeter
;WIDTH:0.595788
G1 X105.003 Y94.812 E5.0166
G1 X105.003 Y94.812 F6000
G1 X104.361 Y93.488
;WIDTH:0.399999
G1 F1800
G1 X104.504 Y93.659 E5.02322
G1 X104.739 Y94.105 E5.03819
;WIDTH:0.444226
G1 X104.811 Y94.3 E5.04513
;WIDTH:0.488453
G1 X104.883 Y94.494 E5.0528
;WIDTH:0.53268
G1 X104.956 Y94.689 E5.06128
;WIDTH:0.564234
G1 X104.979 Y94.751 E5.06415
;WIDTH:0.595788
G1 X105.003 Y94.812 E5.06716
G1 X105.052 Y94.679 E5.07368
;WIDTH:0.546841
G1 X105.101 Y94.545 E5.07966
;WIDTH:0.497894
G1 X105.15 Y94.411 E5.08506
;WIDTH:0.448947
G1 X105.199 Y94.277 E5.08988
;WIDTH:0.399999
G1 X105.467 Y93.701 E5.10874
G1 X105.807 Y93.283 E5.12474
G1 X106.202 Y92.968 E5.13974
G1 X106.652 Y92.743 E5.15468
G1 X107.121 Y92.618 E5.16909
G1 X107.614 Y92.595 E5.18374
G1 X108.121 Y92.674 E5.19898
G1 X108.555 Y92.835 E5.21272
G1 X108.937 Y93.063 E5.22593
G1 X109.253 Y93.344 E5.23849
G1 X109.558 Y93.744 E5.25343
G1 X109.786 Y94.238 E5.26958
G1 X109.876 Y94.591 E5.2804
G1 X109.909 Y95.093 E5.29534
G1 X109.843 Y95.574 E5.30976
G1 X109.643 Y96.095 E5.32633
G1 X109.455 Y96.411 E5.33725
G1 X109.11 Y96.794 E5.35256
G1 X108.798 Y97.032 E5.36421
G1 X108.348 Y97.257 E5.37915
G1 X107.879 Y97.382 E5.39356
G1 X107.426 Y97.408 E5.40703
G1 X106.957 Y97.349 E5.42106
G1 X106.48 Y97.185 E5.43604
G1 X106.019 Y96.899 E5.45215
G1 X105.644 Y96.532 E5.46773
G1 X105.337 Y96.065 E5.48432
G1 X105.163 Y95.592 E5.49928
;WIDTH:0.446497
G1 X105.121 Y95.491 E5.50295
;WIDTH:0.492994
G1 X105.08 Y95.39 E5.50703
;WIDTH:0.539492
G1 X105.038 Y95.289 E5.51155
;WIDTH:0.585989
G1 X104.997 Y95.188 E5.51647
G1 X104.941 Y95.341 E5.52383
;WIDTH:0.539492
G1 X104.886 Y95.494 E5.53054
;WIDTH:0.492994
G1 X104.83 Y95.647 E5.53664
;WIDTH:0.446497
G1 X104.775 Y95.8 E5.5421
;WIDTH:0.399999
G1 X104.533 Y96.299 E5.55857
G1 X104.207 Y96.705 E5.57403
G1 X103.882 Y96.976 E5.58659
G1 X103.441 Y97.22 E5.60155
G1 X102.959 Y97.367 E5.61651
G1 X102.457 Y97.411 E5.63147
G1 X101.957 Y97.349 E5.64643
G1 X101.48 Y97.185 E5.66141
G1 X101.063 Y96.937 E5.67582
G1 X100.661 Y96.551 E5.69237
G1 X100.442 Y96.256 E5.70328
G1 X100.21 Y95.75 E5.71981
G1 X100.124 Y95.409 E5.73025
G1 X100.091 Y94.907 E5.74519
G1 X100.163 Y94.408 E5.76016
G1 X100.337 Y93.935 E5.77512
G1 X100.644 Y93.468 E5.79171
G1 X101.007 Y93.113 E5.80679
G1 X101.474 Y92.818 E5.82319
G1 X101.96 Y92.647 E5.83849
G1 X102.543 Y92.589 E5.85589
G1 X103.025 Y92.646 E5.8703
G1 X103.428 Y92.774 E5.88285
G1 X103.855 Y93.004 E5.89725
G1 X104.182 Y93.272 E5.9098
G1 X104.323 Y93.442 E5.91636
G1 E.91636
G92 E0
G1 X104.323 Y93.442 F6000
G1 X100.49 Y95.415
G1 E5 F1800
G1 X100.479 Y95.372 E5.00132
G1 X100.457 Y94.841 E5.0171
G1 X100.502 Y94.518 E5.02678
G1 X100.646 Y94.113 E5.03954
G1 X100.894 Y93.723 E5.05326
G1 X101.257 Y93.368 E5.06834
G1 X101.745 Y93.088 E5.08504
G1 X102.086 Y92.987 E5.0956
G1 X102.545 Y92.948 E5.10928
G1 X103.081 Y93.032 E5.12539
G1 X103.553 Y93.235 E5.14065
G1 X103.916 Y93.511 E5.15419
G1 X104.195 Y93.838 E5.16695
G1 X104.399 Y94.216 E5.1797
G1 X104.536 Y94.742 E5.19584
G1 X104.535 Y95.287 E5.21202
G1 X104.395 Y95.798 E5.22775
G1 X104.228 Y96.112 E5.23831
G1 X103.968 Y96.439 E5.25071
G1 X103.697 Y96.67 E5.26128
G1 X103.324 Y96.883 E5.27403
G1 X102.915 Y97.013 E5.28677
G1 X102.487 Y97.055 E5.29954
G1 X101.946 Y96.973 E5.31579
G1 X101.652 Y96.872 E5.32502
G1 X101.29 Y96.662 E5.33745
G1 X100.936 Y96.324 E5.35198
G1 X100.758 Y96.09 E5.36071
G1 X100.552 Y95.646 E5.37524
G1 X100.506 Y95.473 E5.38056
G1 X100.506 Y95.473 F6000
G1 X100.859 Y95.345
;TYPE:External perimeter
G1 F1800
G1 X100.801 Y95.019 E5.39039
G1 X100.842 Y94.628 E5.40206
G1 X100.955 Y94.292 E5.41259
G1 X101.144 Y93.978 E5.42347
G1 X101.507 Y93.623 E5.43855
G1 X101.91 Y93.41 E5.45208
G1 X102.446 Y93.302 E5.46831
G1 X102.833 Y93.333 E5.47984
G1 X103.327 Y93.522 E5.49554
G1 X103.651 Y93.75 E5.5073
G1 X103.886 Y94.016 E5.51784
G1 X104.06 Y94.326 E5.5284
G1 X104.181 Y94.787 E5.54255
G1 X104.176 Y95.287 E5.5574
G1 X104.01 Y95.769 E5.57254
G1 X103.729 Y96.174 E5.58718
G1 X103.512 Y96.365 E5.59576
G1 X103.207 Y96.545 E5.60628
G1 X102.87 Y96.659 E5.61684
G1 X102.517 Y96.699 E5.62739
G1 X102.049 Y96.631 E5.64143
G1 X101.824 Y96.559 E5.64844
G1 X101.518 Y96.387 E5.65886
G1 X101.211 Y96.096 E5.67142
G1 X101.074 Y95.925 E5.67793
G1 X100.894 Y95.543 E5.69047
G1 X100.869 Y95.404 E5.69466
G1 X100.816 Y95.008 F6000
G1 E.69466 F1800
G92 E0
G1 X105.097 Y89.435 F6000
G1 E5 F1800
;TYPE:Perimeter
G1 X105.453 Y89.445 E5.01057
G1 X105.955 Y89.502 E5.02557
G1 X106.652 Y89.677 E5.04691
G1 X107.323 Y89.923 E5.06813
G1 X107.784 Y90.159 E5.08351
G1 X108.335 Y90.525 E5.10315
G1 X108.737 Y90.85 E5.1185
G1 X109.095 Y91.207 E5.13351
G1 X109.546 Y91.758 E5.15465
G1 X109.876 Y92.286 E5.17314
G1 X110.127 Y92.815 E5.19053
G1 X110.352 Y93.42 E5.2097
G1 X110.491 Y93.996 E5.22729
G1 X110.565 Y94.541 E5.24362
G1 X110.579 Y95.212 E5.26355
G1 X110.529 Y95.712 E5.27847
G1 X110.441 Y96.239 E5.29433
G1 X110.277 Y96.828 E5.31248
G1 X110.01 Y97.463 E5.33293
G1 X109.762 Y97.916 E5.34826
G1 X109.473 Y98.337 E5.36342
G1 X108.972 Y98.92 E5.38624
G1 X108.455 Y99.384 E5.40687
G1 X108.036 Y99.686 E5.42221
G1 X107.595 Y99.945 E5.4374
G1 X107.133 Y100.151 E5.45242
G1 X106.568 Y100.358 E5.47029
G1 X106.055 Y100.484 E5.48597
G1 X105.341 Y100.574 E5.50734
G1 X104.766 Y100.576 E5.52441
G1 X104.256 Y100.526 E5.53963
G1 X103.63 Y100.411 E5.55853
G1 X103.11 Y100.251 E5.57468
G1 X102.516 Y99.989 E5.59396
G1 X101.855 Y99.613 E5.61654
G1 X101.448 Y99.309 E5.63162
G1 X101.044 Y98.93 E5.64807
G1 X100.629 Y98.476 E5.66633
G1 X100.238 Y97.914 E5.68666
G1 X99.981 Y97.447 E5.70249
G1 X99.74 Y96.864 E5.72122
G1 X99.568 Y96.244 E5.74032
G1 X99.467 Y95.721 E5.75614
G1 X99.426 Y95.033 E5.7766
G1 X99.44 Y94.526 E5.79166
G1 X99.535 Y93.848 E5.81199
G1 X99.722 Y93.179 E5.83261
G1 X99.908 Y92.708 E5.84765
G1 X100.299 Y92.007 E5.87148
G1 X100.714 Y91.424 E5.89273
G1 X101.087 Y91.016 E5.90914
G1 X101.497 Y90.662 E5.92522
G1 X101.964 Y90.314 E5.94251
G1 X102.404 Y90.055 E5.95767
G1 X103.054 Y89.766 E5.97879
G1 X103.648 Y89.587 E5.99721
G1 X104.184 Y89.475 E6.01347
G1 X104.729 Y89.424 E6.02972
G1 X105.037 Y89.433 E6.03887
G1 X105.037 Y89.433 F6000
G1 X105.113 Y89.059
G1 F1800
G1 X105.12 Y89.059 E6.03908
G1 X105.761 Y89.113 E6.05818
G1 X106.351 Y89.213 E6.07595
G1 X106.982 Y89.404 E6.09552
G1 X107.461 Y89.594 E6.11082
G1 X107.966 Y89.851 E6.12764
G1 X108.532 Y90.227 E6.14782
G1 X108.932 Y90.547 E6.16303
G1 X109.328 Y90.928 E6.17935
G1 X109.774 Y91.467 E6.20012
G1 X110.059 Y91.886 E6.21517
G1 X110.32 Y92.353 E6.23105
G1 X110.597 Y93.011 E6.25225
G1 X110.746 Y93.491 E6.26717
G1 X110.859 Y94.009 E6.28291
G1 X110.922 Y94.534 E6.29861
G1 X110.937 Y95.249 E6.31984
G1 X110.884 Y95.75 E6.3348
G1 X110.762 Y96.446 E6.35578
G1 X110.614 Y96.949 E6.37135
G1 X110.32 Y97.646 E6.39381
G1 X110.059 Y98.114 E6.40972
G1 X109.748 Y98.564 E6.42596
G1 X109.222 Y99.175 E6.4499
G1 X108.683 Y99.659 E6.47141
G1 X108.24 Y99.979 E6.48764
G1 X107.757 Y100.264 E6.50429
G1 X107.157 Y100.531 E6.52379
G1 X106.678 Y100.698 E6.53885
G1 X106.118 Y100.836 E6.55597
G1 X105.485 Y100.916 E6.57491
G1 X104.973 Y100.939 E6.59013
G1 X104.384 Y100.91 E6.60764
G1 X103.743 Y100.802 E6.62694
G1 X103.243 Y100.674 E6.64226
G1 X102.702 Y100.48 E6.65932
G1 X102.102 Y100.182 E6.67921
G1 X101.663 Y99.914 E6.69448
G1 X101.217 Y99.582 E6.71099
G1 X100.713 Y99.109 E6.73151
G1 X100.347 Y98.696 E6.74789
G1 X99.945 Y98.118 E6.76879
G1 X99.696 Y97.676 E6.78385
G1 X99.49 Y97.22 E6.79871
G1 X99.313 Y96.723 E6.81437
G1 X99.14 Y95.985 E6.83688
G1 X99.078 Y95.46 E6.85258
G1 X99.066 Y94.71 E6.87485
G1 X99.117 Y94.178 E6.89072
G1 X99.254 Y93.528 E6.91044
G1 X99.489 Y92.79 E6.93344
G1 X99.732 Y92.26 E6.95075
G1 X99.997 Y91.816 E6.9661
G1 X100.47 Y91.157 E6.99018
G1 X100.839 Y90.758 E7.00632
G1 X101.412 Y90.263 E7.0288
G1 X101.874 Y89.949 E7.04539
G1 X102.324 Y89.7 E7.06066
G1 X103.136 Y89.368 E7.08671
G1 X103.804 Y89.184 E7.10728
G1 X104.533 Y89.079 E7.12915
G1 X105.054 Y89.061 E7.14463
G1 X105.054 Y89.061 F6000
G1 X105.129 Y88.702
;TYPE:External perimeter
G1 F1800
G1 X105.131 Y88.702 E7.14469
G1 X105.922 Y88.768 E7.16826
G1 X106.436 Y88.866 E7.1838
G1 X107.198 Y89.096 E7.20743
G1 X107.762 Y89.341 E7.22569
G1 X108.341 Y89.672 E7.24549
G1 X108.885 Y90.045 E7.26507
G1 X109.267 Y90.369 E7.27994
G1 X109.797 Y90.935 E7.30296
G1 X110.14 Y91.363 E7.31925
G1 X110.416 Y91.787 E7.33427
G1 X110.68 Y92.289 E7.35111
G1 X110.967 Y92.988 E7.37355
G1 X111.112 Y93.48 E7.38878
G1 X111.217 Y93.995 E7.40439
G1 X111.279 Y94.526 E7.42026
G1 X111.294 Y95.264 E7.44218
G1 X111.211 Y96.053 E7.46574
G1 X111.102 Y96.567 E7.48134
G1 X110.95 Y97.07 E7.49694
G1 X110.642 Y97.802 E7.52052
G1 X110.389 Y98.263 E7.53613
G1 X110.098 Y98.701 E7.55174
G1 X109.592 Y99.313 E7.57532
G1 X109.215 Y99.682 E7.59098
G1 X108.809 Y100.018 E7.60663
G1 X108.376 Y100.319 E7.62229
G1 X107.92 Y100.582 E7.63792
G1 X107.194 Y100.905 E7.66151
G1 X106.694 Y101.068 E7.67712
G1 X106.181 Y101.188 E7.69276
G1 X105.393 Y101.287 E7.71634
G1 X104.868 Y101.298 E7.73193
G1 X104.343 Y101.265 E7.74755
G1 X103.559 Y101.133 E7.77116
G1 X103.053 Y100.991 E7.78676
G1 X102.56 Y100.808 E7.80237
G1 X101.848 Y100.455 E7.82597
G1 X101.405 Y100.173 E7.84156
G1 X100.986 Y99.855 E7.85718
G1 X100.406 Y99.311 E7.88079
G1 X100.064 Y98.915 E7.89633
G1 X99.611 Y98.263 E7.9199
G1 X99.357 Y97.801 E7.93555
G1 X99.143 Y97.319 E7.95121
G1 X98.97 Y96.823 E7.96681
G1 X98.788 Y96.049 E7.99042
G1 X98.723 Y95.529 E8.00598
G1 X98.706 Y94.735 E8.02956
G1 X98.75 Y94.21 E8.0452
G1 X98.837 Y93.692 E8.0608
G1 X99.051 Y92.927 E8.08439
G1 X99.245 Y92.438 E8.10001
G1 X99.478 Y91.967 E8.11561
G1 X99.904 Y91.296 E8.13921
G1 X100.231 Y90.884 E8.15483
G1 X100.592 Y90.5 E8.17048
G1 X101.193 Y89.981 E8.19406
G1 X101.624 Y89.681 E8.20965
G1 X102.079 Y89.418 E8.22525
G1 X102.804 Y89.096 E8.2488
G1 X103.564 Y88.866 E8.27238
G1 X104.08 Y88.768 E8.28797
G1 X104.604 Y88.713 E8.30361
G1 X105.069 Y88.703 E8.31742
G1 X105.468 Y88.731 F6000
G1 E3.31742 F1800
G92 E0
G1 X109.703 Y92.194 F6000
G1 E5 F1800
;TYPE:Solid infill
