; generated by PrusaSlicer 2.8.1+linux-x64-GTK3 on 2024-12-14 at 11:30:31 UTC

; 

; external perimeters extrusion width = 0.45mm
; perimeters extrusion width = 0.45mm
; infill extrusion width = 0.45mm
; solid infill extrusion width = 0.45mm
; top infill extrusion width = 0.40mm
; support material extrusion width = 0.35mm
; first layer extrusion width = 0.40mm

M190 S81 ; set bed temperature and wait for it to be reached
M104 S230 ; set temperature
;TYPE:Custom
G28 ; home all axes
G1 Z5 F5000 ; lift nozzle
M109 S230 ; set temperature and wait for it to be reached
G21 ; set units to millimeters
G90 ; use absolute coordinates
M82 ; use absolute distances for extrusion
G92 E0
; Filament gcode
M107
;LAYER_CHANGE
;Z:0.2
;HEIGHT:0.2
G1 E-5 F1800
G92 E0
G1 Z.2 F6000
G1 X92.933 Y80.669
G1 E5 F1800
;TYPE:Skirt/Brim
;WIDTH:0.4
G1 X94.005 Y79.609 E5.04476
G1 X95.432 Y79.233 E5.08858
G1 X114.568 Y79.233 E5.65675
G1 X116.024 Y79.626 E5.70153
G1 X117.084 Y80.698 E5.74629
G1 X117.46 Y82.125 E5.79011
G1 X117.46 Y94.646 E6.16187
G1 X116.752 Y96.543 E6.22199
G1 X111.528 Y102.503 E6.45731
G1 X110.084 Y103.648 E6.51203
G1 X108.584 Y104.432 E6.56228
G1 X107.584 Y104.781 E6.59373
G1 X106.432 Y105.033 E6.62874
G1 X105.257 Y105.139 E6.66377
G1 X104.079 Y105.098 E6.69877
G1 X102.914 Y104.908 E6.73382
G1 X101.783 Y104.575 E6.76883
G1 X100.702 Y104.102 E6.80386
G1 X99.69 Y103.498 E6.83885
G1 X98.967 Y102.949 E6.8658
G1 X98.117 Y102.141 E6.90062
G1 X93.248 Y96.543 E7.12091
G1 X92.54 Y94.646 E7.18103
G1 X92.54 Y82.125 E7.55279
G1 X92.917 Y80.727 E7.59578
G1 X92.917 Y80.727 F6000
G1 X93.272 Y80.83
G1 F1800
G1 X93.289 Y80.771 E7.5976
G1 X94.344 Y79.835 E7.63948
G1 X95.432 Y79.59 E7.67259
G1 X114.568 Y79.59 E8.24076
G1 X115.922 Y79.982 E8.28261
G1 X116.858 Y81.037 E8.32449
G1 X117.103 Y82.125 E8.3576
G1 X117.103 Y94.646 E8.72936
G1 X116.482 Y96.309 E8.78207
G1 X111.284 Y102.243 E9.0163
G1 X109.886 Y103.351 E9.06926
G1 X108.452 Y104.1 E9.1173
G1 X107.481 Y104.439 E9.14784
G1 X106.372 Y104.681 E9.18154
G1 X105.242 Y104.783 E9.21523
G1 X104.108 Y104.742 E9.24892
G1 X102.989 Y104.559 E9.28259
G1 X101.9 Y104.238 E9.3163
G1 X100.861 Y103.782 E9.34999
G1 X99.887 Y103.2 E9.38368
G1 X99.2 Y102.679 E9.40928
G1 X98.382 Y101.902 E9.44278
G1 X93.518 Y96.309 E9.66286
G1 X92.897 Y94.646 E9.71557
G1 X92.897 Y82.125 E10.08733
G1 X93.255 Y80.888 E10.12557
G1 X93.255 Y80.888 F6000
G1 X93.608 Y80.998
G1 F1800
G1 X93.645 Y80.88 E10.12924
G1 X94.677 Y80.082 E10.16797
G1 X95.432 Y79.947 E10.19074
G1 X114.568 Y79.947 E10.75891
G1 X115.813 Y80.338 E10.79766
G1 X116.611 Y81.37 E10.83639
G1 X116.746 Y82.125 E10.85916
G1 X116.746 Y94.646 E11.23092
G1 X116.213 Y96.075 E11.2762
G1 X111.039 Y101.983 E11.50938
G1 X109.688 Y103.053 E11.56055
G1 X108.321 Y103.768 E11.60635
G1 X107.29 Y104.121 E11.63871
G1 X106.223 Y104.342 E11.67106
G1 X105.136 Y104.428 E11.70344
G1 X104.048 Y104.376 E11.73578
G1 X102.974 Y104.189 E11.76815
G1 X101.932 Y103.869 E11.80051
G1 X100.939 Y103.42 E11.83287
G1 X100.01 Y102.851 E11.86522
G1 X98.647 Y101.663 E11.9189
G1 X93.787 Y96.075 E12.13879
G1 X93.254 Y94.646 E12.18407
G1 X93.254 Y82.125 E12.55583
G1 X93.59 Y81.056 E12.5891
G1 E7.5891
G92 E0
G1 X93.59 Y81.056 F6000
G92 E0
G1 X114.568 Y94.646
G1 E5 F1800
;TYPE:Support material
G1 X111.836 Y94.646 E5.08112
G1 X111.541 Y93.477 E5.11692
G1 X111.066 Y92.41 E5.1516
G1 X110.245 Y91.229 E5.19431
G1 X109.418 Y90.418 E5.2287
G1 X108.466 Y89.756 E5.26313
G1 X107.41 Y89.259 E5.29778
G1 X106.293 Y88.948 E5.33221
G1 X104.859 Y88.827 E5.37494
G1 X103.698 Y88.949 E5.4096
G1 X102.582 Y89.262 E5.44401
G1 X101.304 Y89.895 E5.48635
G1 X100.37 Y90.601 E5.52111
G1 X99.576 Y91.446 E5.55554
G1 X98.929 Y92.419 E5.59023
G1 X98.459 Y93.477 E5.6246
G1 X98.164 Y94.646 E5.6604
G1 X95.432 Y94.646 E5.74152
G1 X95.432 Y82.125 E6.11328
G1 X114.568 Y82.125 E6.68145
G1 X114.568 Y94.593 E7.05164
G1 X114.568 Y94.593 F6000
G1 X114.125 Y94.486
G1 F1800
G1 X114.125 Y82.447 E7.40909
G1 X113.729 Y82.447 E7.42085
G1 X113.729 Y94.325 E7.77352
G1 X113.332 Y94.325 E7.78531
G1 X113.332 Y82.447 E8.13798
G1 X112.935 Y82.447 E8.14977
G1 X112.935 Y94.325 E8.50244
G1 X112.538 Y94.325 E8.51423
G1 X112.538 Y82.447 E8.8669
G1 X112.142 Y82.447 E8.87866
G1 X112.142 Y94.325 E9.23133
G1 X111.745 Y93.102 E9.26951
G1 X111.745 Y82.447 E9.58587
G1 X111.348 Y82.447 E9.59766
G1 X111.348 Y92.256 E9.8889
G1 X110.951 Y91.619 E9.91119
G1 X110.951 Y82.447 E10.18352
G1 X110.555 Y82.447 E10.19528
G1 X110.555 Y91.099 E10.45217
G1 X110.158 Y90.663 E10.46968
G1 X110.158 Y82.447 E10.71362
G1 X109.761 Y82.447 E10.72541
G1 X109.761 Y90.29 E10.95828
G1 X109.364 Y89.966 E10.97349
G1 X109.364 Y82.447 E11.19674
G1 X108.968 Y82.447 E11.2085
G1 X108.968 Y89.689 E11.42352
G1 X108.571 Y89.446 E11.43734
G1 X108.571 Y82.447 E11.64515
G1 X108.174 Y82.447 E11.65694
G1 X108.174 Y89.238 E11.85857
G1 X107.777 Y89.058 E11.87151
G1 X107.777 Y82.447 E12.0678
G1 X107.381 Y82.447 E12.07956
G1 X107.381 Y88.908 E12.2714
G1 X106.984 Y88.782 E12.28377
G1 X106.984 Y82.447 E12.47186
G1 X106.587 Y82.447 E12.48365
G1 X106.587 Y88.681 E12.66875
G1 X106.19 Y88.604 E12.68076
G1 X106.19 Y82.447 E12.86357
G1 X105.794 Y82.447 E12.87533
G1 X105.794 Y88.548 E13.05648
G1 X105.397 Y88.516 E13.06831
G1 X105.397 Y82.447 E13.24851
G1 X105 Y82.447 E13.2603
G1 X105 Y88.506 E13.4402
G1 X104.603 Y88.516 E13.45199
G1 X104.603 Y82.447 E13.63219
G1 X104.206 Y82.447 E13.64398
G1 X104.206 Y88.548 E13.82513
G1 X103.81 Y88.604 E13.837
G1 X103.81 Y82.447 E14.01981
G1 X103.413 Y82.447 E14.0316
G1 X103.413 Y88.681 E14.2167
G1 X103.016 Y88.782 E14.22886
G1 X103.016 Y82.447 E14.41695
G1 X102.619 Y82.447 E14.42874
G1 X102.619 Y88.908 E14.62058
G1 X102.223 Y89.058 E14.63315
G1 X102.223 Y82.447 E14.82944
G1 X101.826 Y82.447 E14.84123
G1 X101.826 Y89.238 E15.04286
G1 X101.429 Y89.446 E15.05617
G1 X101.429 Y82.447 E15.26398
G1 X101.032 Y82.447 E15.27577
G1 X101.032 Y89.689 E15.49079
G1 X100.636 Y89.966 E15.50514
G1 X100.636 Y82.447 E15.72839
G1 X100.239 Y82.447 E15.74018
G1 X100.239 Y90.29 E15.97305
G1 X99.842 Y90.663 E15.98922
G1 X99.842 Y82.447 E16.23316
G1 X99.445 Y82.447 E16.24495
G1 X99.445 Y91.099 E16.50184
G1 X99.049 Y91.619 E16.52125
G1 X99.049 Y82.447 E16.79358
G1 X98.652 Y82.447 E16.80537
G1 X98.652 Y92.256 E17.09661
G1 X98.255 Y93.102 E17.12436
G1 X98.255 Y82.447 E17.44072
G1 X97.858 Y82.447 E17.45251
G1 X97.858 Y94.325 E17.80518
G1 X97.462 Y94.325 E17.81694
G1 X97.462 Y82.447 E18.16961
G1 X97.065 Y82.447 E18.1814
G1 X97.065 Y94.325 E18.53407
G1 X96.668 Y94.325 E18.54586
G1 X96.668 Y82.447 E18.89853
G1 X96.271 Y82.447 E18.91032
G1 X96.271 Y94.325 E19.26299
G1 X95.875 Y94.325 E19.27475
G1 X95.875 Y82.286 E19.6322
G1 E14.6322
G92 E0
G1 X95.875 Y82.286 F6000
G1 X107.39 Y93.333
G1 E5 F1800
;TYPE:Perimeter
;WIDTH:0.399999
G1 X107.502 Y93.433 E5.00446
G1 X107.879 Y93.92 E5.02275
G1 X108.177 Y94.542 E5.04323
G1 X108.294 Y94.873 E5.05365
G1 X108.399 Y95.496 E5.07241
G1 X108.4 Y96.055 E5.08901
G1 X108.281 Y96.641 E5.10676
G1 X108.189 Y96.96 E5.11662
G1 X107.964 Y97.437 E5.13228
G1 X107.631 Y97.923 E5.14977
G1 X107.278 Y98.294 E5.16497
G1 X106.678 Y98.718 E5.18678
G1 X106.183 Y98.94 E5.20289
G1 X105.825 Y99.06 E5.2141
G1 X105.307 Y99.147 E5.2297
G1 X104.719 Y99.151 E5.24716
G1 X104.035 Y99.022 E5.26783
G1 X103.531 Y98.819 E5.28396
G1 X103.214 Y98.656 E5.29454
G1 X102.788 Y98.347 E5.31017
G1 X102.297 Y97.83 E5.33134
G1 X101.978 Y97.335 E5.34882
G1 X101.776 Y96.874 E5.36376
G1 X101.629 Y96.271 E5.38219
G1 X101.595 Y95.559 E5.40335
G1 X101.674 Y95.042 E5.41888
G1 X101.764 Y94.675 E5.4301
G1 X101.967 Y94.19 E5.44571
G1 X102.266 Y93.739 E5.46178
G1 X102.551 Y93.374 E5.47553
G1 X102.892 Y93.069 E5.48911
G1 X103.448 Y92.716 E5.50866
G1 X103.945 Y92.504 E5.5247
G1 X104.569 Y92.378 E5.5436
G1 X105.156 Y92.341 E5.56106
G1 X105.706 Y92.413 E5.57753
G1 X106.195 Y92.574 E5.59282
G1 X106.662 Y92.772 E5.60788
G1 X107.104 Y93.079 E5.62386
G1 X107.345 Y93.294 E5.63345
G1 X107.345 Y93.294 F6000
G1 X107.134 Y93.585
G1 F1800
G1 X107.291 Y93.728 E5.63976
G1 X107.59 Y94.13 E5.65464
G1 X107.851 Y94.687 E5.6729
G1 X107.942 Y94.932 E5.68066
G1 X108.047 Y95.556 E5.69945
G1 X108.037 Y96.073 E5.7148
G1 X107.905 Y96.691 E5.73356
G1 X107.705 Y97.151 E5.74845
G1 X107.466 Y97.542 E5.76206
G1 X107.07 Y97.999 E5.78001
G1 X106.474 Y98.425 E5.80176
G1 X105.875 Y98.677 E5.82105
G1 X105.247 Y98.795 E5.84002
G1 X104.727 Y98.794 E5.85546
G1 X104.109 Y98.673 E5.87416
G1 X103.521 Y98.424 E5.89312
G1 X103 Y98.059 E5.91201
G1 X102.562 Y97.591 E5.93104
G1 X102.283 Y97.15 E5.94653
G1 X102.097 Y96.703 E5.96091
G1 X101.977 Y96.189 E5.97658
G1 X101.952 Y95.551 E5.99554
G1 X102.06 Y94.922 E6.01449
G1 X102.297 Y94.329 E6.03345
G1 X102.729 Y93.71 E6.05586
G1 X103.092 Y93.365 E6.07073
G1 X103.639 Y93.017 E6.08998
G1 X104.109 Y92.829 E6.10501
G1 X104.636 Y92.728 E6.12094
G1 X105.156 Y92.698 E6.13641
G1 X105.654 Y92.766 E6.15133
G1 X106.355 Y93.014 E6.17341
G1 X106.9 Y93.373 E6.19279
G1 X107.089 Y93.545 E6.20038
G1 X107.089 Y93.545 F6000
G1 X106.878 Y93.835
;TYPE:External perimeter
G1 F1800
G1 X107.054 Y94 E6.20754
G1 X107.372 Y94.489 E6.22486
G1 X107.577 Y94.949 E6.23981
G1 X107.695 Y95.615 E6.25989
G1 X107.657 Y96.144 E6.27564
G1 X107.551 Y96.636 E6.29058
G1 X107.318 Y97.133 E6.30688
G1 X107.036 Y97.523 E6.32117
G1 X106.701 Y97.832 E6.3347
G1 X106.27 Y98.132 E6.35029
G1 X105.744 Y98.345 E6.36714
G1 X105.188 Y98.443 E6.3839
G1 X104.7 Y98.433 E6.39839
G1 X104.184 Y98.323 E6.41405
G1 X103.666 Y98.097 E6.43083
G1 X103.21 Y97.77 E6.44749
G1 X102.827 Y97.352 E6.46432
G1 X102.577 Y96.941 E6.4786
G1 X102.445 Y96.621 E6.48888
G1 X102.325 Y96.108 E6.50452
G1 X102.309 Y95.544 E6.52127
G1 X102.411 Y94.989 E6.53802
G1 X102.626 Y94.467 E6.55478
G1 X103.017 Y93.92 E6.57474
G1 X103.292 Y93.66 E6.58598
G1 X103.831 Y93.319 E6.60492
G1 X104.187 Y93.177 E6.6163
G1 X104.81 Y93.059 E6.63513
G1 X105.395 Y93.089 E6.65252
G1 X105.638 Y93.129 E6.65983
G1 X106.23 Y93.349 E6.67858
G1 X106.697 Y93.666 E6.69534
G1 X106.834 Y93.795 E6.70093
G1 X107.103 Y94.091 F6000
G1 E1.70093 F1800
G92 E0
G1 X103.974 Y90.271 F6000
G1 E5 F1800
;TYPE:Perimeter
G1 X104.138 Y90.236 E5.00498
G1 X104.641 Y90.178 E5.02001
G1 X105.156 Y90.177 E5.0353
G1 X105.77 Y90.221 E5.05358
G1 X106.266 Y90.311 E5.06855
G1 X106.947 Y90.517 E5.08967
G1 X107.419 Y90.719 E5.10491
G1 X107.898 Y90.985 E5.12118
G1 X108.423 Y91.341 E5.14001
G1 X108.858 Y91.719 E5.15712
G1 X109.334 Y92.231 E5.17788
G1 X109.643 Y92.666 E5.19372
G1 X109.919 Y93.115 E5.20937
G1 X110.174 Y93.653 E5.22705
G1 X110.344 Y94.127 E5.242
G1 X110.508 Y94.829 E5.2634
G1 X110.565 Y95.331 E5.2784
G1 X110.565 Y96.116 E5.30171
G1 X110.493 Y96.746 E5.32054
G1 X110.36 Y97.305 E5.3376
G1 X110.167 Y97.84 E5.35449
G1 X109.839 Y98.532 E5.37723
G1 X109.544 Y98.995 E5.39353
G1 X109.234 Y99.393 E5.40851
G1 X108.769 Y99.867 E5.42823
G1 X108.384 Y100.193 E5.44321
G1 X107.784 Y100.592 E5.4646
G1 X107.319 Y100.829 E5.4801
G1 X106.56 Y101.101 E5.50404
G1 X105.861 Y101.267 E5.52537
G1 X105.36 Y101.324 E5.54034
G1 X104.697 Y101.324 E5.56003
G1 X104.194 Y101.277 E5.57503
G1 X103.489 Y101.127 E5.59643
G1 X102.994 Y100.96 E5.61194
G1 X102.431 Y100.704 E5.6303
G1 X101.994 Y100.452 E5.64528
G1 X101.493 Y100.094 E5.66356
G1 X101.103 Y99.736 E5.67928
G1 X100.653 Y99.254 E5.69886
G1 X100.354 Y98.849 E5.71381
G1 X100.095 Y98.4 E5.7292
G1 X99.826 Y97.848 E5.74743
G1 X99.656 Y97.374 E5.76238
G1 X99.505 Y96.728 E5.78208
G1 X99.436 Y96.228 E5.79707
G1 X99.423 Y95.604 E5.8156
G1 X99.455 Y95.096 E5.83071
G1 X99.535 Y94.599 E5.84566
G1 X99.729 Y93.906 E5.86703
G1 X99.918 Y93.438 E5.88202
G1 X100.21 Y92.898 E5.90025
G1 X100.523 Y92.416 E5.91731
G1 X101.039 Y91.83 E5.94049
G1 X101.443 Y91.451 E5.95694
G1 X101.97 Y91.061 E5.97641
G1 X102.405 Y90.806 E5.99138
G1 X103.01 Y90.536 E6.01105
G1 X103.494 Y90.373 E6.02621
G1 X103.916 Y90.284 E6.03902
G1 X103.916 Y90.284 F6000
G1 X103.9 Y89.922
G1 F1800
G1 X104.063 Y89.887 E6.04397
G1 X104.622 Y89.821 E6.06068
G1 X105.294 Y89.82 E6.08063
G1 X105.807 Y89.866 E6.09592
G1 X106.351 Y89.964 E6.11233
G1 X107.068 Y90.18 E6.13456
G1 X107.585 Y90.402 E6.15127
G1 X108.096 Y90.688 E6.16866
G1 X108.863 Y91.241 E6.19674
G1 X109.289 Y91.64 E6.21407
G1 X109.653 Y92.055 E6.23046
G1 X109.96 Y92.496 E6.24641
G1 X110.231 Y92.943 E6.26193
G1 X110.5 Y93.508 E6.28051
G1 X110.687 Y94.028 E6.29692
G1 X110.86 Y94.766 E6.31943
G1 X110.922 Y95.323 E6.33607
G1 X110.929 Y95.656 E6.34596
G1 X110.903 Y96.318 E6.36563
G1 X110.842 Y96.82 E6.38064
G1 X110.701 Y97.408 E6.39859
G1 X110.496 Y97.978 E6.41658
G1 X110.152 Y98.704 E6.44043
G1 X109.841 Y99.193 E6.45764
G1 X109.502 Y99.629 E6.47404
G1 X109.025 Y100.117 E6.4943
G1 X108.597 Y100.48 E6.51096
G1 X108.029 Y100.858 E6.53122
G1 X107.584 Y101.099 E6.54625
G1 X107.075 Y101.319 E6.56271
G1 X106.424 Y101.515 E6.5829
G1 X105.928 Y101.618 E6.59794
G1 X105.379 Y101.681 E6.61435
G1 X104.697 Y101.681 E6.6346
G1 X104.138 Y101.63 E6.65127
G1 X103.396 Y101.472 E6.67379
G1 X102.855 Y101.29 E6.69074
G1 X102.156 Y100.963 E6.71365
G1 X101.66 Y100.663 E6.73086
G1 X101.217 Y100.333 E6.74726
G1 X100.72 Y99.866 E6.76751
G1 X100.383 Y99.488 E6.78255
G1 X100.054 Y99.044 E6.79896
G1 X99.713 Y98.453 E6.81922
G1 X99.499 Y97.994 E6.83426
G1 X99.313 Y97.474 E6.85066
G1 X99.157 Y96.81 E6.87091
G1 X99.079 Y96.254 E6.88758
G1 X99.063 Y95.496 E6.91009
G1 X99.118 Y94.928 E6.92703
G1 X99.258 Y94.265 E6.94715
G1 X99.418 Y93.722 E6.96396
G1 X99.674 Y93.127 E6.98319
G1 X99.975 Y92.602 E7.00116
G1 X100.426 Y91.963 E7.02438
G1 X100.784 Y91.58 E7.03995
G1 X101.215 Y91.176 E7.05749
G1 X101.766 Y90.768 E7.07785
G1 X102.242 Y90.487 E7.09426
G1 X102.865 Y90.21 E7.1145
G1 X103.401 Y90.028 E7.13131
G1 X103.842 Y89.934 E7.1447
G1 X103.842 Y89.934 F6000
G1 X103.828 Y89.582
;TYPE:External perimeter
G1 F1800
G1 X104.285 Y89.497 E7.1585
G1 X104.842 Y89.463 E7.17507
G1 X105.63 Y89.488 E7.19848
G1 X106.283 Y89.588 E7.21809
G1 X106.784 Y89.722 E7.23349
G1 X107.276 Y89.88 E7.24883
G1 X107.75 Y90.086 E7.26418
G1 X108.293 Y90.39 E7.28266
G1 X108.877 Y90.79 E7.30368
G1 X109.27 Y91.122 E7.31896
G1 X109.642 Y91.495 E7.3346
G1 X109.99 Y91.913 E7.35075
G1 X110.433 Y92.568 E7.37423
G1 X110.674 Y93.019 E7.38941
G1 X110.979 Y93.78 E7.41375
G1 X111.113 Y94.281 E7.42915
G1 X111.224 Y94.796 E7.44479
G1 X111.279 Y95.316 E7.46032
G1 X111.294 Y96.015 E7.48108
G1 X111.211 Y96.802 E7.50458
G1 X111.102 Y97.317 E7.52021
G1 X110.95 Y97.821 E7.53584
G1 X110.642 Y98.554 E7.55945
G1 X110.389 Y99.014 E7.57504
G1 X110.097 Y99.454 E7.59072
G1 X109.77 Y99.866 E7.60634
G1 X109.214 Y100.434 E7.62994
G1 X108.81 Y100.767 E7.64548
G1 X108.148 Y101.207 E7.66908
G1 X107.682 Y101.451 E7.6847
G1 X107.196 Y101.655 E7.70035
G1 X106.436 Y101.884 E7.72392
G1 X105.92 Y101.983 E7.73952
G1 X105.398 Y102.038 E7.7551
G1 X104.602 Y102.038 E7.77873
G1 X104.082 Y101.983 E7.79426
G1 X103.304 Y101.818 E7.81787
G1 X102.804 Y101.655 E7.83348
G1 X102.318 Y101.451 E7.84913
G1 X101.85 Y101.207 E7.8648
G1 X101.405 Y100.924 E7.88046
G1 X100.986 Y100.606 E7.89608
G1 X100.406 Y100.062 E7.91969
G1 X100.063 Y99.664 E7.93529
G1 X99.754 Y99.239 E7.95089
G1 X99.356 Y98.55 E7.97452
G1 X99.143 Y98.07 E7.99011
G1 X98.97 Y97.574 E8.00571
G1 X98.788 Y96.799 E8.02935
G1 X98.723 Y96.28 E8.04488
G1 X98.706 Y95.485 E8.06849
G1 X98.75 Y94.961 E8.0841
G1 X98.838 Y94.443 E8.0997
G1 X99.051 Y93.678 E8.12328
G1 X99.245 Y93.188 E8.13893
G1 X99.48 Y92.715 E8.15461
G1 X99.905 Y92.046 E8.17814
G1 X100.23 Y91.636 E8.19367
G1 X100.72 Y91.135 E8.21448
G1 X101.133 Y90.781 E8.23063
G1 X101.562 Y90.475 E8.24628
G1 X101.998 Y90.216 E8.26134
G1 X102.938 Y89.803 E8.29182
G1 X103.476 Y89.647 E8.30845
G1 X103.769 Y89.593 E8.3173
G1 X104.162 Y89.52 F6000
G1 E3.3173 F1800
G92 E0
G1 X109.702 Y92.943 F6000
G1 E5 F1800
;TYPE:Solid infill
;WIDTH:0.409092
G1 X108.558 Y91.8 E5.04924
G1 X108.219 Y91.52 E5.06263
G1 X107.648 Y91.14 E5.08351
G1 X107.12 Y90.88 E5.10143
G1 X109.871 Y93.63 E5.21986
G1 X110.086 Y94.202 E5.23847
G1 X110.135 Y94.412 E5.24504
G1 X106.335 Y90.612 E5.40866
G1 X106.202 Y90.572 E5.41289
G1 X105.686 Y90.481 E5.42884
G1 X110.268 Y95.063 E5.62614
G1 X110.297 Y95.293 E5.6332
