; generated by PrusaSlicer 2.8.1+linux-x64-GTK3 on 2024-12-14 at 10:11:25 UTC

; 

; external perimeters extrusion width = 0.45mm
; perimeters extrusion width = 0.45mm
; infill extrusion width = 0.45mm
; solid infill extrusion width = 0.45mm
; top infill extrusion width = 0.40mm
; support material extrusion width = 0.35mm
; first layer extrusion width = 0.40mm

M190 S85 ; set bed temperature and wait for it to be reached
M104 S230 ; set temperature
;TYPE:Custom
G28 ; home all axes
G1 Z5 F5000 ; lift nozzle
M109 S230 ; set temperature and wait for it to be reached
G21 ; set units to millimeters
G90 ; use absolute coordinates
M82 ; use absolute distances for extrusion
G92 E0
; Filament gcode
M107
;LAYER_CHANGE
;Z:0.2
;HEIGHT:0.2
G1 E-5 F1800
G92 E0
G1 Z.2 F6000
G1 X98.82 Y88.606
G1 E5 F1800
;TYPE:Skirt/Brim
;WIDTH:0.4
G1 X100.184 Y87.525 E5.05168
G1 X101.61 Y86.779 E5.09946
G1 X103.274 Y86.277 E5.15107
G1 X105.126 Y86.109 E5.20628
G1 X106.726 Y86.277 E5.25405
G1 X108.502 Y86.826 E5.30924
G1 X110.025 Y87.664 E5.36085
G1 X111.265 Y88.689 E5.40862
G1 X112.436 Y90.124 E5.46361
G1 X113.245 Y91.67 E5.51542
G1 X113.71 Y93.21 E5.56318
G1 X113.892 Y95.061 E5.6184
G1 X113.71 Y96.79 E5.67002
G1 X113.149 Y98.559 E5.72512
G1 X112.373 Y99.971 E5.77296
G1 X111.178 Y101.396 E5.82818
G1 X109.816 Y102.475 E5.87977
G1 X108.39 Y103.221 E5.92755
G1 X106.726 Y103.723 E5.97916
G1 X104.874 Y103.891 E6.03437
G1 X103.274 Y103.723 E6.08214
G1 X101.498 Y103.174 E6.13733
G1 X99.975 Y102.336 E6.18894
G1 X98.563 Y101.135 E6.24398
G1 X97.564 Y99.876 E6.2917
G1 X96.756 Y98.332 E6.34344
G1 X96.243 Y96.543 E6.3987
G1 X96.108 Y94.939 E6.44649
G1 X96.314 Y93.094 E6.50161
G1 X96.851 Y91.441 E6.55321
G1 X97.767 Y89.827 E6.60831
G1 X98.781 Y88.652 E6.65439
G1 X98.781 Y88.652 F6000
G1 X99.05 Y88.884
G1 F1800
G1 X99.065 Y88.866 E6.65509
G1 X100.382 Y87.822 E6.70499
G1 X101.741 Y87.111 E6.75053
G1 X103.453 Y86.606 E6.80353
G1 X105.126 Y86.466 E6.85338
G1 X106.651 Y86.626 E6.89891
G1 X108.259 Y87.111 E6.94878
G1 X109.827 Y87.961 E7.00174
G1 X111.01 Y88.939 E7.04731
G1 X112.134 Y90.315 E7.10006
G1 X112.916 Y91.808 E7.1501
G1 X113.36 Y93.277 E7.19567
G1 X113.535 Y95.053 E7.24866
G1 X113.36 Y96.723 E7.29852
G1 X112.82 Y98.421 E7.35142
G1 X112.08 Y99.767 E7.39703
G1 X110.934 Y101.135 E7.45002
G1 X109.618 Y102.178 E7.49988
G1 X108.259 Y102.889 E7.54542
G1 X106.651 Y103.374 E7.59529
G1 X104.874 Y103.534 E7.64826
G1 X103.349 Y103.374 E7.69379
G1 X101.644 Y102.848 E7.74677
G1 X100.173 Y102.039 E7.79662
G1 X98.818 Y100.885 E7.84947
G1 X97.866 Y99.685 E7.89495
G1 X97.085 Y98.194 E7.94493
G1 X96.593 Y96.476 E7.99799
G1 X96.465 Y94.947 E8.04355
G1 X96.662 Y93.176 E8.09646
G1 X97.18 Y91.579 E8.14631
G1 X98.06 Y90.031 E8.19918
G1 X99.011 Y88.929 E8.2424
G1 X99.011 Y88.929 F6000
G1 X99.28 Y89.161
G1 F1800
G1 X99.309 Y89.127 E8.24373
G1 X100.579 Y88.119 E8.29187
G1 X101.873 Y87.443 E8.33522
G1 X103.423 Y86.975 E8.38329
G1 X105.126 Y86.823 E8.43406
G1 X106.577 Y86.975 E8.47738
G1 X108.211 Y87.479 E8.52815
G1 X109.63 Y88.259 E8.57623
G1 X110.755 Y89.189 E8.61957
G1 X111.833 Y90.507 E8.67013
G1 X112.587 Y91.946 E8.71837
G1 X113.009 Y93.344 E8.76173
G1 X113.178 Y95.046 E8.81251
G1 X113.009 Y96.656 E8.86058
G1 X112.49 Y98.283 E8.91129
G1 X111.786 Y99.564 E8.95469
G1 X110.689 Y100.875 E9.00545
G1 X109.421 Y101.881 E9.05351
G1 X108.127 Y102.557 E9.09686
G1 X106.577 Y103.025 E9.14493
G1 X104.874 Y103.177 E9.1957
G1 X103.423 Y103.025 E9.23902
G1 X101.789 Y102.521 E9.28979
G1 X100.37 Y101.741 E9.33787
G1 X99.073 Y100.635 E9.38848
G1 X98.167 Y99.493 E9.43176
G1 X97.414 Y98.055 E9.47996
G1 X96.944 Y96.409 E9.53079
G1 X96.822 Y94.954 E9.57414
G1 X97.01 Y93.257 E9.62483
G1 X97.51 Y91.717 E9.6729
G1 X98.354 Y90.235 E9.72354
G1 X99.24 Y89.206 E9.76386
G1 E4.76386
G92 E0
G1 X99.24 Y89.206 F6000
G92 E0
G1 X103.047 Y96.396
G1 E5 F1800
;TYPE:Perimeter
;WIDTH:0.399999
G1 X102.942 Y96.256 E5.0052
G1 X102.731 Y95.818 E5.01964
G1 X102.624 Y95.409 E5.03219
G1 X102.591 Y94.907 E5.04713
G1 X102.631 Y94.535 E5.05824
G1 X102.78 Y94.053 E5.07322
G1 X103.058 Y93.566 E5.08987
G1 X103.507 Y93.113 E5.10881
G1 X103.93 Y92.843 E5.12371
G1 X104.457 Y92.651 E5.14036
G1 X105.022 Y92.588 E5.15724
G1 X105.543 Y92.651 E5.17282
G1 X106.02 Y92.815 E5.1878
G1 X106.437 Y93.063 E5.20221
G1 X106.804 Y93.406 E5.21712
G1 X107.058 Y93.744 E5.22967
G1 X107.269 Y94.182 E5.24411
G1 X107.376 Y94.591 E5.25666
G1 X107.409 Y95.093 E5.2716
G1 X107.337 Y95.592 E5.28657
G1 X107.163 Y96.065 E5.30153
G1 X106.894 Y96.492 E5.31651
G1 X106.493 Y96.887 E5.33322
G1 X106.02 Y97.185 E5.34982
G1 X105.543 Y97.349 E5.3648
G1 X104.978 Y97.412 E5.38168
G1 X104.457 Y97.349 E5.39726
G1 X103.98 Y97.185 E5.41224
G1 X103.563 Y96.937 E5.42665
G1 X103.196 Y96.594 E5.44156
G1 X103.083 Y96.444 E5.44714
G1 X103.083 Y96.444 F6000
G1 X103.338 Y96.194
G1 F1800
G1 X103.258 Y96.09 E5.45104
G1 X103.029 Y95.572 E5.46786
G1 X102.946 Y95.056 E5.48338
G1 X102.984 Y94.594 E5.49714
G1 X103.146 Y94.113 E5.51221
G1 X103.394 Y93.723 E5.52593
G1 X103.757 Y93.368 E5.54101
G1 X104.203 Y93.104 E5.5564
G1 X104.762 Y92.962 E5.57352
G1 X105.33 Y92.972 E5.59039
G1 X105.818 Y93.113 E5.60547
G1 X106.21 Y93.338 E5.61889
G1 X106.529 Y93.634 E5.63181
G1 X106.742 Y93.91 E5.64216
G1 X106.971 Y94.428 E5.65898
G1 X107.054 Y94.944 E5.6745
G1 X107.007 Y95.45 E5.68959
G1 X106.854 Y95.887 E5.70334
G1 X106.606 Y96.277 E5.71706
G1 X106.243 Y96.632 E5.73214
G1 X105.792 Y96.899 E5.7477
G1 X105.237 Y97.038 E5.76469
G1 X104.67 Y97.028 E5.78153
G1 X104.182 Y96.887 E5.79661
G1 X103.79 Y96.662 E5.81003
G1 X103.471 Y96.366 E5.82295
G1 X103.375 Y96.241 E5.82763
G1 X103.375 Y96.241 F6000
G1 X103.629 Y95.991
;TYPE:External perimeter
G1 F1800
G1 X103.574 Y95.925 E5.83018
G1 X103.371 Y95.468 E5.84503
G1 X103.301 Y94.981 E5.85964
G1 X103.336 Y94.654 E5.8694
G1 X103.496 Y94.222 E5.88308
G1 X103.644 Y93.978 E5.89155
G1 X104.007 Y93.623 E5.90663
G1 X104.415 Y93.41 E5.9203
G1 X104.799 Y93.317 E5.93203
G1 X105.3 Y93.327 E5.94691
G1 X105.746 Y93.48 E5.96091
G1 X106.179 Y93.775 E5.97647
G1 X106.426 Y94.075 E5.98801
G1 X106.629 Y94.532 E6.00286
G1 X106.699 Y95.019 E6.01747
G1 X106.633 Y95.448 E6.03036
G1 X106.545 Y95.708 E6.03851
G1 X106.356 Y96.022 E6.04939
G1 X105.993 Y96.377 E6.06447
G1 X105.587 Y96.59 E6.07808
G1 X105.199 Y96.683 E6.08993
G1 X104.689 Y96.671 E6.10508
G1 X104.254 Y96.52 E6.11875
G1 X103.821 Y96.225 E6.13431
G1 X103.667 Y96.037 E6.14153
G1 X103.474 Y95.687 F6000
G1 E1.14153 F1800
G92 E0
G1 X105.126 Y89.917 F6000
G1 E5 F1800
;TYPE:Perimeter
G1 X105.667 Y89.963 E5.01612
G1 X106.235 Y90.071 E5.03329
G1 X106.759 Y90.24 E5.04964
G1 X107.232 Y90.435 E5.06483
G1 X107.716 Y90.702 E5.08124
G1 X108.248 Y91.088 E5.10076
G1 X108.66 Y91.476 E5.11756
G1 X109.061 Y91.944 E5.13586
G1 X109.344 Y92.358 E5.15075
G1 X109.645 Y92.932 E5.16999
G1 X109.846 Y93.473 E5.18713
G1 X109.982 Y94.003 E5.20338
G1 X110.071 Y94.654 E5.22289
G1 X110.064 Y95.316 E5.24255
G1 X109.983 Y96.002 E5.26306
G1 X109.85 Y96.523 E5.27903
G1 X109.587 Y97.188 E5.30026
G1 X109.315 Y97.675 E5.31682
G1 X108.991 Y98.151 E5.33392
G1 X108.598 Y98.587 E5.35135
G1 X108.197 Y98.952 E5.36745
G1 X107.658 Y99.331 E5.38701
G1 X107.171 Y99.587 E5.40335
G1 X106.7 Y99.788 E5.41855
G1 X106.17 Y99.938 E5.4349
G1 X105.539 Y100.056 E5.45396
G1 X104.884 Y100.083 E5.47342
G1 X104.333 Y100.037 E5.48984
G1 X103.74 Y99.915 E5.50782
G1 X103.082 Y99.707 E5.52831
G1 X102.596 Y99.478 E5.54426
G1 X102.101 Y99.172 E5.56154
G1 X101.612 Y98.778 E5.58019
G1 X101.189 Y98.364 E5.59776
G1 X100.855 Y97.942 E5.61374
G1 X100.577 Y97.492 E5.62945
G1 X100.326 Y96.989 E5.64614
G1 X100.113 Y96.394 E5.6649
G1 X99.994 Y95.836 E5.68184
G1 X99.927 Y95.289 E5.6982
G1 X99.93 Y94.777 E5.7134
G1 X99.978 Y94.228 E5.72976
G1 X100.112 Y93.638 E5.74772
G1 X100.334 Y92.984 E5.76823
G1 X100.573 Y92.502 E5.7842
G1 X100.939 Y91.958 E5.80367
G1 X101.404 Y91.408 E5.82505
G1 X101.803 Y91.048 E5.84101
G1 X102.29 Y90.709 E5.85863
G1 X102.768 Y90.435 E5.87499
G1 X103.301 Y90.211 E5.89216
G1 X103.831 Y90.062 E5.90851
G1 X104.459 Y89.944 E5.92748
G1 X105.066 Y89.919 E5.94552
G1 X105.066 Y89.919 F6000
G1 X105.126 Y89.57
G1 F1800
G1 X105.261 Y89.568 E5.94953
G1 X105.857 Y89.63 E5.96732
G1 X106.373 Y89.737 E5.98297
G1 X106.877 Y89.903 E5.99873
G1 X107.384 Y90.112 E6.01501
G1 X107.834 Y90.358 E6.03024
G1 X108.279 Y90.669 E6.04636
G1 X108.755 Y91.064 E6.06473
G1 X109.12 Y91.444 E6.08037
G1 X109.442 Y91.86 E6.09599
G1 X109.739 Y92.343 E6.11283
G1 X110.079 Y93.076 E6.13682
G1 X110.259 Y93.619 E6.15381
G1 X110.359 Y94.112 E6.16875
G1 X110.427 Y94.639 E6.18453
G1 X110.426 Y95.245 E6.20252
G1 X110.374 Y95.831 E6.21999
G1 X110.248 Y96.426 E6.23805
G1 X110.084 Y96.936 E6.25396
G1 X109.877 Y97.415 E6.26945
G1 X109.574 Y97.94 E6.28745
G1 X109.269 Y98.376 E6.30325
G1 X108.804 Y98.892 E6.32387
G1 X108.413 Y99.236 E6.33933
G1 X107.967 Y99.557 E6.35565
G1 X107.413 Y99.866 E6.37448
G1 X106.955 Y100.074 E6.38942
G1 X106.349 Y100.261 E6.40825
G1 X105.857 Y100.37 E6.42321
G1 X105.335 Y100.422 E6.43879
G1 X104.785 Y100.435 E6.45512
G1 X104.281 Y100.39 E6.47014
G1 X103.742 Y100.284 E6.48645
G1 X103.229 Y100.143 E6.50225
G1 X102.742 Y99.947 E6.51784
G1 X102.212 Y99.669 E6.53561
G1 X101.787 Y99.389 E6.55072
G1 X101.379 Y99.049 E6.56649
G1 X100.984 Y98.667 E6.58281
G1 X100.641 Y98.255 E6.59873
G1 X100.348 Y97.824 E6.6142
G1 X100.078 Y97.308 E6.63149
G1 X99.872 Y96.792 E6.64799
G1 X99.718 Y96.291 E6.66355
G1 X99.627 Y95.796 E6.67849
G1 X99.565 Y95.165 E6.69732
G1 X99.579 Y94.661 E6.71229
G1 X99.649 Y94.031 E6.73111
G1 X99.768 Y93.542 E6.74605
G1 X99.967 Y92.94 E6.76488
G1 X100.199 Y92.442 E6.78119
G1 X100.464 Y91.993 E6.79667
G1 X100.829 Y91.512 E6.8146
G1 X101.192 Y91.112 E6.83064
G1 X101.588 Y90.763 E6.84631
G1 X102.105 Y90.404 E6.865
G1 X102.564 Y90.137 E6.88077
G1 X103.046 Y89.925 E6.8964
G1 X103.652 Y89.739 E6.91522
G1 X104.142 Y89.63 E6.93012
G1 X104.665 Y89.578 E6.94573
G1 X105.066 Y89.571 E6.95764
G1 X105.066 Y89.571 F6000
G1 X105.126 Y89.214
;TYPE:External perimeter
G1 F1800
G1 X105.284 Y89.212 E6.96233
G1 X106.002 Y89.29 E6.98377
G1 X106.559 Y89.414 E7.00071
G1 X107.249 Y89.654 E7.0224
G1 X107.762 Y89.903 E7.03933
G1 X108.376 Y90.298 E7.06101
G1 X108.856 Y90.674 E7.07911
G1 X109.277 Y91.089 E7.09666
G1 X109.639 Y91.524 E7.11346
G1 X109.96 Y91.994 E7.13036
G1 X110.203 Y92.459 E7.14594
G1 X110.414 Y92.952 E7.16186
G1 X110.605 Y93.53 E7.17993
G1 X110.712 Y94.06 E7.19598
G1 X110.784 Y94.624 E7.21286
G1 X110.8 Y94.998 E7.22397
G1 X110.761 Y95.62 E7.24247
G1 X110.687 Y96.121 E7.25751
G1 X110.552 Y96.676 E7.27447
G1 X110.358 Y97.214 E7.29145
G1 X110.092 Y97.756 E7.30938
G1 X109.766 Y98.298 E7.32816
G1 X109.408 Y98.755 E7.3454
G1 X108.976 Y99.217 E7.36418
G1 X108.453 Y99.654 E7.38442
G1 X107.992 Y99.964 E7.40091
G1 X107.488 Y100.227 E7.41779
G1 X106.948 Y100.458 E7.43523
G1 X106.437 Y100.607 E7.45103
G1 X105.909 Y100.723 E7.46708
G1 X105.35 Y100.779 E7.48376
G1 X104.763 Y100.791 E7.50119
G1 X104.229 Y100.744 E7.51711
G1 X103.653 Y100.63 E7.53454
G1 X103.105 Y100.478 E7.55143
G1 X102.59 Y100.27 E7.56792
G1 X102.033 Y99.978 E7.58659
G1 X101.583 Y99.682 E7.60258
G1 X101.145 Y99.319 E7.61947
G1 X100.723 Y98.911 E7.6369
G1 X100.361 Y98.476 E7.6537
G1 X100.04 Y98.006 E7.6706
G1 X99.761 Y97.473 E7.68846
G1 X99.537 Y96.917 E7.70626
G1 X99.372 Y96.38 E7.72294
G1 X99.274 Y95.848 E7.739
G1 X99.208 Y95.18 E7.75893
G1 X99.223 Y94.639 E7.775
G1 X99.297 Y93.972 E7.79493
G1 X99.424 Y93.446 E7.811
G1 X99.635 Y92.808 E7.83095
G1 X99.879 Y92.283 E7.84814
G1 X100.168 Y91.792 E7.86506
G1 X100.61 Y91.21 E7.88676
G1 X101.006 Y90.798 E7.90373
G1 X101.548 Y90.345 E7.9247
G1 X102 Y90.05 E7.94073
G1 X102.464 Y89.789 E7.95654
G1 X103.052 Y89.542 E7.97548
G1 X103.563 Y89.393 E7.99128
G1 X104.09 Y89.277 E8.0073
G1 X104.65 Y89.221 E8.02401
G1 X105.066 Y89.215 E8.03636
G1 X105.465 Y89.235 F6000
G1 E3.03636 F1800
G92 E0
G1 X109.292 Y92.489 F6000
G1 E5 F1800
;TYPE:Solid infill
;WIDTH:0.412938
G1 X108.08 Y91.297 E5.0523
G1 X107.57 Y90.927 E5.07169
G1 X107.232 Y90.731 E5.08371
G1 X106.826 Y90.547 E5.09742
G1 X109.446 Y93.166 E5.2114
G1 X109.614 Y93.618 E5.22624
G1 X109.697 Y93.941 E5.2365
G1 X106.062 Y90.306 E5.39466
G1 X105.438 Y90.205 E5.41411
G1 X109.793 Y94.56 E5.6036
G1 X109.809 Y95.1 E5.62022
G1 X104.907 Y90.197 E5.83353
G1 X104.409 Y90.222 E5.84887
G1 X109.779 Y95.592 E6.08253
G1 X109.702 Y96.039 E6.09649
G1 X103.966 Y90.303 E6.34607
G1 X103.55 Y90.41 E6.35929
G1 X105.513 Y92.373 E6.4447
G1 X104.939 Y92.322 E6.46243
G1 X103.164 Y90.548 E6.53964
G1 X102.807 Y90.713 E6.55174
G1 X104.468 Y92.375 E6.62403
G1 X104.067 Y92.497 E6.63693
G1 X102.478 Y90.908 E6.70607
G1 X102.16 Y91.113 E6.71771
G1 X103.711 Y92.664 E6.7852
G1 X103.389 Y92.865 E6.79688
G1 X101.868 Y91.344 E6.86306
G1 X101.595 Y91.595 E6.87447
G1 X103.121 Y93.121 E6.94087
G1 X102.866 Y93.389 E6.95225
G1 X101.344 Y91.867 E7.01847
G1 X101.118 Y92.165 E7.02998
G1 X102.661 Y93.707 E7.0971
G1 X102.57 Y93.866 E7.10274
G1 X102.494 Y94.064 E7.10927
G1 X100.904 Y92.473 E7.17847
G1 X100.715 Y92.808 E7.1903
G1 X102.374 Y94.467 E7.26249
G1 X102.327 Y94.944 E7.27724
G1 X100.55 Y93.166 E7.35458
G1 X100.414 Y93.553 E7.3672
G1 X102.604 Y95.743 E7.46249
G1 E2.46249
G92 E0
G1 X102.604 Y95.743 F6000
G1 X104.257 Y97.396
G1 E5 F1800
G1 X106.45 Y99.59 E5.09544
G1 X106.836 Y99.452 E5.10805
G1 X105.064 Y97.68 E5.18515
G1 X105.532 Y97.625 E5.19965
G1 X107.187 Y99.28 E5.27166
G1 X107.527 Y99.097 E5.28354
G1 X105.931 Y97.501 E5.35298
G1 X106.103 Y97.444 E5.35855
G1 X106.29 Y97.336 E5.36519
G1 X107.84 Y98.886 E5.43263
G1 X108.133 Y98.656 E5.44409
G1 X106.612 Y97.135 E5.51027
G1 X106.878 Y96.878 E5.52165
G1 X108.403 Y98.403 E5.588
G1 X108.651 Y98.128 E5.59939
G1 X107.136 Y96.613 E5.66531
G1 X107.235 Y96.477 E5.67049
G1 X107.335 Y96.288 E5.67707
G1 X108.886 Y97.839 E5.74456
G1 X109.093 Y97.523 E5.75618
G1 X107.506 Y95.936 E5.82523
G1 X107.626 Y95.533 E5.83817
G1 X109.285 Y97.191 E5.91033
G1 X109.451 Y96.835 E5.92242
G1 X107.673 Y95.056 E5.9998
G1 X107.682 Y94.954 E6.00295
G1 X107.628 Y94.488 E6.01738
G1 X109.717 Y96.577 E6.10828
G1 E1.10828
G92 E0
G1 X109.717 Y96.577 F6000
G1 X106.166 Y99.829
G1 E5 F1800
G1 X100.3 Y93.962 E5.25526
G1 X100.222 Y94.408 E5.26919
G1 X105.591 Y99.778 E5.50282
G1 X105.097 Y99.806 E5.51804
G1 X100.191 Y94.9 E5.73151
G1 X100.206 Y95.439 E5.7481
G1 X104.562 Y99.795 E5.93764
G1 X104.11 Y99.733 E5.95168
G1 X103.932 Y99.688 E5.95733
G1 X100.303 Y96.059 E6.11523
G1 X100.386 Y96.382 E6.12549
G1 X100.554 Y96.833 E6.1403
G1 X103.178 Y99.457 E6.25447
G1 X102.768 Y99.269 E6.26835
G1 X102.419 Y99.067 E6.28076
G1 X102.098 Y98.844 E6.29279
G1 X101.686 Y98.488 E6.30954
G1 X100.708 Y97.51 E6.35209
;LAYER_CHANGE
;Z:0.4
;HEIGHT:0.2
G1 E1.35209 F1800
G92 E0
G1 Z.4 F6000
M104 S225 ; set temperature
G1 X97.268 Y99.311
G1 E5 F1800
;TYPE:Skirt/Brim
;WIDTH:0.4
G1 F2400
G1 X96.756 Y98.332 E5.0328
G1 X96.243 Y96.543 E5.08806
G1 X96.108 Y94.939 E5.13585
G1 X96.314 Y93.094 E5.19097
G1 X96.851 Y91.441 E5.24257
G1 X97.767 Y89.827 E5.29767
G1 X98.82 Y88.606 E5.34554
G1 X100.184 Y87.525 E5.39722
G1 X101.61 Y86.779 E5.445
G1 X103.274 Y86.277 E5.49661
G1 X105.126 Y86.109 E5.55182
G1 X106.726 Y86.277 E5.59959
G1 X108.502 Y86.826 E5.65478
G1 X110.025 Y87.664 E5.70639
G1 X111.265 Y88.689 E5.75416
G1 X112.436 Y90.124 E5.80915
G1 X113.245 Y91.67 E5.86096
G1 X113.71 Y93.21 E5.90872
G1 X113.892 Y95.061 E5.96394
G1 X113.71 Y96.79 E6.01556
G1 X113.149 Y98.559 E6.07066
G1 X112.373 Y99.971 E6.1185
G1 X111.178 Y101.396 E6.17372
G1 X109.816 Y102.475 E6.22531
G1 X108.39 Y103.221 E6.27309
G1 X106.726 Y103.723 E6.3247
G1 X104.874 Y103.891 E6.37991
G1 X103.274 Y103.723 E6.42768
G1 X101.498 Y103.174 E6.48287
G1 X99.975 Y102.336 E6.53448
G1 X98.563 Y101.135 E6.58952
G1 X97.564 Y99.876 E6.63724
G1 X97.296 Y99.364 E6.6544
G1 X97.611 Y99.199 F6000
G1 F2400
G1 X97.085 Y98.194 E6.68808
G1 X96.593 Y96.476 E6.74114
G1 X96.465 Y94.947 E6.7867
G1 X96.662 Y93.176 E6.83961
G1 X97.18 Y91.579 E6.88946
G1 X98.06 Y90.031 E6.94233
G1 X99.065 Y88.866 E6.98801
G1 X100.382 Y87.822 E7.03791
G1 X101.741 Y87.111 E7.08345
G1 X103.453 Y86.606 E7.13645
