; generated by PrusaSlicer 2.8.1+linux-x64-GTK3 on 2024-12-14 at 11:30:50 UTC

; 

; external perimeters extrusion width = 0.45mm
; perimeters extrusion width = 0.45mm
; infill extrusion width = 0.45mm
; solid infill extrusion width = 0.45mm
; top infill extrusion width = 0.40mm
; support material extrusion width = 0.35mm
; first layer extrusion width = 0.40mm

M190 S81 ; set bed temperature and wait for it to be reached
M104 S230 ; set temperature
;TYPE:Custom
G28 ; home all axes
G1 Z5 F5000 ; lift nozzle
M109 S230 ; set temperature and wait for it to be reached
G21 ; set units to millimeters
G90 ; use absolute coordinates
M82 ; use absolute distances for extrusion
G92 E0
; Filament gcode
M107
;LAYER_CHANGE
;Z:0.2
;HEIGHT:0.2
G1 E-5 F1800
G92 E0
G1 Z.2 F6000
G1 X98.822 Y88.604
G1 E5 F1800
;TYPE:Skirt/Brim
;WIDTH:0.4
G1 X100.184 Y87.525 E5.05159
G1 X101.844 Y86.687 E5.1068
G1 X103.393 Y86.254 E5.15455
G1 X105.247 Y86.111 E5.20976
G1 X106.972 Y86.329 E5.26138
G1 X108.502 Y86.826 E5.30914
G1 X110.025 Y87.664 E5.36075
G1 X111.441 Y88.869 E5.41596
G1 X112.44 Y90.13 E5.46373
G1 X113.29 Y91.783 E5.51892
G1 X113.777 Y93.574 E5.57403
G1 X113.887 Y95.312 E5.62574
G1 X113.685 Y96.908 E5.67351
G1 X113.148 Y98.561 E5.72511
G1 X112.373 Y99.971 E5.77288
G1 X111.178 Y101.396 E5.8281
G1 X109.816 Y102.475 E5.87969
G1 X108.156 Y103.313 E5.9349
G1 X106.607 Y103.746 E5.98265
G1 X104.753 Y103.889 E6.03786
G1 X103.028 Y103.671 E6.08948
G1 X101.269 Y103.072 E6.14465
G1 X99.875 Y102.267 E6.19245
G1 X98.559 Y101.131 E6.24407
G1 X97.428 Y99.662 E6.29912
G1 X96.713 Y98.225 E6.34678
G1 X96.243 Y96.545 E6.39858
G1 X96.113 Y94.688 E6.45385
G1 X96.315 Y93.092 E6.50162
G1 X96.901 Y91.328 E6.55681
G1 X97.766 Y89.829 E6.6082
G1 X98.783 Y88.65 E6.65443
G1 X98.783 Y88.65 F6000
G1 X99.052 Y88.882
G1 F1800
G1 X99.066 Y88.865 E6.65508
G1 X100.382 Y87.822 E6.70494
G1 X101.975 Y87.019 E6.75791
G1 X103.453 Y86.606 E6.80347
G1 X105.232 Y86.468 E6.85645
G1 X106.897 Y86.678 E6.90628
G1 X108.586 Y87.255 E6.95927
G1 X109.915 Y88.022 E7.00483
G1 X111.258 Y89.196 E7.05779
G1 X112.273 Y90.533 E7.10763
G1 X113.043 Y92.143 E7.16062
G1 X113.424 Y93.626 E7.20608
G1 X113.53 Y95.304 E7.256
G1 X113.338 Y96.827 E7.30158
G1 X112.776 Y98.52 E7.35454
G1 X111.936 Y99.974 E7.4044
G1 X110.751 Y101.307 E7.45736
G1 X109.528 Y102.235 E7.50294
G1 X108.025 Y102.981 E7.55276
G1 X106.547 Y103.394 E7.59832
G1 X104.768 Y103.532 E7.6513
G1 X103.103 Y103.322 E7.70113
G1 X101.414 Y102.745 E7.75412
G1 X100.085 Y101.978 E7.79968
G1 X98.742 Y100.804 E7.85264
G1 X97.673 Y99.378 E7.90556
G1 X96.96 Y97.865 E7.95522
G1 X96.576 Y96.374 E8.00093
G1 X96.47 Y94.696 E8.05085
G1 X96.662 Y93.173 E8.09643
G1 X97.224 Y91.48 E8.14939
G1 X98.059 Y90.033 E8.19899
G1 X99.012 Y88.927 E8.24234
G1 X99.012 Y88.927 F6000
G1 X99.281 Y89.159
G1 F1800
G1 X99.311 Y89.125 E8.24369
G1 X100.579 Y88.119 E8.29175
G1 X102.107 Y87.351 E8.34253
G1 X103.512 Y86.958 E8.38585
G1 X105.217 Y86.825 E8.43663
G1 X106.823 Y87.028 E8.48469
G1 X108.211 Y87.479 E8.52802
G1 X109.705 Y88.311 E8.57879
G1 X110.93 Y89.368 E8.62683
G1 X111.837 Y90.512 E8.67018
G1 X112.621 Y92.032 E8.72096
G1 X113.071 Y93.679 E8.77165
G1 X113.173 Y95.297 E8.81979
G1 X112.99 Y96.745 E8.86312
G1 X112.452 Y98.368 E8.91389
G1 X111.643 Y99.77 E8.96195
G1 X110.506 Y101.047 E9.01272
G1 X109.129 Y102.06 E9.06348
G1 X107.808 Y102.681 E9.10682
G1 X106.24 Y103.084 E9.15489
G1 X104.783 Y103.175 E9.19823
G1 X103.177 Y102.972 E9.24629
G1 X101.559 Y102.419 E9.29706
G1 X100.295 Y101.689 E9.3404
G1 X99.007 Y100.565 E9.39116
G1 X97.983 Y99.2 E9.44183
G1 X97.295 Y97.74 E9.48975
G1 X96.929 Y96.321 E9.53326
G1 X96.827 Y94.703 E9.5814
G1 X97.01 Y93.255 E9.62473
G1 X97.548 Y91.632 E9.6755
G1 X98.352 Y90.236 E9.72333
G1 X99.242 Y89.205 E9.76377
G1 E4.76377
G92 E0
G1 X99.242 Y89.205 F6000
G92 E0
G1 X106.521 Y93.706
G1 E5 F1800
;TYPE:Perimeter
;WIDTH:0.399999
G1 X106.574 Y93.701 E5.00158
G1 X107.028 Y93.808 E5.01543
G1 X107.459 Y94.115 E5.03114
G1 X107.68 Y94.438 E5.04276
G1 X107.806 Y94.957 E5.05862
G1 X107.716 Y95.475 E5.07423
G1 X107.45 Y95.898 E5.08907
G1 X107.01 Y96.204 E5.10498
G1 X106.586 Y96.302 E5.1179
G1 X106.059 Y96.23 E5.13369
G1 X105.673 Y96.004 E5.14697
G1 X105.464 Y95.776 E5.15615
G1 X105.273 Y95.436 E5.16773
;WIDTH:0.41843
G1 X105.185 Y95.056 E5.17991
G1 X105.261 Y94.585 E5.19481
;WIDTH:0.399999
G1 X105.505 Y94.155 E5.20949
G1 X105.905 Y93.843 E5.22455
G1 X106.199 Y93.742 E5.23378
G1 X106.461 Y93.713 E5.24161
G1 X106.461 Y93.713 F6000
G1 X106.518 Y94.054
;TYPE:External perimeter
G1 F1800
G1 X106.865 Y94.126 E5.25213
G1 X107.186 Y94.347 E5.2637
G1 X107.379 Y94.646 E5.27427
G1 X107.448 Y94.994 E5.2848
G1 X107.381 Y95.347 E5.29547
G1 X107.164 Y95.675 E5.30715
G1 X106.836 Y95.886 E5.31873
G1 X106.483 Y95.947 E5.32937
G1 X106.135 Y95.874 E5.33993
G1 X105.865 Y95.702 E5.34944
G1 X105.621 Y95.354 E5.36206
G1 X105.552 Y95.006 E5.37259
G1 X105.619 Y94.653 E5.38326
G1 X105.836 Y94.325 E5.39494
G1 X106.164 Y94.114 E5.40652
G1 X106.459 Y94.062 E5.41541
G1 X106.851 Y94.142 F6000
G1 E.41541 F1800
G92 E0
G1 X103.475 Y93.352 F6000
G1 E5 F1800
;TYPE:Perimeter
G1 X103.651 Y93.352 E5.00523
G1 X104.186 Y93.484 E5.02159
G1 X104.661 Y93.807 E5.03865
G1 X105.005 Y94.281 E5.05604
G1 X105.332 Y93.816 E5.07292
G1 X105.766 Y93.509 E5.0887
G1 X106.125 Y93.392 E5.09991
G1 X106.502 Y93.336 E5.11123
G1 X107.004 Y93.416 E5.12632
G1 X107.518 Y93.695 E5.14368
G1 X107.773 Y93.939 E5.15416
G1 X107.996 Y94.273 E5.16608
G1 X108.14 Y94.765 E5.1813
G1 X108.154 Y95.099 E5.19123
G1 X108.042 Y95.622 E5.20711
G1 X107.781 Y96.057 E5.22217
G1 X107.466 Y96.335 E5.23464
G1 X107.151 Y96.532 E5.24567
G1 X106.634 Y96.656 E5.26146
G1 X106.082 Y96.603 E5.27792
G1 X105.753 Y96.477 E5.28838
G1 X105.339 Y96.193 E5.30329
G1 X104.995 Y95.719 E5.32068
G1 X104.668 Y96.184 E5.33756
G1 X104.225 Y96.496 E5.35365
G1 X103.701 Y96.645 E5.36982
G1 X103.349 Y96.648 E5.38027
G1 X102.781 Y96.499 E5.39771
G1 X102.427 Y96.267 E5.41028
G1 X102.227 Y96.061 E5.4188
G1 X101.974 Y95.665 E5.43275
G1 X101.837 Y95.051 E5.45143
G1 X101.922 Y94.471 E5.46883
G1 X102.174 Y94.009 E5.48446
G1 X102.428 Y93.739 E5.49547
G1 X102.849 Y93.468 E5.51034
G1 X103.319 Y93.351 E5.52472
G1 X103.415 Y93.351 E5.52757
G1 X103.415 Y93.351 F6000
G1 X103.477 Y93.696
G1 F1800
G1 X103.491 Y93.693 E5.528
G1 X103.584 Y93.702 E5.53077
G1 X104.06 Y93.821 E5.54534
G1 X104.412 Y94.064 E5.55804
G1 X104.683 Y94.444 E5.5719
;WIDTH:0.419573
G1 X104.815 Y94.935 E5.58782
G1 X104.739 Y95.415 E5.60304
;WIDTH:0.399999
G1 X104.495 Y95.845 E5.61772
G1 X104.082 Y96.166 E5.63325
G1 X103.605 Y96.3 E5.64796
G1 X103.101 Y96.237 E5.66304
G1 X102.827 Y96.106 E5.67206
G1 X102.52 Y95.857 E5.6838
G1 X102.303 Y95.524 E5.6956
G1 X102.194 Y95.043 E5.71024
G1 X102.262 Y94.581 E5.72411
G1 X102.554 Y94.098 E5.74087
G1 X102.99 Y93.796 E5.75662
G1 X103.418 Y93.708 E5.76959
G1 X103.418 Y93.708 F6000
G1 X103.482 Y94.059
;TYPE:External perimeter
G1 F1800
G1 X103.518 Y94.053 E5.77067
G1 X103.898 Y94.14 E5.78224
G1 X104.186 Y94.347 E5.79277
G1 X104.379 Y94.646 E5.80334
G1 X104.448 Y94.994 E5.81387
G1 X104.381 Y95.347 E5.82454
G1 X104.164 Y95.675 E5.83622
G1 X103.836 Y95.886 E5.8478
G1 X103.482 Y95.947 E5.85847
G1 X103.102 Y95.86 E5.87004
G1 X102.814 Y95.653 E5.88057
G1 X102.621 Y95.354 E5.89114
G1 X102.553 Y95.006 E5.90167
G1 X102.619 Y94.653 E5.91233
G1 X102.836 Y94.325 E5.92401
G1 X103.164 Y94.114 E5.93559
G1 X103.423 Y94.07 E5.94339
G1 X103.819 Y94.126 F6000
G1 E.94339 F1800
G92 E0
G1 X105.089 Y89.925 F6000
G1 E5 F1800
;TYPE:Perimeter
G1 X105.196 Y89.925 E5.00318
G1 X105.98 Y90.015 E5.02661
G1 X106.564 Y90.162 E5.04449
G1 X107.174 Y90.403 E5.06396
G1 X107.661 Y90.672 E5.08048
G1 X108.235 Y91.077 E5.10134
G1 X108.665 Y91.481 E5.11886
G1 X109.015 Y91.886 E5.13475
G1 X109.381 Y92.424 E5.15407
G1 X109.624 Y92.896 E5.16983
G1 X109.865 Y93.521 E5.18972
G1 X110.003 Y94.111 E5.20771
G1 X110.067 Y94.616 E5.22282
G1 X110.08 Y95.221 E5.24079
G1 X110.03 Y95.728 E5.25592
G1 X109.884 Y96.409 E5.2766
G1 X109.707 Y96.901 E5.29212
G1 X109.486 Y97.39 E5.30805
G1 X109.211 Y97.834 E5.32356
G1 X108.881 Y98.282 E5.34008
G1 X108.518 Y98.669 E5.35583
G1 X107.949 Y99.14 E5.37776
G1 X107.482 Y99.433 E5.39413
G1 X106.884 Y99.72 E5.41382
G1 X106.22 Y99.925 E5.43445
G1 X105.539 Y100.056 E5.45504
G1 X104.981 Y100.079 E5.47162
G1 X104.478 Y100.058 E5.48657
G1 X103.918 Y99.963 E5.50343
G1 X103.429 Y99.836 E5.51843
G1 X102.963 Y99.654 E5.53328
G1 X102.148 Y99.208 E5.56086
G1 X101.713 Y98.874 E5.57714
G1 X101.048 Y98.197 E5.60532
G1 X100.74 Y97.769 E5.62098
G1 X100.376 Y97.104 E5.64349
G1 X100.135 Y96.479 E5.66338
G1 X99.997 Y95.889 E5.68137
G1 X99.933 Y95.384 E5.69648
G1 X99.929 Y94.679 E5.71741
G1 X100.024 Y93.952 E5.73918
G1 X100.186 Y93.373 E5.75703
G1 X100.374 Y92.892 E5.77236
G1 X100.76 Y92.194 E5.79604
G1 X101.117 Y91.723 E5.81359
G1 X101.482 Y91.331 E5.82949
G1 X101.924 Y90.963 E5.84657
G1 X102.355 Y90.664 E5.86214
G1 X102.918 Y90.364 E5.88108
G1 X103.625 Y90.105 E5.90344
G1 X104.176 Y89.988 E5.92016
G1 X104.681 Y89.925 E5.93527
G1 X105.029 Y89.925 E5.9456
G1 X105.029 Y89.925 F6000
G1 X105.104 Y89.559
G1 F1800
G1 X105.11 Y89.559 E5.94578
G1 X105.69 Y89.608 E5.96306
G1 X106.243 Y89.701 E5.97971
G1 X106.776 Y89.862 E5.99624
G1 X107.653 Y90.251 E6.02473
G1 X108.106 Y90.531 E6.04054
G1 X108.531 Y90.865 E6.05659
G1 X109.026 Y91.343 E6.07702
G1 X109.408 Y91.826 E6.0953
G1 X109.694 Y92.252 E6.11053
G1 X110.036 Y92.943 E6.13342
G1 X110.208 Y93.421 E6.1485
G1 X110.367 Y94.098 E6.16915
G1 X110.424 Y94.608 E6.18439
G1 X110.427 Y95.351 E6.20645
G1 X110.333 Y96.076 E6.22816
G1 X110.212 Y96.567 E6.24317
G1 X109.995 Y97.149 E6.26161
G1 X109.772 Y97.617 E6.277
G1 X109.4 Y98.202 E6.29758
G1 X109.074 Y98.605 E6.31297
G1 X108.522 Y99.146 E6.33592
G1 X108.106 Y99.469 E6.35156
G1 X107.64 Y99.753 E6.36776
G1 X107.008 Y100.055 E6.38856
G1 X106.309 Y100.271 E6.41028
G1 X105.684 Y100.396 E6.4292
G1 X105.096 Y100.432 E6.44669
G1 X104.55 Y100.42 E6.46291
G1 X103.996 Y100.338 E6.47954
G1 X103.399 Y100.199 E6.49774
G1 X102.895 Y100.018 E6.51364
G1 X102.36 Y99.753 E6.53137
G1 X101.894 Y99.469 E6.54757
G1 X101.469 Y99.134 E6.56364
G1 X100.778 Y98.43 E6.59293
G1 X100.47 Y98.017 E6.60823
G1 X100.196 Y97.542 E6.62451
G1 X99.964 Y97.057 E6.64047
G1 X99.792 Y96.579 E6.65555
G1 X99.649 Y95.97 E6.67412
G1 X99.577 Y95.461 E6.68938
G1 X99.564 Y94.837 E6.70791
G1 X99.6 Y94.318 E6.72336
G1 X99.694 Y93.807 E6.73879
G1 X99.965 Y92.946 E6.76559
G1 X100.204 Y92.433 E6.78239
G1 X100.464 Y91.993 E6.79756
G1 X100.883 Y91.441 E6.81814
G1 X101.244 Y91.065 E6.83362
G1 X101.714 Y90.674 E6.85177
G1 X102.183 Y90.351 E6.86868
G1 X102.78 Y90.035 E6.88874
G1 X103.341 Y89.822 E6.90656
G1 X103.857 Y89.69 E6.92237
G1 X104.567 Y89.578 E6.94371
G1 X105.045 Y89.561 E6.95791
G1 X105.045 Y89.561 F6000
G1 X105.119 Y89.202
;TYPE:External perimeter
G1 F1800
G1 X105.121 Y89.202 E6.95797
G1 X105.72 Y89.252 E6.97582
G1 X106.224 Y89.334 E6.99098
G1 X106.792 Y89.484 E7.00842
G1 X107.362 Y89.71 E7.02663
G1 X107.9 Y89.977 E7.04446
G1 X108.381 Y90.292 E7.06153
G1 X108.776 Y90.605 E7.07649
G1 X109.383 Y91.209 E7.10191
G1 X109.701 Y91.622 E7.11739
G1 X110.007 Y92.08 E7.13374
G1 X110.363 Y92.797 E7.15751
G1 X110.552 Y93.322 E7.17408
G1 X110.719 Y94.035 E7.19582
G1 X110.781 Y94.601 E7.21273
G1 X110.783 Y95.381 E7.23589
G1 X110.685 Y96.136 E7.25849
G1 X110.553 Y96.674 E7.27494
G1 X110.33 Y97.274 E7.29395
G1 X110.083 Y97.792 E7.31099
G1 X109.745 Y98.325 E7.32973
G1 X109.39 Y98.79 E7.3471
G1 X108.996 Y99.2 E7.36398
G1 X108.381 Y99.709 E7.38768
G1 X107.902 Y100.022 E7.40467
G1 X107.353 Y100.294 E7.42286
G1 X106.794 Y100.515 E7.44071
G1 X106.21 Y100.665 E7.45861
G1 X105.606 Y100.768 E7.4768
G1 X105.011 Y100.793 E7.49448
G1 X104.396 Y100.768 E7.51276
G1 X103.799 Y100.667 E7.53074
G1 X103.303 Y100.543 E7.54592
G1 X102.753 Y100.347 E7.56326
G1 X102.201 Y100.073 E7.58156
G1 X101.766 Y99.811 E7.59664
G1 X101.303 Y99.469 E7.61373
G1 X100.846 Y99.039 E7.63236
G1 X100.507 Y98.664 E7.64737
G1 X100.17 Y98.211 E7.66413
G1 X99.852 Y97.66 E7.68302
G1 X99.638 Y97.203 E7.698
G1 X99.448 Y96.678 E7.71458
G1 X99.301 Y96.052 E7.73367
G1 X99.221 Y95.487 E7.75061
G1 X99.207 Y94.845 E7.76968
G1 X99.24 Y94.344 E7.78459
G1 X99.327 Y93.796 E7.80106
G1 X99.468 Y93.289 E7.81668
G1 X99.633 Y92.814 E7.83161
G1 X99.884 Y92.274 E7.84929
G1 X100.168 Y91.792 E7.8659
G1 X100.548 Y91.291 E7.88457
G1 X100.884 Y90.918 E7.89948
G1 X101.303 Y90.531 E7.91642
G1 X101.892 Y90.103 E7.93804
G1 X102.429 Y89.808 E7.95623
G1 X102.888 Y89.602 E7.97117
G1 X103.44 Y89.414 E7.98848
G1 X104.027 Y89.289 E8.0063
G1 X104.529 Y89.223 E8.02133
G1 X105.059 Y89.204 E8.03708
G1 X105.458 Y89.231 F6000
G1 E3.03708 F1800
G92 E0
G1 X106.963 Y93.302 F6000
G1 E5 F1800
;TYPE:Solid infill
;WIDTH:0.412731
G1 X103.967 Y90.306 E5.13029
G1 X103.549 Y90.411 E5.14354
G1 X106.234 Y93.096 E5.2603
G1 X105.816 Y93.201 E5.27355
G1 X103.165 Y90.55 E5.38883
G1 X102.811 Y90.719 E5.40089
G1 X105.475 Y93.383 E5.51674
G1 X105.171 Y93.602 E5.52826
G1 X102.473 Y90.904 E5.64559
G1 X102.165 Y91.119 E5.65714
G1 X104.28 Y93.234 E5.74911
G1 X104.123 Y93.174 E5.75428
G1 X103.599 Y93.077 E5.77067
G1 X101.867 Y91.344 E5.84601
G1 X101.595 Y91.595 E5.85739
G1 X103.12 Y93.12 E5.92371
G1 X102.889 Y93.171 E5.93098
G1 X102.715 Y93.238 E5.93671
G1 X101.344 Y91.867 E5.99633
G1 X101.118 Y92.164 E6.00781
G1 X102.392 Y93.438 E6.06321
G1 X102.1 Y93.669 E6.07466
G1 X100.904 Y92.473 E6.12667
G1 X100.715 Y92.807 E6.13847
G1 X101.883 Y93.975 E6.18926
G1 X101.7 Y94.315 E6.20113
G1 X100.55 Y93.165 E6.25114
G1 X100.414 Y93.552 E6.26375
G1 X101.605 Y94.743 E6.31554
G1 X101.568 Y95.055 E6.3252
G1 X101.593 Y95.254 E6.33137
G1 X100.3 Y93.961 E6.3876
G1 X100.286 Y94.011 E6.3892
G1 X100.22 Y94.404 E6.40145
G1 X105.593 Y99.777 E6.63511
G1 X105.099 Y99.806 E6.65033
G1 X100.191 Y94.898 E6.86376
G1 X100.204 Y95.434 E6.88025
G1 X104.565 Y99.795 E7.0699
G1 X103.943 Y99.696 E7.08927
G1 X100.314 Y96.066 E7.24711
G1 X100.393 Y96.404 E7.25778
G1 X100.541 Y96.817 E7.27127
G1 X103.183 Y99.459 E7.38616
G1 X102.581 Y99.165 E7.40676
G1 X102.251 Y98.956 E7.41877
G1 X101.938 Y98.718 E7.43086
G1 X100.718 Y97.517 E7.4835
G1 E2.4835
G92 E0
G1 X100.718 Y97.517 F6000
G1 X103.034 Y96.695
G1 E5 F1800
G1 X106.035 Y99.696 E5.1305
G1 X106.451 Y99.589 E5.14371
G1 X103.76 Y96.898 E5.26073
G1 X104.045 Y96.846 E5.26964
G1 X104.181 Y96.796 E5.2741
G1 X106.837 Y99.452 E5.3896
G1 X107.188 Y99.28 E5.40162
G1 X104.524 Y96.616 E5.51747
G1 X104.829 Y96.398 E5.529
G1 X107.527 Y99.096 E5.64633
G1 X107.84 Y98.886 E5.65792
G1 X105.719 Y96.765 E5.75016
G1 X105.951 Y96.85 E5.75776
G1 X106.395 Y96.918 E5.77157
G1 X108.133 Y98.656 E5.84715
G1 X108.405 Y98.405 E5.85853
G1 X106.878 Y96.878 E5.92493
G1 X107.1 Y96.832 E5.9319
G1 X107.286 Y96.763 E5.938
G1 X108.657 Y98.134 E5.99762
G1 X108.888 Y97.842 E6.00907
G1 X107.608 Y96.562 E6.06473
G1 X107.9 Y96.331 E6.07618
G1 X109.091 Y97.523 E6.12799
G1 X109.285 Y97.193 E6.13976
G1 X108.116 Y96.024 E6.1906
G1 X108.302 Y95.687 E6.20244
G1 X109.447 Y96.832 E6.25223
G1 X109.588 Y96.45 E6.26475
G1 X108.4 Y95.262 E6.31641
G1 X108.424 Y95.102 E6.32139
G1 X108.41 Y94.749 E6.33225
G1 X109.702 Y96.041 E6.38844
G1 X109.712 Y96.002 E6.38968
G1 X109.78 Y95.596 E6.40234
G1 X104.407 Y90.223 E6.636
G1 X104.899 Y90.192 E6.65116
G1 X109.809 Y95.103 E6.8647
G1 X109.796 Y94.566 E6.88122
G1 X105.444 Y90.214 E7.07048
G1 X105.716 Y90.237 E7.07887
G1 X106.054 Y90.302 E7.08945
G1 X109.687 Y93.934 E7.24742
G1 X109.607 Y93.596 E7.2581
G1 X109.46 Y93.184 E7.27155
G1 X106.832 Y90.556 E7.38583
G1 X107.062 Y90.647 E7.39344
G1 X107.409 Y90.828 E7.40547
G1 X107.749 Y91.044 E7.41786
G1 X108.062 Y91.282 E7.42995
G1 X109.304 Y92.505 E7.48355
;LAYER_CHANGE
;Z:0.4
;HEIGHT:0.2
G1 E2.48355 F1800
G92 E0
G1 Z.4 F6000
M104 S225 ; set temperature
M140 S80 ; set bed temperature
G1 X112.75 Y90.733
G1 E5 F1800
;TYPE:Skirt/Brim
;WIDTH:0.4
G1 F2400
G1 X113.29 Y91.783 E5.03506
G1 X113.777 Y93.574 E5.09017
G1 X113.887 Y95.312 E5.14188
G1 X113.685 Y96.908 E5.18965
G1 X113.148 Y98.561 E5.24125
G1 X112.373 Y99.971 E5.28902
G1 X111.178 Y101.396 E5.34424
