; generated by PrusaSlicer 2.8.1+linux-x64-GTK3 on 2024-12-14 at 12:26:52 UTC

; 

; external perimeters extrusion width = 0.45mm
; perimeters extrusion width = 0.45mm
; infill extrusion width = 0.45mm
; solid infill extrusion width = 0.45mm
; top infill extrusion width = 0.40mm
; support material extrusion width = 0.35mm
; first layer extrusion width = 0.40mm

M190 S81 ; set bed temperature and wait for it to be reached
M104 S230 ; set temperature
;TYPE:Custom
G28 ; home all axes
G1 Z5 F5000 ; lift nozzle
M109 S230 ; set temperature and wait for it to be reached
G21 ; set units to millimeters
G90 ; use absolute coordinates
M82 ; use absolute distances for extrusion
G92 E0
; Filament gcode
M107
;LAYER_CHANGE
;Z:0.2
;HEIGHT:0.2
G1 E-5 F1800
G92 E0
G1 Z.2 F6000
G1 X98.822 Y88.604
G1 E5 F1800
;TYPE:Skirt/Brim
;WIDTH:0.4
G1 X100.184 Y87.525 E5.05159
G1 X101.844 Y86.687 E5.1068
G1 X103.393 Y86.254 E5.15455
G1 X105.247 Y86.111 E5.20976
G1 X106.972 Y86.329 E5.26138
G1 X108.502 Y86.826 E5.30914
G1 X110.025 Y87.664 E5.36075
G1 X111.441 Y88.869 E5.41596
G1 X112.44 Y90.13 E5.46373
G1 X113.29 Y91.783 E5.51892
G1 X113.777 Y93.574 E5.57403
G1 X113.887 Y95.312 E5.62574
G1 X113.685 Y96.908 E5.67351
G1 X113.148 Y98.561 E5.72511
G1 X112.373 Y99.971 E5.77288
G1 X111.178 Y101.396 E5.8281
G1 X109.816 Y102.475 E5.87969
G1 X108.156 Y103.313 E5.9349
G1 X106.607 Y103.746 E5.98265
G1 X104.753 Y103.889 E6.03786
G1 X103.028 Y103.671 E6.08948
G1 X101.269 Y103.072 E6.14465
G1 X99.875 Y102.267 E6.19245
G1 X98.559 Y101.131 E6.24407
G1 X97.428 Y99.662 E6.29912
G1 X96.713 Y98.225 E6.34678
G1 X96.243 Y96.545 E6.39858
G1 X96.113 Y94.688 E6.45385
G1 X96.315 Y93.092 E6.50162
G1 X96.901 Y91.328 E6.55681
G1 X97.766 Y89.829 E6.6082
G1 X98.783 Y88.65 E6.65443
G1 X98.783 Y88.65 F6000
G1 X99.052 Y88.882
G1 F1800
G1 X99.066 Y88.865 E6.65508
G1 X100.472 Y87.765 E6.70808
G1 X101.975 Y87.019 E6.7579
G1 X103.453 Y86.606 E6.80346
G1 X105.232 Y86.468 E6.85644
G1 X106.897 Y86.678 E6.90627
G1 X108.586 Y87.255 E6.95926
G1 X109.915 Y88.022 E7.00482
G1 X111.258 Y89.196 E7.05778
G1 X112.273 Y90.533 E7.10762
G1 X113.043 Y92.143 E7.16061
G1 X113.424 Y93.626 E7.20607
G1 X113.53 Y95.304 E7.25599
G1 X113.338 Y96.827 E7.30157
G1 X112.776 Y98.52 E7.35453
G1 X111.936 Y99.974 E7.40439
G1 X110.751 Y101.307 E7.45735
G1 X109.528 Y102.235 E7.50293
G1 X108.025 Y102.981 E7.55275
G1 X106.547 Y103.394 E7.59831
G1 X104.768 Y103.532 E7.65129
G1 X103.103 Y103.322 E7.70112
G1 X101.414 Y102.745 E7.75411
G1 X100.085 Y101.978 E7.79967
G1 X98.742 Y100.804 E7.85263
G1 X97.673 Y99.378 E7.90555
G1 X96.96 Y97.865 E7.95521
G1 X96.576 Y96.374 E8.00092
G1 X96.47 Y94.696 E8.05084
G1 X96.662 Y93.173 E8.09642
G1 X97.224 Y91.48 E8.14938
G1 X98.059 Y90.033 E8.19898
G1 X99.012 Y88.927 E8.24233
G1 X99.012 Y88.927 F6000
G1 X99.281 Y89.159
G1 F1800
G1 X99.311 Y89.125 E8.24368
G1 X100.579 Y88.119 E8.29174
G1 X102.107 Y87.351 E8.34252
G1 X103.512 Y86.958 E8.38584
G1 X105.217 Y86.825 E8.43662
G1 X106.823 Y87.028 E8.48468
G1 X108.211 Y87.479 E8.52801
G1 X109.705 Y88.311 E8.57878
G1 X110.93 Y89.368 E8.62682
G1 X111.837 Y90.512 E8.67017
G1 X112.621 Y92.032 E8.72095
G1 X113.071 Y93.679 E8.77164
G1 X113.173 Y95.297 E8.81978
G1 X112.99 Y96.745 E8.86311
G1 X112.452 Y98.368 E8.91388
G1 X111.643 Y99.77 E8.96194
G1 X110.506 Y101.047 E9.01271
G1 X109.129 Y102.06 E9.06347
G1 X107.808 Y102.681 E9.10681
G1 X106.24 Y103.084 E9.15488
G1 X104.783 Y103.175 E9.19822
G1 X103.177 Y102.972 E9.24628
G1 X101.559 Y102.419 E9.29705
G1 X100.295 Y101.689 E9.34039
G1 X99.007 Y100.565 E9.39115
G1 X97.983 Y99.2 E9.44182
G1 X97.295 Y97.74 E9.48974
G1 X96.929 Y96.321 E9.53325
G1 X96.827 Y94.703 E9.58139
G1 X97.01 Y93.255 E9.62472
G1 X97.548 Y91.632 E9.67549
G1 X98.352 Y90.236 E9.72332
G1 X99.242 Y89.205 E9.76376
G1 E4.76376
G92 E0
G1 X99.242 Y89.205 F6000
G92 E0
G1 X107.458 Y93.091
G1 E5 F1800
;TYPE:Perimeter
;WIDTH:0.399999
G1 X107.488 Y93.086 E5.0009
G1 X108.005 Y93.162 E5.01642
G1 X108.391 Y93.325 E5.02886
G1 X108.872 Y93.665 E5.04635
G1 X109.166 Y94.075 E5.06133
G1 X109.307 Y94.399 E5.07182
G1 X109.414 Y94.981 E5.08939
G1 X109.33 Y95.524 E5.1057
G1 X109.203 Y95.855 E5.11623
G1 X108.998 Y96.178 E5.12759
G1 X108.754 Y96.433 E5.13807
G1 X108.194 Y96.783 E5.15768
G1 X107.672 Y96.901 E5.17357
G1 X107.372 Y96.902 E5.18248
G1 X106.852 Y96.801 E5.19821
G1 X106.354 Y96.522 E5.21516
G1 X106.094 Y96.284 E5.22563
G1 X105.801 Y95.875 E5.24057
G1 X105.666 Y95.483 E5.25288
G1 X105.587 Y95.017 E5.26691
G1 X105.67 Y94.475 E5.28319
G1 X105.796 Y94.146 E5.29365
G1 X106.143 Y93.651 E5.3116
G1 X106.562 Y93.348 E5.32695
G1 X106.898 Y93.19 E5.33797
G1 X107.399 Y93.102 E5.35307
G1 X107.399 Y93.102 F6000
G1 X107.466 Y93.446
G1 F1800
G1 X107.484 Y93.443 E5.35361
G1 X107.994 Y93.525 E5.36895
G1 X108.501 Y93.817 E5.38632
G1 X108.758 Y94.113 E5.39796
G1 X108.957 Y94.473 E5.41017
G1 X109.057 Y94.989 E5.42578
G1 X108.954 Y95.555 E5.44286
G1 X108.697 Y95.987 E5.45778
G1 X108.55 Y96.139 E5.46406
G1 X108.075 Y96.447 E5.48087
G1 X107.521 Y96.557 E5.49764
G1 X106.969 Y96.464 E5.51426
G1 X106.482 Y96.178 E5.53103
G1 X106.383 Y96.074 E5.53529
G1 X106.072 Y95.622 E5.55158
G1 X105.947 Y95.101 E5.56749
G1 X106.022 Y94.535 E5.58444
G1 X106.098 Y94.337 E5.59074
G1 X106.388 Y93.911 E5.60604
G1 X106.798 Y93.619 E5.62099
G1 X106.992 Y93.534 E5.62728
G1 X107.407 Y93.457 E5.63981
G1 X107.407 Y93.457 F6000
G1 X107.475 Y93.809
;TYPE:External perimeter
G1 F1800
G1 X107.508 Y93.803 E5.64081
G1 X107.952 Y93.892 E5.65426
G1 X108.361 Y94.168 E5.66891
G1 X108.608 Y94.548 E5.68237
G1 X108.697 Y95.033 E5.69701
G1 X108.6 Y95.472 E5.71036
G1 X108.346 Y95.846 E5.72378
G1 X107.933 Y96.116 E5.73843
G1 X107.492 Y96.197 E5.75174
G1 X107.051 Y96.11 E5.76509
G1 X106.672 Y95.864 E5.77851
G1 X106.393 Y95.456 E5.79319
G1 X106.303 Y95.013 E5.80661
G1 X106.399 Y94.529 E5.82126
G1 X106.653 Y94.154 E5.83471
G1 X107.067 Y93.884 E5.84939
G1 X107.416 Y93.82 E5.85993
G1 X107.813 Y93.868 F6000
G1 E.85993 F1800
G92 E0
G1 X102.467 Y93.087 F6000
G1 E5 F1800
;TYPE:Perimeter
G1 X102.471 Y93.086 E5.00012
G1 X103.005 Y93.162 E5.01613
G1 X103.319 Y93.279 E5.02608
G1 X103.818 Y93.612 E5.04389
G1 X104.156 Y94.06 E5.06055
G1 X104.302 Y94.381 E5.07102
G1 X104.412 Y94.905 E5.08692
G1 X104.33 Y95.525 E5.10549
G1 X104.203 Y95.855 E5.11599
G1 X103.857 Y96.349 E5.1339
G1 X103.406 Y96.675 E5.15042
G1 X103.082 Y96.815 E5.1609
G1 X102.512 Y96.914 E5.17808
G1 X101.995 Y96.838 E5.1936
G1 X101.681 Y96.721 E5.20355
G1 X101.31 Y96.494 E5.21646
G1 X101.094 Y96.284 E5.2254
G1 X100.746 Y95.766 E5.24393
G1 X100.61 Y95.246 E5.25989
G1 X100.607 Y94.848 E5.27171
G1 X100.756 Y94.217 E5.29096
G1 X101.042 Y93.764 E5.30687
G1 X101.246 Y93.567 E5.31529
G1 X101.594 Y93.325 E5.32788
G1 X101.918 Y93.185 E5.33836
G1 X102.408 Y93.097 E5.35314
G1 X102.408 Y93.097 F6000
G1 X102.472 Y93.443
G1 F1800
G1 X102.474 Y93.443 E5.3532
G1 X103 Y93.527 E5.36902
G1 X103.461 Y93.783 E5.38468
G1 X103.617 Y93.926 E5.39096
G1 X103.928 Y94.378 E5.40725
G1 X104.053 Y94.899 E5.42316
G1 X103.978 Y95.465 E5.44011
G1 X103.902 Y95.663 E5.44641
G1 X103.612 Y96.089 E5.46171
G1 X103.202 Y96.381 E5.47666
G1 X103.008 Y96.466 E5.48295
G1 X102.516 Y96.557 E5.49781
G1 X102 Y96.473 E5.51333
G1 X101.539 Y96.217 E5.52899
G1 X101.383 Y96.074 E5.53527
G1 X101.074 Y95.626 E5.55143
G1 X100.944 Y95.054 E5.56885
G1 X101.022 Y94.535 E5.58443
G1 X101.098 Y94.337 E5.59073
G1 X101.426 Y93.878 E5.60748
G1 X101.798 Y93.619 E5.62094
G1 X102.121 Y93.507 E5.63109
G1 X102.413 Y93.454 E5.6399
G1 X102.413 Y93.454 F6000
G1 X102.476 Y93.81
;TYPE:External perimeter
G1 F1800
G1 X102.508 Y93.803 E5.64087
G1 X102.949 Y93.89 E5.65422
G1 X103.328 Y94.136 E5.66764
G1 X103.607 Y94.544 E5.68232
G1 X103.697 Y94.987 E5.69574
G1 X103.601 Y95.472 E5.71042
G1 X103.346 Y95.846 E5.72386
G1 X102.933 Y96.116 E5.73851
G1 X102.492 Y96.197 E5.75182
G1 X102.051 Y96.11 E5.76517
G1 X101.672 Y95.864 E5.77859
G1 X101.393 Y95.456 E5.79327
G1 X101.303 Y95.013 E5.80669
G1 X101.399 Y94.528 E5.82137
G1 X101.654 Y94.154 E5.83481
G1 X102.002 Y93.912 E5.8474
G1 X102.418 Y93.822 E5.86004
G1 X102.815 Y93.868 F6000
G1 E.86004 F1800
G92 E0
G1 X105.09 Y89.917 F6000
G1 E5 F1800
;TYPE:Perimeter
G1 X105.099 Y89.916 E5.00027
G1 X105.655 Y89.963 E5.01684
G1 X106.161 Y90.049 E5.03208
G1 X106.645 Y90.194 E5.04708
G1 X107.242 Y90.439 E5.06624
G1 X107.723 Y90.711 E5.08265
G1 X108.235 Y91.077 E5.10134
G1 X108.676 Y91.492 E5.11932
G1 X109.004 Y91.871 E5.1342
G1 X109.371 Y92.405 E5.15344
G1 X109.735 Y93.148 E5.17801
G1 X109.917 Y93.741 E5.19643
G1 X110.066 Y94.584 E5.22185
G1 X110.077 Y95.26 E5.24192
G1 X109.97 Y96.073 E5.26627
G1 X109.823 Y96.588 E5.28217
G1 X109.628 Y97.103 E5.29852
G1 X109.364 Y97.593 E5.31505
G1 X109.083 Y98.028 E5.33043
G1 X108.639 Y98.547 E5.35071
G1 X108.241 Y98.918 E5.36687
G1 X107.839 Y99.216 E5.38173
G1 X107.385 Y99.481 E5.39734
G1 X106.58 Y99.833 E5.42343
G1 X106.037 Y99.972 E5.44007
G1 X105.539 Y100.056 E5.45507
G1 X104.989 Y100.079 E5.47141
G1 X104.478 Y100.058 E5.4866
G1 X103.92 Y99.963 E5.50341
G1 X103.364 Y99.812 E5.52052
G1 X102.737 Y99.542 E5.54079
G1 X102.277 Y99.289 E5.55638
G1 X101.765 Y98.923 E5.57507
G1 X101.324 Y98.508 E5.59305
G1 X100.994 Y98.13 E5.60795
G1 X100.693 Y97.688 E5.62383
G1 X100.43 Y97.225 E5.63964
G1 X100.13 Y96.455 E5.66418
G1 X99.983 Y95.819 E5.68356
G1 X99.931 Y95.288 E5.6994
G1 X99.922 Y94.761 E5.71505
G1 X100.024 Y93.952 E5.73926
G1 X100.201 Y93.32 E5.75875
G1 X100.401 Y92.838 E5.77424
G1 X100.783 Y92.164 E5.79724
G1 X101.361 Y91.453 E5.82445
G1 X101.753 Y91.087 E5.84037
G1 X102.276 Y90.707 E5.85956
G1 X102.775 Y90.433 E5.87646
G1 X103.291 Y90.213 E5.89312
G1 X103.865 Y90.054 E5.9108
G1 X104.598 Y89.934 E5.93285
G1 X105.03 Y89.919 E5.94568
G1 X105.03 Y89.919 F6000
G1 X105.104 Y89.559
G1 F1800
G1 X105.11 Y89.559 E5.94586
G1 X105.685 Y89.607 E5.96299
G1 X106.243 Y89.701 E5.97979
G1 X106.776 Y89.862 E5.99632
G1 X107.456 Y90.148 E6.01822
G1 X108.049 Y90.495 E6.03862
G1 X108.466 Y90.804 E6.05403
G1 X108.921 Y91.232 E6.07258
G1 X109.261 Y91.615 E6.08779
G1 X109.626 Y92.139 E6.10675
G1 X109.892 Y92.618 E6.12302
G1 X110.208 Y93.421 E6.14864
G1 X110.358 Y94.061 E6.16816
G1 X110.423 Y94.576 E6.18357
G1 X110.432 Y95.29 E6.20477
G1 X110.359 Y95.921 E6.22363
G1 X110.212 Y96.567 E6.2433
G1 X109.986 Y97.174 E6.26253
G1 X109.772 Y97.617 E6.27714
G1 X109.433 Y98.151 E6.29592
G1 X109.12 Y98.556 E6.31112
G1 X108.765 Y98.927 E6.32637
G1 X108.16 Y99.428 E6.34969
G1 X107.726 Y99.71 E6.36506
G1 X107.193 Y99.975 E6.38273
G1 X106.687 Y100.174 E6.39887
G1 X106.126 Y100.318 E6.41607
G1 X105.573 Y100.412 E6.43272
G1 X105.004 Y100.436 E6.44963
G1 X104.437 Y100.413 E6.46648
G1 X103.752 Y100.297 E6.48711
G1 X103.239 Y100.147 E6.50298
G1 X102.579 Y99.861 E6.52434
G1 X101.951 Y99.505 E6.54577
G1 X101.534 Y99.196 E6.56118
G1 X101.029 Y98.721 E6.58176
G1 X100.705 Y98.34 E6.59661
G1 X100.384 Y97.867 E6.61358
G1 X100.103 Y97.371 E6.63051
G1 X99.792 Y96.579 E6.65577
G1 X99.676 Y96.085 E6.67084
G1 X99.577 Y95.461 E6.6896
G1 X99.564 Y94.805 E6.70908
G1 X99.606 Y94.288 E6.72448
G1 X99.718 Y93.722 E6.74161
G1 X99.878 Y93.166 E6.75879
G1 X100.081 Y92.679 E6.77446
G1 X100.434 Y92.042 E6.79608
G1 X100.763 Y91.598 E6.81249
G1 X101.152 Y91.154 E6.83002
G1 X101.528 Y90.809 E6.84517
G1 X102.084 Y90.405 E6.86558
G1 X102.688 Y90.073 E6.88604
G1 X103.181 Y89.874 E6.90183
G1 X103.791 Y89.705 E6.92062
G1 X104.561 Y89.579 E6.94379
G1 X105.045 Y89.561 E6.95817
G1 X105.045 Y89.561 F6000
G1 X105.119 Y89.202
;TYPE:External perimeter
G1 F1800
G1 X105.121 Y89.202 E6.95823
G1 X105.849 Y89.263 E6.97992
G1 X106.425 Y89.381 E6.99738
G1 X106.908 Y89.53 E7.01239
G1 X107.621 Y89.832 E7.03538
G1 X108.24 Y90.193 E7.05666
G1 X108.697 Y90.531 E7.07354
G1 X109.229 Y91.031 E7.09522
G1 X109.591 Y91.463 E7.11195
G1 X109.996 Y92.06 E7.13337
G1 X110.372 Y92.818 E7.15849
G1 X110.552 Y93.322 E7.17438
G1 X110.719 Y94.035 E7.19612
G1 X110.78 Y94.569 E7.21208
G1 X110.788 Y95.32 E7.23438
G1 X110.681 Y96.16 E7.25952
G1 X110.553 Y96.674 E7.27525
G1 X110.321 Y97.298 E7.29502
G1 X110.083 Y97.792 E7.3113
G1 X109.734 Y98.342 E7.33064
G1 X109.39 Y98.79 E7.34741
G1 X109.004 Y99.192 E7.36396
G1 X108.376 Y99.713 E7.38819
G1 X107.902 Y100.022 E7.40499
G1 X107.352 Y100.295 E7.42322
G1 X106.794 Y100.515 E7.44103
G1 X106.214 Y100.664 E7.45881
G1 X105.606 Y100.768 E7.47712
G1 X105.019 Y100.792 E7.49456
G1 X104.396 Y100.768 E7.51307
G1 X103.801 Y100.668 E7.53098
G1 X103.304 Y100.543 E7.5462
G1 X102.753 Y100.347 E7.56356
G1 X102.196 Y100.07 E7.58203
G1 X101.76 Y99.807 E7.59715
G1 X101.303 Y99.469 E7.61403
G1 X100.835 Y99.029 E7.6331
G1 X100.497 Y98.652 E7.64813
G1 X100.17 Y98.211 E7.66443
G1 X99.839 Y97.638 E7.68408
G1 X99.629 Y97.182 E7.69899
G1 X99.448 Y96.678 E7.71489
G1 X99.294 Y96.021 E7.73493
G1 X99.221 Y95.487 E7.75093
G1 X99.205 Y94.757 E7.77261
G1 X99.253 Y94.228 E7.78838
G1 X99.374 Y93.626 E7.80661
G1 X99.546 Y93.034 E7.82491
G1 X99.892 Y92.257 E7.85016
G1 X100.168 Y91.792 E7.86622
G1 X100.479 Y91.383 E7.88148
G1 X100.892 Y90.909 E7.90015
G1 X101.303 Y90.531 E7.91673
G1 X101.892 Y90.103 E7.93835
G1 X102.431 Y89.807 E7.95661
G1 X102.889 Y89.602 E7.97151
G1 X103.44 Y89.414 E7.9888
G1 X104.022 Y89.29 E8.00647
G1 X104.524 Y89.223 E8.02151
G1 X105.059 Y89.204 E8.0374
G1 X105.458 Y89.231 F6000
G1 E3.0374 F1800
G92 E0
G1 X109.304 Y92.505 F6000
G1 E5 F1800
;TYPE:Solid infill
;WIDTH:0.412731
G1 X108.062 Y91.282 E5.0536
G1 X107.749 Y91.044 E5.06569
G1 X107.409 Y90.828 E5.07808
G1 X107.062 Y90.647 E5.09011
G1 X106.832 Y90.556 E5.09772
G1 X109.46 Y93.184 E5.212
G1 X109.607 Y93.596 E5.22545
G1 X109.687 Y93.934 E5.23613
G1 X106.054 Y90.302 E5.3941
G1 X105.716 Y90.237 E5.40468
G1 X105.444 Y90.214 E5.41307
G1 X108.15 Y92.92 E5.53075
G1 X107.666 Y92.833 E5.54587
G1 X107.538 Y92.831 E5.54981
G1 X104.899 Y90.193 E5.66455
G1 X104.407 Y90.223 E5.67971
G1 X107.065 Y92.882 E5.79532
G1 X106.833 Y92.93 E5.80261
G1 X106.653 Y92.992 E5.80846
G1 X103.967 Y90.306 E5.92527
G1 X103.549 Y90.411 E5.93852
G1 X106.331 Y93.193 E6.0595
G1 X106.023 Y93.408 E6.07105
G1 X103.165 Y90.55 E6.19534
G1 X102.811 Y90.719 E6.2074
G1 X105.776 Y93.685 E6.33636
G1 X105.571 Y94.002 E6.34797
G1 X102.473 Y90.904 E6.48269
G1 X102.165 Y91.119 E6.49424
G1 X105.42 Y94.374 E6.63579
G1 X105.342 Y94.819 E6.64968
G1 X101.867 Y91.344 E6.8008
G1 X101.63 Y91.558 E6.81062
G1 X101.595 Y91.595 E6.81219
G1 X102.87 Y92.87 E6.86764
G1 X102.469 Y92.818 E6.88007
G1 X102.309 Y92.832 E6.88501
G1 X101.344 Y91.867 E6.92697
G1 X101.118 Y92.164 E6.93845
G1 X101.875 Y92.921 E6.97137
G1 X101.579 Y93.023 E6.981
G1 X101.504 Y93.073 E6.98377
G1 X100.904 Y92.473 E7.00986
G1 X100.715 Y92.807 E7.02166
G1 X101.192 Y93.284 E7.0424
G1 X101.039 Y93.387 E7.04807
G1 X100.907 Y93.522 E7.05388
G1 X100.55 Y93.165 E7.0694
G1 X100.414 Y93.552 E7.08201
G1 X100.687 Y93.825 E7.09388
G1 X100.516 Y94.096 E7.10373
G1 X100.496 Y94.157 E7.1057
G1 X100.3 Y93.961 E7.11422
G1 X100.22 Y94.404 E7.12806
G1 X100.383 Y94.567 E7.13515
G1 X100.322 Y95.028 E7.14945
G1 X100.191 Y94.898 E7.15513
G1 X100.204 Y95.434 E7.17162
G1 X100.447 Y95.677 E7.18219
G1 X100.498 Y95.871 E7.18836
G1 X100.625 Y96.094 E7.19625
G1 X100.882 Y96.447 E7.20968
G1 X101.153 Y96.712 E7.22134
G1 X101.615 Y96.991 E7.23794
G1 X101.849 Y97.079 E7.24563
G1 X104.565 Y99.795 E7.36374
G1 X104.887 Y99.815 E7.37366
G1 X105.099 Y99.806 E7.38018
G1 X102.462 Y97.169 E7.49486
G1 X102.676 Y97.172 E7.50144
G1 X102.935 Y97.119 E7.50957
G1 X105.593 Y99.777 E7.62516
G1 X106.035 Y99.696 E7.63898
G1 X103.348 Y97.009 E7.75583
G1 X103.675 Y96.813 E7.76755
G1 X106.451 Y99.589 E7.88827
G1 X106.837 Y99.452 E7.90086
G1 X103.977 Y96.592 E8.02523
G1 X104.159 Y96.414 E8.03306
G1 X104.224 Y96.316 E8.03668
G1 X107.188 Y99.28 E8.16558
G1 X107.527 Y99.096 E8.17744
G1 X104.429 Y95.998 E8.31216
G1 X104.51 Y95.85 E8.31735
G1 X104.58 Y95.626 E8.32457
G1 X107.84 Y98.886 E8.46634
G1 X108.133 Y98.656 E8.47779
G1 X104.658 Y95.181 E8.62891
G1 X104.675 Y94.83 E8.63972
G1 X104.631 Y94.631 E8.64599
G1 X105.589 Y95.59 E8.68767
G1 X105.589 Y95.59 F6000
G1 X106.922 Y96.922
G1 F1800
G1 X108.405 Y98.405 E8.75216
G1 X108.657 Y98.134 E8.76354
